(G-CODE GENERATED BY FLATCAM v8.994 - www.flatcam.org - Version Date: 2020/11/7)

(Name: new_geo_cnc)
(Type: G-code from Geometry)
(Units: MM)

(Created on Wednesday, 08 June 2022 at 22:35)

(This preprocessor is the default preprocessor used by FlatCAM.)
(It is made to work with MACH3 compatible motion controllers.)

(TOOL DIAMETER: 3.175 mm)
(Feedrate_XY: 120.0 mm/min)
(Feedrate_Z: 60.0 mm/min)
(Feedrate rapids 1500.0 mm/min)

(Z_Cut: -1.2 mm)
(DepthPerCut: 0.4 mm <=>3 passes)
(Z_Move: 2.0 mm)
(Z Start: None mm)
(Z End: 15.0 mm)
(X,Y End: None mm)
(Steps per circle: 64)
(Preprocessor Geometry: default)

(X range:   -2.6000 ...   37.3000  mm)
(Y range:   -1.6000 ...   20.4000  mm)

(Spindle Speed: 0.0 RPM)
G21
G90
G94

G01 F120.00
G00 Z15.0000


M03 S1000
G01 F120.00
G00 X-1.8000 Y0.1000
G01 F60.00
G01 Z-0.4000
G01 F120.00
G01 X-2.6000 Y-1.6000
G01 X37.3000 Y-1.6000
G01 X26.2000 Y20.3000
G01 X8.2000 Y20.4000
G01 X-1.8000 Y0.1000
G00 X-1.8000 Y0.1000
G01 F60.00
G01 Z-0.8000
G01 F120.00
G01 X-2.6000 Y-1.6000
G01 X37.3000 Y-1.6000
G01 X26.2000 Y20.3000
G01 X8.2000 Y20.4000
G01 X-1.8000 Y0.1000
G00 X-1.8000 Y0.1000
G01 F60.00
G01 Z-1.2000
G01 F120.00
G01 X-2.6000 Y-1.6000
G01 X37.3000 Y-1.6000
G01 X26.2000 Y20.3000
G01 X8.2000 Y20.4000
G01 X-1.8000 Y0.1000
G00 Z2.0000
M05
G00 Z2.0000
G00 Z15.00


