(G-CODE GENERATED BY FLATCAM v8.994 - www.flatcam.org - Version Date: 2020/11/7)

(Name: copper_top.gbr_iso_combined_cnc)
(Type: G-code from Geometry)
(Units: MM)

(Created on Wednesday, 08 June 2022 at 22:20)


G01 F80.00

M5
G00 Z15.0000
G00 X0.0000 Y0.0000
T1
M6    
(MSG, Change to Tool Dia = 0.2000)
M0
G00 Z15.0000

M03
G01 F80.00
G00 X5.6020 Y3.2366
G01 F60.00
G01 Z-0.1200
G01 F80.00
G01 X5.6021 Y2.5995
G01 X5.6027 Y2.5877
G01 X5.6038 Y2.5760
G01 X5.6066 Y2.5585
G01 X5.6092 Y2.5471
G01 X5.6123 Y2.5357
G01 X5.6160 Y2.5245
G01 X5.6226 Y2.5081
G01 X5.6276 Y2.4975
G01 X5.6361 Y2.4820
G01 X5.6458 Y2.4672
G01 X5.6565 Y2.4531
G01 X5.6682 Y2.4399
G01 X6.1187 Y1.9893
G01 X6.1272 Y1.9812
G01 X6.1407 Y1.9698
G01 X6.1502 Y1.9628
G01 X6.1600 Y1.9562
G01 X6.1752 Y1.9473
G01 X6.1911 Y1.9396
G01 X6.2075 Y1.9330
G01 X6.2244 Y1.9277
G01 X6.2415 Y1.9236
G01 X6.2532 Y1.9216
G01 X6.2648 Y1.9202
G01 X6.2766 Y1.9193
G01 X6.2884 Y1.9190
G01 X6.9255 Y1.9191
G01 X6.9432 Y1.9202
G01 X6.9548 Y1.9216
G01 X6.9665 Y1.9236
G01 X6.9779 Y1.9262
G01 X6.9893 Y1.9293
G01 X7.0005 Y1.9330
G01 X7.0115 Y1.9373
G01 X7.0222 Y1.9420
G01 X7.0328 Y1.9473
G01 X7.0430 Y1.9531
G01 X7.0530 Y1.9595
G01 X7.0626 Y1.9662
G01 X7.0719 Y1.9735
G01 X7.0851 Y1.9852
G01 X7.5269 Y2.4269
G01 X14.3510 Y2.4269
G01 X14.3877 Y2.4284
G01 X14.4053 Y2.4299
G01 X14.4474 Y2.4364
G01 X14.4589 Y2.4389
G01 X14.4944 Y2.4481
G01 X14.5291 Y2.4602
G01 X14.5401 Y2.4645
G01 X14.5734 Y2.4799
G01 X14.5839 Y2.4852
G01 X14.5942 Y2.4910
G01 X14.6206 Y2.5069
G01 X14.6304 Y2.5135
G01 X14.6645 Y2.5390
G01 X14.6962 Y2.5675
G01 X16.8594 Y4.7306
G01 X16.8675 Y4.7391
G01 X16.8920 Y4.7665
G01 X16.9141 Y4.7958
G01 X16.9241 Y4.8104
G01 X16.9429 Y4.8419
G01 X16.9511 Y4.8576
G01 X16.9665 Y4.8909
G01 X16.9792 Y4.9254
G01 X16.9845 Y4.9422
G01 X16.9921 Y4.9721
G01 X16.9957 Y4.9894
G01 X17.0011 Y5.0257
G01 X17.0023 Y5.0374
G01 X17.0038 Y5.0682
G01 X17.0041 Y5.0800
G01 X17.0041 Y5.2290
G01 X17.1480 Y5.2290
G01 X17.1598 Y5.2293
G01 X17.1715 Y5.2302
G01 X17.1890 Y5.2325
G01 X17.2006 Y5.2348
G01 X17.2120 Y5.2377
G01 X17.2233 Y5.2411
G01 X17.2344 Y5.2451
G01 X17.2506 Y5.2520
G01 X17.2611 Y5.2573
G01 X17.2714 Y5.2631
G01 X17.2813 Y5.2694
G01 X17.2910 Y5.2762
G01 X17.3003 Y5.2835
G01 X17.3092 Y5.2912
G01 X17.3177 Y5.2993
G01 X17.3297 Y5.3122
G01 X17.3372 Y5.3213
G01 X17.3442 Y5.3308
G01 X17.3508 Y5.3406
G01 X17.3597 Y5.3559
G01 X17.3650 Y5.3664
G01 X17.3719 Y5.3826
G01 X17.3759 Y5.3937
G01 X17.3793 Y5.4050
G01 X17.3834 Y5.4222
G01 X17.3854 Y5.4338
G01 X17.3873 Y5.4513
G01 X17.3880 Y5.4690
G01 X17.3880 Y6.4690
G01 X17.3873 Y6.4867
G01 X17.3862 Y6.4984
G01 X17.3834 Y6.5158
G01 X17.3793 Y6.5330
G01 X17.3740 Y6.5499
G01 X17.3674 Y6.5663
G01 X17.3597 Y6.5821
G01 X17.3508 Y6.5974
G01 X17.3408 Y6.6120
G01 X17.3297 Y6.6258
G01 X17.3177 Y6.6387
G01 X17.3048 Y6.6507
G01 X17.2910 Y6.6618
G01 X17.2764 Y6.6718
G01 X17.2611 Y6.6807
G01 X17.2506 Y6.6860
G01 X17.2398 Y6.6907
G01 X17.2233 Y6.6969
G01 X17.2063 Y6.7018
G01 X17.1948 Y6.7044
G01 X17.1774 Y6.7072
G01 X17.1598 Y6.7087
G01 X17.1480 Y6.7090
G01 X16.5568 Y6.7090
G01 X16.2421 Y7.0237
G01 X16.2421 Y10.4633
G01 X17.1134 Y11.3346
G01 X17.1383 Y11.3616
G01 X17.1496 Y11.3751
G01 X17.1749 Y11.4095
G01 X17.1969 Y11.4459
G01 X17.2051 Y11.4616
G01 X17.2205 Y11.4949
G01 X17.2351 Y11.5349
G01 X17.2400 Y11.5519
G01 X17.2474 Y11.5818
G01 X17.2497 Y11.5934
G01 X17.2557 Y11.6356
G01 X17.2566 Y11.6473
G01 X17.2581 Y11.6840
G01 X17.2581 Y14.2416
G01 X17.3209 Y14.2796
G01 X17.3906 Y14.3309
G01 X17.3999 Y14.3381
G01 X17.4088 Y14.3458
G01 X17.4728 Y14.4042
G01 X17.5312 Y14.4682
G01 X17.5389 Y14.4771
G01 X17.5461 Y14.4864
G01 X17.5974 Y14.5561
G01 X17.6422 Y14.6302
G01 X17.6480 Y14.6405
G01 X17.6533 Y14.6510
G01 X17.6901 Y14.7294
G01 X17.7195 Y14.8108
G01 X17.7232 Y14.8220
G01 X17.7264 Y14.8334
G01 X17.7471 Y14.9174
G01 X17.7601 Y15.0031
G01 X17.7616 Y15.0147
G01 X17.7624 Y15.0265
G01 X17.7663 Y15.1071
G01 X17.7664 Y16.6370
G01 X17.7661 Y16.6488
G01 X17.7616 Y16.7353
G01 X17.7491 Y16.8209
G01 X17.7471 Y16.8326
G01 X17.7445 Y16.8440
G01 X17.7232 Y16.9280
G01 X17.6943 Y17.0096
G01 X17.6901 Y17.0206
G01 X17.6853 Y17.0314
G01 X17.6533 Y17.0990
G01 X17.6480 Y17.1095
G01 X17.6422 Y17.1198
G01 X17.5974 Y17.1939
G01 X17.5461 Y17.2636
G01 X17.5389 Y17.2729
G01 X17.5312 Y17.2818
G01 X17.4728 Y17.3458
G01 X17.4088 Y17.4042
G01 X17.3999 Y17.4119
G01 X17.3305 Y17.4637
G01 X17.3209 Y17.4704
G01 X17.3109 Y17.4768
G01 X17.2365 Y17.5210
G01 X17.1584 Y17.5583
G01 X17.1476 Y17.5631
G01 X17.1366 Y17.5673
G01 X17.0550 Y17.5962
G01 X16.9710 Y17.6175
G01 X16.9596 Y17.6201
G01 X16.9479 Y17.6221
G01 X16.8623 Y17.6346
G01 X16.7758 Y17.6391
G01 X16.7640 Y17.6394
G01 X16.7522 Y17.6391
G01 X16.6657 Y17.6346
G01 X16.5801 Y17.6221
G01 X16.5684 Y17.6201
G01 X16.5570 Y17.6175
G01 X16.4730 Y17.5962
G01 X16.3914 Y17.5673
G01 X16.3804 Y17.5631
G01 X16.3696 Y17.5583
G01 X16.2915 Y17.5210
G01 X16.2171 Y17.4768
G01 X16.2071 Y17.4704
G01 X16.1975 Y17.4637
G01 X16.1281 Y17.4119
G01 X16.0637 Y17.3539
G01 X16.0552 Y17.3458
G01 X16.0471 Y17.3373
G01 X15.9891 Y17.2729
G01 X15.9373 Y17.2035
G01 X15.9306 Y17.1939
G01 X15.9242 Y17.1839
G01 X15.8800 Y17.1095
G01 X15.8427 Y17.0314
G01 X15.8379 Y17.0206
G01 X15.8337 Y17.0096
G01 X15.8048 Y16.9280
G01 X15.7835 Y16.8440
G01 X15.7809 Y16.8326
G01 X15.7789 Y16.8209
G01 X15.7664 Y16.7353
G01 X15.7619 Y16.6488
G01 X15.7616 Y16.6370
G01 X15.7616 Y15.1130
G01 X15.7619 Y15.1012
G01 X15.7664 Y15.0147
G01 X15.7679 Y15.0031
G01 X15.7809 Y14.9174
G01 X15.8016 Y14.8334
G01 X15.8048 Y14.8220
G01 X15.8085 Y14.8108
G01 X15.8379 Y14.7294
G01 X15.8747 Y14.6510
G01 X15.8800 Y14.6405
G01 X15.9242 Y14.5661
G01 X15.9306 Y14.5561
G01 X15.9373 Y14.5465
G01 X15.9891 Y14.4771
G01 X16.0471 Y14.4127
G01 X16.0552 Y14.4042
G01 X16.0637 Y14.3961
G01 X16.1192 Y14.3458
G01 X16.1281 Y14.3381
G01 X16.1374 Y14.3309
G01 X16.2071 Y14.2796
G01 X16.2699 Y14.2416
G01 X16.2699 Y11.8887
G01 X15.3986 Y11.0174
G01 X15.3737 Y10.9904
G01 X15.3624 Y10.9769
G01 X15.3371 Y10.9425
G01 X15.3180 Y10.9112
G01 X15.3095 Y10.8957
G01 X15.2915 Y10.8571
G01 X15.2788 Y10.8226
G01 X15.2735 Y10.8058
G01 X15.2634 Y10.7644
G01 X15.2614 Y10.7528
G01 X15.2563 Y10.7164
G01 X15.2542 Y10.6798
G01 X15.2539 Y10.6680
G01 X15.2539 Y6.8190
G01 X15.2554 Y6.7823
G01 X15.2569 Y6.7647
G01 X15.2623 Y6.7284
G01 X15.2665 Y6.7090
G01 X14.8568 Y6.7090
G01 X14.5901 Y6.9757
G01 X14.5901 Y8.0485
G01 X14.6004 Y8.0493
G01 X14.6121 Y8.0507
G01 X14.6237 Y8.0527
G01 X14.6352 Y8.0553
G01 X14.6466 Y8.0584
G01 X14.6578 Y8.0621
G01 X14.6687 Y8.0664
G01 X14.6795 Y8.0711
G01 X14.6900 Y8.0764
G01 X14.7003 Y8.0822
G01 X14.7102 Y8.0885
G01 X14.7199 Y8.0953
G01 X14.7292 Y8.1026
G01 X14.7381 Y8.1103
G01 X14.7507 Y8.1226
G01 X14.7624 Y8.1358
G01 X14.7697 Y8.1451
G01 X14.7765 Y8.1548
G01 X14.7828 Y8.1647
G01 X14.7886 Y8.1750
G01 X14.7939 Y8.1855
G01 X14.7986 Y8.1963
G01 X14.8029 Y8.2072
G01 X14.8066 Y8.2184
G01 X14.8111 Y8.2355
G01 X14.8134 Y8.2471
G01 X14.8151 Y8.2587
G01 X14.8162 Y8.2704
G01 X14.8168 Y8.2822
G01 X14.8169 Y9.9999
G01 X14.8166 Y10.0117
G01 X14.8151 Y10.0293
G01 X14.8134 Y10.0409
G01 X14.8111 Y10.0525
G01 X14.8082 Y10.0639
G01 X14.8029 Y10.0808
G01 X14.7986 Y10.0917
G01 X14.7939 Y10.1025
G01 X14.7886 Y10.1130
G01 X14.7828 Y10.1233
G01 X14.7765 Y10.1332
G01 X14.7697 Y10.1429
G01 X14.7586 Y10.1567
G01 X14.7507 Y10.1654
G01 X14.7381 Y10.1777
G01 X14.7292 Y10.1854
G01 X14.7181 Y10.1939
G01 X14.7181 Y14.2416
G01 X14.7809 Y14.2796
G01 X14.8506 Y14.3309
G01 X14.8599 Y14.3381
G01 X14.8688 Y14.3458
G01 X14.9243 Y14.3961
G01 X14.9328 Y14.4042
G01 X14.9409 Y14.4127
G01 X14.9989 Y14.4771
G01 X15.0507 Y14.5465
G01 X15.0574 Y14.5561
G01 X15.0638 Y14.5661
G01 X15.1080 Y14.6405
G01 X15.1453 Y14.7186
G01 X15.1501 Y14.7294
G01 X15.1795 Y14.8108
G01 X15.1832 Y14.8220
G01 X15.1864 Y14.8334
G01 X15.2071 Y14.9174
G01 X15.2091 Y14.9291
G01 X15.2216 Y15.0147
G01 X15.2261 Y15.1012
G01 X15.2264 Y15.1130
G01 X15.2264 Y16.6370
G01 X15.2261 Y16.6488
G01 X15.2216 Y16.7353
G01 X15.2201 Y16.7469
G01 X15.2071 Y16.8326
G01 X15.1864 Y16.9166
G01 X15.1832 Y16.9280
G01 X15.1543 Y17.0096
G01 X15.1501 Y17.0206
G01 X15.1453 Y17.0314
G01 X15.1133 Y17.0990
G01 X15.1080 Y17.1095
G01 X15.1022 Y17.1198
G01 X15.0574 Y17.1939
G01 X15.0507 Y17.2035
G01 X14.9989 Y17.2729
G01 X14.9409 Y17.3373
G01 X14.9328 Y17.3458
G01 X14.8688 Y17.4042
G01 X14.8599 Y17.4119
G01 X14.8506 Y17.4191
G01 X14.7809 Y17.4704
G01 X14.7068 Y17.5152
G01 X14.6965 Y17.5210
G01 X14.6860 Y17.5263
G01 X14.6076 Y17.5631
G01 X14.5262 Y17.5925
G01 X14.5150 Y17.5962
G01 X14.5036 Y17.5994
G01 X14.4310 Y17.6175
G01 X14.4196 Y17.6201
G01 X14.4079 Y17.6221
G01 X14.3223 Y17.6346
G01 X14.2358 Y17.6391
G01 X14.2240 Y17.6394
G01 X14.2122 Y17.6391
G01 X14.1257 Y17.6346
G01 X14.1141 Y17.6331
G01 X14.0284 Y17.6201
G01 X13.9444 Y17.5994
G01 X13.9330 Y17.5962
G01 X13.9218 Y17.5925
G01 X13.8404 Y17.5631
G01 X13.8296 Y17.5583
G01 X13.7515 Y17.5210
G01 X13.6771 Y17.4768
G01 X13.6671 Y17.4704
G01 X13.6575 Y17.4637
G01 X13.5881 Y17.4119
G01 X13.5237 Y17.3539
G01 X13.5152 Y17.3458
G01 X13.5071 Y17.3373
G01 X13.4568 Y17.2818
G01 X13.4491 Y17.2729
G01 X13.4419 Y17.2636
G01 X13.3906 Y17.1939
G01 X13.3458 Y17.1198
G01 X13.3400 Y17.1095
G01 X13.3347 Y17.0990
G01 X13.2979 Y17.0206
G01 X13.2685 Y16.9392
G01 X13.2648 Y16.9280
G01 X13.2435 Y16.8440
G01 X13.2409 Y16.8326
G01 X13.2389 Y16.8209
G01 X13.2271 Y16.7411
G01 X13.2256 Y16.7235
G01 X13.2216 Y16.6370
G01 X13.2216 Y15.1130
G01 X13.2219 Y15.1012
G01 X13.2264 Y15.0147
G01 X13.2279 Y15.0031
G01 X13.2409 Y14.9174
G01 X13.2435 Y14.9060
G01 X13.2648 Y14.8220
G01 X13.2937 Y14.7404
G01 X13.2979 Y14.7294
G01 X13.3027 Y14.7186
G01 X13.3400 Y14.6405
G01 X13.3842 Y14.5661
G01 X13.3906 Y14.5561
G01 X13.3973 Y14.5465
G01 X13.4491 Y14.4771
G01 X13.5071 Y14.4127
G01 X13.5152 Y14.4042
G01 X13.5237 Y14.3961
G01 X13.5792 Y14.3458
G01 X13.5881 Y14.3381
G01 X13.5974 Y14.3309
G01 X13.6671 Y14.2796
G01 X13.7299 Y14.2416
G01 X13.7299 Y10.2399
G01 X13.6092 Y10.2398
G01 X13.5916 Y10.2387
G01 X13.5741 Y10.2364
G01 X13.5625 Y10.2341
G01 X13.5511 Y10.2312
G01 X13.5342 Y10.2259
G01 X13.5233 Y10.2216
G01 X13.5125 Y10.2169
G01 X13.5020 Y10.2116
G01 X13.4917 Y10.2058
G01 X13.4818 Y10.1995
G01 X13.4674 Y10.1891
G01 X13.4583 Y10.1816
G01 X13.4496 Y10.1737
G01 X13.4373 Y10.1611
G01 X13.4296 Y10.1522
G01 X13.4189 Y10.1381
G01 X13.4123 Y10.1283
G01 X13.4063 Y10.1182
G01 X13.4007 Y10.1078
G01 X13.3934 Y10.0917
G01 X13.3891 Y10.0808
G01 X13.3838 Y10.0639
G01 X13.3809 Y10.0525
G01 X13.3777 Y10.0351
G01 X13.3763 Y10.0234
G01 X13.3752 Y10.0058
G01 X13.3751 Y8.2881
G01 X13.3758 Y8.2704
G01 X13.3769 Y8.2587
G01 X13.3786 Y8.2471
G01 X13.3809 Y8.2355
G01 X13.3838 Y8.2241
G01 X13.3872 Y8.2128
G01 X13.3912 Y8.2017
G01 X13.3981 Y8.1855
G01 X13.4063 Y8.1698
G01 X13.4123 Y8.1597
G01 X13.4189 Y8.1499
G01 X13.4296 Y8.1358
G01 X13.4373 Y8.1269
G01 X13.4454 Y8.1184
G01 X13.4539 Y8.1103
G01 X13.4628 Y8.1026
G01 X13.4769 Y8.0919
G01 X13.4867 Y8.0853
G01 X13.4968 Y8.0793
G01 X13.5072 Y8.0737
G01 X13.5178 Y8.0687
G01 X13.5342 Y8.0621
G01 X13.5454 Y8.0584
G01 X13.5568 Y8.0553
G01 X13.5683 Y8.0527
G01 X13.5799 Y8.0507
G01 X13.5916 Y8.0493
G01 X13.6019 Y8.0485
G01 X13.6019 Y6.7710
G01 X13.6034 Y6.7343
G01 X13.6049 Y6.7167
G01 X13.6103 Y6.6804
G01 X13.6139 Y6.6631
G01 X13.6231 Y6.6276
G01 X13.6352 Y6.5929
G01 X13.6418 Y6.5765
G01 X13.6549 Y6.5486
G01 X13.6631 Y6.5329
G01 X13.6819 Y6.5014
G01 X13.6919 Y6.4868
G01 X13.7140 Y6.4575
G01 X13.7217 Y6.4486
G01 X13.7466 Y6.4216
G01 X14.1080 Y6.0602
G01 X14.1080 Y5.4690
G01 X14.1087 Y5.4513
G01 X14.1106 Y5.4338
G01 X14.1126 Y5.4222
G01 X14.1152 Y5.4107
G01 X14.1201 Y5.3937
G01 X14.1241 Y5.3826
G01 X14.1310 Y5.3664
G01 X14.1363 Y5.3559
G01 X14.1421 Y5.3456
G01 X14.1484 Y5.3357
G01 X14.1552 Y5.3260
G01 X14.1625 Y5.3167
G01 X14.1702 Y5.3078
G01 X14.1825 Y5.2952
G01 X14.1912 Y5.2873
G01 X14.2003 Y5.2798
G01 X14.2147 Y5.2694
G01 X14.2246 Y5.2631
G01 X14.2349 Y5.2573
G01 X14.2507 Y5.2496
G01 X14.2671 Y5.2430
G01 X14.2840 Y5.2377
G01 X14.2954 Y5.2348
G01 X14.3128 Y5.2316
G01 X14.3303 Y5.2297
G01 X14.3421 Y5.2291
G01 X15.4480 Y5.2290
G01 X15.4657 Y5.2297
G01 X15.4832 Y5.2316
G01 X15.5006 Y5.2348
G01 X15.5177 Y5.2393
G01 X15.5344 Y5.2451
G01 X15.5506 Y5.2520
G01 X15.5611 Y5.2573
G01 X15.5764 Y5.2662
G01 X15.5862 Y5.2728
G01 X15.5957 Y5.2798
G01 X15.6092 Y5.2912
G01 X15.6177 Y5.2993
G01 X15.6258 Y5.3078
G01 X15.6372 Y5.3213
G01 X15.6442 Y5.3308
G01 X15.6508 Y5.3406
G01 X15.6597 Y5.3559
G01 X15.6650 Y5.3664
G01 X15.6697 Y5.3772
G01 X15.6740 Y5.3881
G01 X15.6777 Y5.3993
G01 X15.6808 Y5.4107
G01 X15.6834 Y5.4222
G01 X15.6862 Y5.4396
G01 X15.6873 Y5.4513
G01 X15.6880 Y5.4690
G01 X15.6880 Y6.1802
G01 X15.8080 Y6.0602
G01 X15.8081 Y5.4631
G01 X15.8087 Y5.4513
G01 X15.8106 Y5.4338
G01 X15.8138 Y5.4164
G01 X15.8183 Y5.3993
G01 X15.8220 Y5.3881
G01 X15.8286 Y5.3717
G01 X15.8336 Y5.3611
G01 X15.8421 Y5.3456
G01 X15.8518 Y5.3308
G01 X15.8588 Y5.3213
G01 X15.8663 Y5.3122
G01 X15.8742 Y5.3035
G01 X15.8868 Y5.2912
G01 X15.8957 Y5.2835
G01 X15.9050 Y5.2762
G01 X15.9196 Y5.2662
G01 X15.9297 Y5.2602
G01 X15.9454 Y5.2520
G01 X15.9562 Y5.2473
G01 X15.9724 Y5.2412
G01 X14.1463 Y3.4151
G01 X7.5269 Y3.4151
G01 X7.0851 Y3.8568
G01 X7.0764 Y3.8647
G01 X7.0673 Y3.8722
G01 X7.0578 Y3.8792
G01 X7.0480 Y3.8858
G01 X7.0379 Y3.8918
G01 X7.0275 Y3.8974
G01 X7.0115 Y3.9047
G01 X7.0005 Y3.9090
G01 X6.9893 Y3.9127
G01 X6.9779 Y3.9158
G01 X6.9665 Y3.9184
G01 X6.9490 Y3.9212
G01 X6.9373 Y3.9223
G01 X6.9255 Y3.9229
G01 X6.2825 Y3.9229
G01 X6.2648 Y3.9218
G01 X6.2532 Y3.9204
G01 X6.2415 Y3.9184
G01 X6.2301 Y3.9158
G01 X6.2187 Y3.9127
G01 X6.2020 Y3.9069
G01 X6.1911 Y3.9024
G01 X6.1805 Y3.8974
G01 X6.1650 Y3.8889
G01 X6.1502 Y3.8792
G01 X6.1407 Y3.8722
G01 X6.1316 Y3.8647
G01 X6.1187 Y3.8527
G01 X5.6723 Y3.4063
G01 X5.6642 Y3.3978
G01 X5.6565 Y3.3889
G01 X5.6492 Y3.3796
G01 X5.6425 Y3.3700
G01 X5.6361 Y3.3600
G01 X5.6303 Y3.3498
G01 X5.6250 Y3.3392
G01 X5.6203 Y3.3285
G01 X5.6160 Y3.3175
G01 X5.6123 Y3.3063
G01 X5.6092 Y3.2949
G01 X5.6066 Y3.2835
G01 X5.6046 Y3.2718
G01 X5.6032 Y3.2602
G01 X5.6023 Y3.2484
G01 X5.6020 Y3.2366
G00 Z2.0000
G00 X5.7420 Y3.2366
G01 F60.00
G01 Z-0.1200
G01 F80.00
G01 X5.7420 Y2.6029
G01 X5.7428 Y2.5931
G01 X5.7444 Y2.5835
G01 X5.7470 Y2.5740
G01 X5.7506 Y2.5648
G01 X5.7550 Y2.5561
G01 X5.7589 Y2.5498
G01 X5.7647 Y2.5419
G01 X5.7713 Y2.5347
G01 X6.2194 Y2.0866
G01 X6.2249 Y2.0817
G01 X6.2328 Y2.0759
G01 X6.2391 Y2.0720
G01 X6.2478 Y2.0676
G01 X6.2570 Y2.0640
G01 X6.2641 Y2.0620
G01 X6.2713 Y2.0605
G01 X6.2810 Y2.0593
G01 X6.2884 Y2.0590
G01 X6.9196 Y2.0590
G01 X6.9319 Y2.0598
G01 X6.9415 Y2.0614
G01 X6.9510 Y2.0640
G01 X6.9602 Y2.0676
G01 X6.9689 Y2.0720
G01 X6.9772 Y2.0772
G01 X6.9849 Y2.0833
G01 X6.9903 Y2.0883
G01 X7.4367 Y2.5347
G01 X7.4433 Y2.5419
G01 X7.4491 Y2.5498
G01 X7.4542 Y2.5582
G01 X7.4583 Y2.5669
G01 X14.3510 Y2.5669
G01 X14.3808 Y2.5682
G01 X14.3906 Y2.5692
G01 X14.4201 Y2.5737
G01 X14.4538 Y2.5821
G01 X14.4865 Y2.5938
G01 X14.5136 Y2.6065
G01 X14.5201 Y2.6099
G01 X14.5436 Y2.6239
G01 X14.5518 Y2.6294
G01 X14.5757 Y2.6473
G01 X14.5996 Y2.6689
G01 X16.7604 Y4.8296
G01 X16.7837 Y4.8553
G01 X16.8016 Y4.8792
G01 X16.8071 Y4.8874
G01 X16.8223 Y4.9131
G01 X16.8352 Y4.9400
G01 X16.8389 Y4.9491
G01 X16.8489 Y4.9772
G01 X16.8562 Y5.0061
G01 X16.8582 Y5.0157
G01 X16.8624 Y5.0453
G01 X16.8641 Y5.0775
G01 X16.8641 Y5.3690
G01 X17.1480 Y5.3690
G01 X17.1578 Y5.3695
G01 X17.1675 Y5.3709
G01 X17.1747 Y5.3726
G01 X17.1817 Y5.3748
G01 X17.1930 Y5.3797
G01 X17.2036 Y5.3859
G01 X17.2095 Y5.3902
G01 X17.2152 Y5.3949
G01 X17.2204 Y5.4000
G01 X17.2253 Y5.4056
G01 X17.2325 Y5.4155
G01 X17.2362 Y5.4219
G01 X17.2394 Y5.4285
G01 X17.2422 Y5.4353
G01 X17.2444 Y5.4423
G01 X17.2461 Y5.4495
G01 X17.2472 Y5.4568
G01 X17.2480 Y5.4690
G01 X17.2480 Y6.4690
G01 X17.2472 Y6.4812
G01 X17.2456 Y6.4909
G01 X17.2437 Y6.4980
G01 X17.2413 Y6.5050
G01 X17.2373 Y6.5140
G01 X17.2338 Y6.5204
G01 X17.2298 Y6.5266
G01 X17.2237 Y6.5343
G01 X17.2187 Y6.5397
G01 X17.2114 Y6.5463
G01 X17.2056 Y6.5508
G01 X17.1973 Y6.5560
G01 X17.1908 Y6.5594
G01 X17.1817 Y6.5632
G01 X17.1747 Y6.5654
G01 X17.1675 Y6.5671
G01 X17.1602 Y6.5682
G01 X17.1480 Y6.5690
G01 X16.4988 Y6.5690
G01 X16.1021 Y6.9657
G01 X16.1021 Y10.5213
G01 X17.0178 Y11.4371
G01 X17.0377 Y11.4593
G01 X17.0556 Y11.4832
G01 X17.0611 Y11.4914
G01 X17.0763 Y11.5171
G01 X17.0912 Y11.5485
G01 X17.1013 Y11.5765
G01 X17.1042 Y11.5859
G01 X17.1118 Y11.6173
G01 X17.1164 Y11.6493
G01 X17.1181 Y11.6840
G01 X17.1181 Y14.3275
G01 X17.1705 Y14.3524
G01 X17.2411 Y14.3946
G01 X17.2471 Y14.3988
G01 X17.3130 Y14.4480
G01 X17.3738 Y14.5032
G01 X17.4274 Y14.5622
G01 X17.4336 Y14.5698
G01 X17.4824 Y14.6359
G01 X17.5246 Y14.7065
G01 X17.5587 Y14.7785
G01 X17.5625 Y14.7876
G01 X17.5892 Y14.8627
G01 X17.6087 Y14.9400
G01 X17.6106 Y14.9496
G01 X17.6222 Y15.0285
G01 X17.6264 Y15.1105
G01 X17.6264 Y16.6370
G01 X17.6226 Y16.7166
G01 X17.6216 Y16.7264
G01 X17.6098 Y16.8052
G01 X17.5892 Y16.8873
G01 X17.5607 Y16.9670
G01 X17.5246 Y17.0435
G01 X17.4810 Y17.1161
G01 X17.4306 Y17.1841
G01 X17.3738 Y17.2468
G01 X17.3111 Y17.3036
G01 X17.2471 Y17.3512
G01 X17.2390 Y17.3567
G01 X17.1705 Y17.3976
G01 X17.0985 Y17.4317
G01 X17.0894 Y17.4355
G01 X17.0143 Y17.4622
G01 X16.9370 Y17.4817
G01 X16.9274 Y17.4836
G01 X16.8485 Y17.4952
G01 X16.7689 Y17.4993
G01 X16.7591 Y17.4993
G01 X16.6795 Y17.4952
G01 X16.6006 Y17.4836
G01 X16.5910 Y17.4817
G01 X16.5137 Y17.4622
G01 X16.4340 Y17.4337
G01 X16.3619 Y17.3998
G01 X16.3532 Y17.3951
G01 X16.2849 Y17.3540
G01 X16.2208 Y17.3066
G01 X16.2132 Y17.3004
G01 X16.1542 Y17.2468
G01 X16.1006 Y17.1878
G01 X16.0944 Y17.1802
G01 X16.0470 Y17.1161
G01 X16.0059 Y17.0478
G01 X16.0012 Y17.0391
G01 X15.9673 Y16.9670
G01 X15.9403 Y16.8920
G01 X15.9374 Y16.8826
G01 X15.9182 Y16.8052
G01 X15.9058 Y16.7215
G01 X15.9016 Y16.6370
G01 X15.9016 Y15.1130
G01 X15.9058 Y15.0285
G01 X15.9182 Y14.9448
G01 X15.9388 Y14.8627
G01 X15.9655 Y14.7876
G01 X15.9693 Y14.7785
G01 X16.0034 Y14.7065
G01 X16.0443 Y14.6380
G01 X16.0498 Y14.6299
G01 X16.0958 Y14.5678
G01 X16.1006 Y14.5622
G01 X16.1542 Y14.5032
G01 X16.2132 Y14.4496
G01 X16.2188 Y14.4448
G01 X16.2809 Y14.3988
G01 X16.2890 Y14.3933
G01 X16.3575 Y14.3524
G01 X16.4099 Y14.3275
G01 X16.4099 Y11.8307
G01 X15.4942 Y10.9149
G01 X15.4743 Y10.8927
G01 X15.4564 Y10.8688
G01 X15.4509 Y10.8606
G01 X15.4357 Y10.8349
G01 X15.4228 Y10.8080
G01 X15.4191 Y10.7989
G01 X15.4091 Y10.7708
G01 X15.4007 Y10.7371
G01 X15.3956 Y10.7027
G01 X15.3939 Y10.6680
G01 X15.3939 Y6.8165
G01 X15.3956 Y6.7843
G01 X15.3998 Y6.7547
G01 X15.4012 Y6.7475
G01 X15.4078 Y6.7209
G01 X15.4107 Y6.7115
G01 X15.4208 Y6.6835
G01 X15.4357 Y6.6521
G01 X15.4536 Y6.6223
G01 X15.4727 Y6.5963
G01 X15.4976 Y6.5686
G01 X15.9480 Y6.1182
G01 X15.9480 Y5.4690
G01 X15.9485 Y5.4592
G01 X15.9504 Y5.4471
G01 X15.9538 Y5.4353
G01 X15.9587 Y5.4240
G01 X15.9649 Y5.4134
G01 X15.9723 Y5.4037
G01 X15.9808 Y5.3949
G01 X15.9904 Y5.3872
G01 X16.0009 Y5.3808
G01 X16.0120 Y5.3757
G01 X16.0190 Y5.3733
G01 X16.0261 Y5.3714
G01 X16.0333 Y5.3701
G01 X16.0431 Y5.3691
G01 X16.1559 Y5.3690
G01 X16.1559 Y5.2267
G01 X14.2043 Y3.2751
G01 X7.4583 Y3.2751
G01 X7.4542 Y3.2838
G01 X7.4491 Y3.2922
G01 X7.4433 Y3.3001
G01 X7.4367 Y3.3073
G01 X6.9903 Y3.7537
G01 X6.9831 Y3.7603
G01 X6.9772 Y3.7648
G01 X6.9689 Y3.7700
G01 X6.9602 Y3.7744
G01 X6.9510 Y3.7780
G01 X6.9415 Y3.7806
G01 X6.9319 Y3.7822
G01 X6.9221 Y3.7830
G01 X6.2884 Y3.7830
G01 X6.2786 Y3.7825
G01 X6.2689 Y3.7811
G01 X6.2593 Y3.7787
G01 X6.2524 Y3.7763
G01 X6.2434 Y3.7723
G01 X6.2370 Y3.7688
G01 X6.2288 Y3.7633
G01 X6.2212 Y3.7571
G01 X5.7713 Y3.3073
G01 X5.7647 Y3.3001
G01 X5.7589 Y3.2922
G01 X5.7538 Y3.2838
G01 X5.7496 Y3.2749
G01 X5.7463 Y3.2657
G01 X5.7439 Y3.2561
G01 X5.7425 Y3.2464
G01 X5.7420 Y3.2366
G00 Z2.0000
G00 X16.6651 Y8.0481
G01 F60.00
G01 Z-0.1200
G01 F80.00
G01 X17.6328 Y8.0482
G01 X17.6446 Y8.0488
G01 X17.6563 Y8.0499
G01 X17.6737 Y8.0527
G01 X17.6852 Y8.0553
G01 X17.7022 Y8.0602
G01 X17.7133 Y8.0642
G01 X17.7242 Y8.0687
G01 X17.7348 Y8.0737
G01 X17.7452 Y8.0793
G01 X17.7602 Y8.0885
G01 X17.7699 Y8.0953
G01 X17.7792 Y8.1026
G01 X17.7924 Y8.1143
G01 X17.8007 Y8.1226
G01 X17.8086 Y8.1313
G01 X17.8161 Y8.1404
G01 X17.8231 Y8.1499
G01 X17.8297 Y8.1597
G01 X17.8386 Y8.1750
G01 X17.8439 Y8.1855
G01 X17.8486 Y8.1963
G01 X17.8529 Y8.2072
G01 X17.8566 Y8.2184
G01 X17.8611 Y8.2355
G01 X17.8634 Y8.2471
G01 X17.8651 Y8.2587
G01 X17.8662 Y8.2704
G01 X17.8668 Y8.2822
G01 X17.8669 Y8.6499
G01 X18.5530 Y8.6499
G01 X18.5531 Y8.6381
G01 X18.5537 Y8.6263
G01 X18.5548 Y8.6146
G01 X18.5565 Y8.6030
G01 X18.5588 Y8.5914
G01 X18.5617 Y8.5800
G01 X18.5651 Y8.5687
G01 X18.5691 Y8.5576
G01 X18.5736 Y8.5467
G01 X18.5786 Y8.5361
G01 X18.5871 Y8.5206
G01 X18.5934 Y8.5107
G01 X18.6002 Y8.5010
G01 X18.6075 Y8.4917
G01 X18.6152 Y8.4828
G01 X18.6233 Y8.4743
G01 X18.6318 Y8.4662
G01 X18.6407 Y8.4585
G01 X18.6500 Y8.4512
G01 X18.6597 Y8.4444
G01 X18.6696 Y8.4381
G01 X18.6851 Y8.4296
G01 X18.6957 Y8.4246
G01 X18.7066 Y8.4201
G01 X18.7233 Y8.4143
G01 X18.7347 Y8.4112
G01 X18.7462 Y8.4086
G01 X18.7578 Y8.4066
G01 X18.7695 Y8.4052
G01 X18.7812 Y8.4043
G01 X18.7930 Y8.4040
G01 X19.8989 Y8.4041
G01 X19.9107 Y8.4047
G01 X19.9224 Y8.4058
G01 X19.9398 Y8.4086
G01 X19.9513 Y8.4112
G01 X19.9627 Y8.4143
G01 X19.9794 Y8.4201
G01 X19.9903 Y8.4246
G01 X20.0009 Y8.4296
G01 X20.0164 Y8.4381
G01 X20.0312 Y8.4478
G01 X20.0407 Y8.4548
G01 X20.0542 Y8.4662
G01 X20.0627 Y8.4743
G01 X20.0747 Y8.4872
G01 X20.0858 Y8.5010
G01 X20.0926 Y8.5107
G01 X20.1018 Y8.5257
G01 X20.1100 Y8.5414
G01 X20.1147 Y8.5522
G01 X20.1209 Y8.5687
G01 X20.1243 Y8.5800
G01 X20.1284 Y8.5972
G01 X20.1304 Y8.6088
G01 X20.1323 Y8.6263
G01 X20.1330 Y8.6440
G01 X20.1329 Y9.6499
G01 X20.1318 Y9.6675
G01 X20.1304 Y9.6792
G01 X20.1284 Y9.6908
G01 X20.1258 Y9.7023
G01 X20.1227 Y9.7137
G01 X20.1169 Y9.7304
G01 X20.1124 Y9.7413
G01 X20.1074 Y9.7519
G01 X20.1018 Y9.7623
G01 X20.0926 Y9.7773
G01 X20.0822 Y9.7917
G01 X20.0747 Y9.8008
G01 X20.0668 Y9.8095
G01 X20.0542 Y9.8218
G01 X20.0407 Y9.8332
G01 X20.0312 Y9.8402
G01 X20.0214 Y9.8468
G01 X20.0061 Y9.8557
G01 X19.9956 Y9.8610
G01 X19.9794 Y9.8679
G01 X19.9627 Y9.8737
G01 X19.9513 Y9.8768
G01 X19.9340 Y9.8805
G01 X19.9165 Y9.8828
G01 X19.9048 Y9.8837
G01 X19.8930 Y9.8840
G01 X18.7930 Y9.8840
G01 X18.7812 Y9.8837
G01 X18.7695 Y9.8828
G01 X18.7578 Y9.8814
G01 X18.7462 Y9.8794
G01 X18.7347 Y9.8768
G01 X18.7177 Y9.8719
G01 X18.7066 Y9.8679
G01 X18.6957 Y9.8634
G01 X18.6851 Y9.8584
G01 X18.6747 Y9.8528
G01 X18.6646 Y9.8468
G01 X18.6548 Y9.8402
G01 X18.6453 Y9.8332
G01 X18.6362 Y9.8257
G01 X18.6275 Y9.8178
G01 X18.6192 Y9.8095
G01 X18.6113 Y9.8008
G01 X18.6038 Y9.7917
G01 X18.5968 Y9.7822
G01 X18.5902 Y9.7724
G01 X18.5842 Y9.7623
G01 X18.5786 Y9.7519
G01 X18.5736 Y9.7413
G01 X18.5691 Y9.7304
G01 X18.5651 Y9.7193
G01 X18.5617 Y9.7080
G01 X18.5588 Y9.6966
G01 X18.5565 Y9.6850
G01 X18.5548 Y9.6734
G01 X18.5537 Y9.6617
G01 X18.5531 Y9.6499
G01 X18.5530 Y9.6381
G01 X17.8669 Y9.6381
G01 X17.8668 Y10.0058
G01 X17.8662 Y10.0176
G01 X17.8643 Y10.0351
G01 X17.8623 Y10.0467
G01 X17.8597 Y10.0582
G01 X17.8566 Y10.0696
G01 X17.8508 Y10.0863
G01 X17.8463 Y10.0972
G01 X17.8413 Y10.1078
G01 X17.8357 Y10.1182
G01 X17.8265 Y10.1332
G01 X17.8197 Y10.1429
G01 X17.8124 Y10.1522
G01 X17.8047 Y10.1611
G01 X17.7924 Y10.1737
G01 X17.7837 Y10.1816
G01 X17.7746 Y10.1891
G01 X17.7602 Y10.1995
G01 X17.7503 Y10.2058
G01 X17.7400 Y10.2116
G01 X17.7242 Y10.2193
G01 X17.7133 Y10.2238
G01 X17.7022 Y10.2278
G01 X17.6909 Y10.2312
G01 X17.6795 Y10.2341
G01 X17.6679 Y10.2364
G01 X17.6563 Y10.2381
G01 X17.6446 Y10.2392
G01 X17.6328 Y10.2398
G01 X16.6651 Y10.2399
G01 X16.6533 Y10.2396
G01 X16.6416 Y10.2387
G01 X16.6241 Y10.2364
G01 X16.6125 Y10.2341
G01 X16.5954 Y10.2296
G01 X16.5842 Y10.2259
G01 X16.5733 Y10.2216
G01 X16.5572 Y10.2143
G01 X16.5468 Y10.2087
G01 X16.5318 Y10.1995
G01 X16.5174 Y10.1891
G01 X16.5039 Y10.1777
G01 X16.4913 Y10.1654
G01 X16.4834 Y10.1567
G01 X16.4759 Y10.1476
G01 X16.4655 Y10.1332
G01 X16.4592 Y10.1233
G01 X16.4507 Y10.1078
G01 X16.4457 Y10.0972
G01 X16.4391 Y10.0808
G01 X16.4338 Y10.0639
G01 X16.4297 Y10.0467
G01 X16.4269 Y10.0293
G01 X16.4258 Y10.0176
G01 X16.4251 Y9.9999
G01 X16.4251 Y8.2881
G01 X16.4254 Y8.2763
G01 X16.4269 Y8.2587
G01 X16.4286 Y8.2471
G01 X16.4309 Y8.2355
G01 X16.4338 Y8.2241
G01 X16.4372 Y8.2128
G01 X16.4412 Y8.2017
G01 X16.4457 Y8.1908
G01 X16.4507 Y8.1802
G01 X16.4563 Y8.1698
G01 X16.4623 Y8.1597
G01 X16.4689 Y8.1499
G01 X16.4759 Y8.1404
G01 X16.4834 Y8.1313
G01 X16.4913 Y8.1226
G01 X16.4996 Y8.1143
G01 X16.5083 Y8.1064
G01 X16.5174 Y8.0989
G01 X16.5269 Y8.0919
G01 X16.5367 Y8.0853
G01 X16.5468 Y8.0793
G01 X16.5572 Y8.0737
G01 X16.5678 Y8.0687
G01 X16.5787 Y8.0642
G01 X16.5898 Y8.0602
G01 X16.6011 Y8.0568
G01 X16.6125 Y8.0539
G01 X16.6241 Y8.0516
G01 X16.6357 Y8.0499
G01 X16.6474 Y8.0488
G01 X16.6651 Y8.0481
G00 Z2.0000
G00 X16.6651 Y8.1881
G01 F60.00
G01 Z-0.1200
G01 F80.00
G01 X17.6294 Y8.1881
G01 X17.6416 Y8.1892
G01 X17.6536 Y8.1917
G01 X17.6652 Y8.1957
G01 X17.6762 Y8.2011
G01 X17.6865 Y8.2078
G01 X17.6959 Y8.2157
G01 X17.7042 Y8.2247
G01 X17.7114 Y8.2346
G01 X17.7173 Y8.2453
G01 X17.7219 Y8.2567
G01 X17.7245 Y8.2662
G01 X17.7264 Y8.2783
G01 X17.7269 Y8.2881
G01 X17.7269 Y8.7899
G01 X18.6930 Y8.7899
G01 X18.6930 Y8.6415
G01 X18.6935 Y8.6342
G01 X18.6945 Y8.6269
G01 X18.6960 Y8.6197
G01 X18.6988 Y8.6103
G01 X18.7016 Y8.6035
G01 X18.7048 Y8.5969
G01 X18.7085 Y8.5905
G01 X18.7127 Y8.5844
G01 X18.7206 Y8.5750
G01 X18.7258 Y8.5699
G01 X18.7315 Y8.5652
G01 X18.7416 Y8.5582
G01 X18.7480 Y8.5547
G01 X18.7547 Y8.5516
G01 X18.7616 Y8.5490
G01 X18.7687 Y8.5470
G01 X18.7759 Y8.5455
G01 X18.7832 Y8.5445
G01 X18.7930 Y8.5440
G01 X19.8930 Y8.5440
G01 X19.9028 Y8.5445
G01 X19.9125 Y8.5459
G01 X19.9244 Y8.5490
G01 X19.9335 Y8.5526
G01 X19.9401 Y8.5558
G01 X19.9465 Y8.5595
G01 X19.9564 Y8.5667
G01 X19.9654 Y8.5750
G01 X19.9703 Y8.5806
G01 X19.9748 Y8.5864
G01 X19.9788 Y8.5926
G01 X19.9823 Y8.5990
G01 X19.9872 Y8.6103
G01 X19.9894 Y8.6173
G01 X19.9911 Y8.6245
G01 X19.9922 Y8.6318
G01 X19.9929 Y8.6391
G01 X19.9930 Y9.6440
G01 X19.9922 Y9.6562
G01 X19.9906 Y9.6659
G01 X19.9880 Y9.6754
G01 X19.9844 Y9.6845
G01 X19.9788 Y9.6954
G01 X19.9748 Y9.7016
G01 X19.9703 Y9.7074
G01 X19.9654 Y9.7130
G01 X19.9602 Y9.7181
G01 X19.9506 Y9.7258
G01 X19.9444 Y9.7298
G01 X19.9380 Y9.7333
G01 X19.9313 Y9.7364
G01 X19.9244 Y9.7390
G01 X19.9173 Y9.7410
G01 X19.9101 Y9.7425
G01 X19.8979 Y9.7439
G01 X18.7930 Y9.7440
G01 X18.7856 Y9.7437
G01 X18.7735 Y9.7421
G01 X18.7663 Y9.7404
G01 X18.7593 Y9.7382
G01 X18.7525 Y9.7354
G01 X18.7459 Y9.7322
G01 X18.7395 Y9.7285
G01 X18.7334 Y9.7243
G01 X18.7277 Y9.7197
G01 X18.7223 Y9.7147
G01 X18.7142 Y9.7055
G01 X18.7099 Y9.6996
G01 X18.7060 Y9.6933
G01 X18.7026 Y9.6868
G01 X18.6997 Y9.6800
G01 X18.6966 Y9.6707
G01 X18.6949 Y9.6635
G01 X18.6938 Y9.6562
G01 X18.6931 Y9.6489
G01 X18.6930 Y9.4981
G01 X17.7269 Y9.4981
G01 X17.7269 Y9.9999
G01 X17.7264 Y10.0097
G01 X17.7245 Y10.0218
G01 X17.7211 Y10.0336
G01 X17.7162 Y10.0449
G01 X17.7100 Y10.0555
G01 X17.7026 Y10.0652
G01 X17.6941 Y10.0740
G01 X17.6845 Y10.0817
G01 X17.6740 Y10.0881
G01 X17.6629 Y10.0932
G01 X17.6512 Y10.0969
G01 X17.6391 Y10.0991
G01 X17.6269 Y10.0999
G01 X16.6651 Y10.0999
G01 X16.6529 Y10.0991
G01 X16.6432 Y10.0975
G01 X16.6337 Y10.0949
G01 X16.6246 Y10.0913
G01 X16.6180 Y10.0881
G01 X16.6116 Y10.0844
G01 X16.6055 Y10.0802
G01 X16.5998 Y10.0756
G01 X16.5910 Y10.0671
G01 X16.5863 Y10.0614
G01 X16.5820 Y10.0555
G01 X16.5781 Y10.0492
G01 X16.5747 Y10.0427
G01 X16.5718 Y10.0359
G01 X16.5694 Y10.0289
G01 X16.5666 Y10.0170
G01 X16.5656 Y10.0097
G01 X16.5651 Y10.0024
G01 X16.5651 Y8.2856
G01 X16.5656 Y8.2783
G01 X16.5670 Y8.2686
G01 X16.5694 Y8.2591
G01 X16.5727 Y8.2498
G01 X16.5769 Y8.2410
G01 X16.5820 Y8.2325
G01 X16.5878 Y8.2247
G01 X16.5944 Y8.2174
G01 X16.6017 Y8.2108
G01 X16.6095 Y8.2050
G01 X16.6180 Y8.1999
G01 X16.6268 Y8.1957
G01 X16.6361 Y8.1924
G01 X16.6456 Y8.1900
G01 X16.6553 Y8.1886
G01 X16.6651 Y8.1881
G00 Z2.0000
G00 X20.8360 Y3.9610
G01 F60.00
G01 Z-0.1200
G01 F80.00
G01 X21.4852 Y3.9610
G01 X22.6521 Y2.7942
G01 X22.6743 Y2.7743
G01 X22.7002 Y2.7549
G01 X22.7278 Y2.7381
G01 X22.7364 Y2.7335
G01 X22.7635 Y2.7208
G01 X22.7962 Y2.7091
G01 X22.8299 Y2.7007
G01 X22.8594 Y2.6962
G01 X22.8692 Y2.6952
G01 X22.8990 Y2.6939
G01 X27.8477 Y2.6939
G01 X27.8518 Y2.6852
G01 X27.8569 Y2.6768
G01 X27.8627 Y2.6689
G01 X27.8693 Y2.6617
G01 X28.3157 Y2.2153
G01 X28.3229 Y2.2087
G01 X28.3308 Y2.2029
G01 X28.3371 Y2.1990
G01 X28.3458 Y2.1946
G01 X28.3550 Y2.1910
G01 X28.3645 Y2.1884
G01 X28.3741 Y2.1868
G01 X28.3839 Y2.1860
G01 X29.0176 Y2.1860
G01 X29.0274 Y2.1865
G01 X29.0371 Y2.1879
G01 X29.0467 Y2.1903
G01 X29.0559 Y2.1936
G01 X29.0648 Y2.1978
G01 X29.0732 Y2.2029
G01 X29.0792 Y2.2072
G01 X29.0866 Y2.2136
G01 X29.5364 Y2.6634
G01 X29.5413 Y2.6689
G01 X29.5458 Y2.6748
G01 X29.5498 Y2.6810
G01 X29.5544 Y2.6896
G01 X29.5573 Y2.6964
G01 X29.5597 Y2.7033
G01 X29.5616 Y2.7105
G01 X29.5629 Y2.7177
G01 X29.5637 Y2.7250
G01 X29.5640 Y2.7324
G01 X29.5640 Y3.3636
G01 X29.5635 Y3.3734
G01 X29.5616 Y3.3855
G01 X29.5590 Y3.3950
G01 X29.5554 Y3.4042
G01 X29.5522 Y3.4108
G01 X29.5471 Y3.4192
G01 X29.5413 Y3.4271
G01 X29.5347 Y3.4343
G01 X29.0866 Y3.8824
G01 X29.0792 Y3.8888
G01 X29.0732 Y3.8931
G01 X29.0648 Y3.8982
G01 X29.0582 Y3.9014
G01 X29.0513 Y3.9042
G01 X29.0443 Y3.9064
G01 X29.0347 Y3.9085
G01 X29.0274 Y3.9095
G01 X29.0176 Y3.9100
G01 X28.3864 Y3.9100
G01 X28.3766 Y3.9095
G01 X28.3669 Y3.9081
G01 X28.3550 Y3.9050
G01 X28.3458 Y3.9014
G01 X28.3371 Y3.8970
G01 X28.3288 Y3.8918
G01 X28.3211 Y3.8857
G01 X28.3157 Y3.8807
G01 X27.8693 Y3.4343
G01 X27.8627 Y3.4271
G01 X27.8569 Y3.4192
G01 X27.8518 Y3.4108
G01 X27.8477 Y3.4021
G01 X23.0457 Y3.4021
G01 X21.9360 Y4.5118
G01 X21.9360 Y5.1610
G01 X21.9352 Y5.1732
G01 X21.9336 Y5.1829
G01 X21.9317 Y5.1900
G01 X21.9293 Y5.1970
G01 X21.9264 Y5.2038
G01 X21.9230 Y5.2103
G01 X21.9178 Y5.2186
G01 X21.9133 Y5.2244
G01 X21.9067 Y5.2317
G01 X21.8994 Y5.2383
G01 X21.8936 Y5.2428
G01 X21.8874 Y5.2468
G01 X21.8810 Y5.2503
G01 X21.8743 Y5.2534
G01 X21.8650 Y5.2567
G01 X21.8579 Y5.2586
G01 X21.8507 Y5.2599
G01 X21.8434 Y5.2607
G01 X21.8360 Y5.2610
G01 X20.8335 Y5.2610
G01 X20.8213 Y5.2599
G01 X20.8117 Y5.2580
G01 X20.8000 Y5.2543
G01 X20.7910 Y5.2503
G01 X20.7825 Y5.2455
G01 X20.7726 Y5.2383
G01 X20.7636 Y5.2300
G01 X20.7572 Y5.2225
G01 X20.7529 Y5.2166
G01 X20.7478 Y5.2081
G01 X20.7446 Y5.2015
G01 X20.7418 Y5.1947
G01 X20.7390 Y5.1853
G01 X20.7375 Y5.1781
G01 X20.7365 Y5.1708
G01 X20.7360 Y5.1635
G01 X20.7360 Y4.0610
G01 X20.7363 Y4.0536
G01 X20.7371 Y4.0463
G01 X20.7390 Y4.0367
G01 X20.7418 Y4.0273
G01 X20.7456 Y4.0182
G01 X20.7502 Y4.0096
G01 X20.7557 Y4.0014
G01 X20.7603 Y3.9957
G01 X20.7670 Y3.9886
G01 X20.7745 Y3.9822
G01 X20.7825 Y3.9765
G01 X20.7910 Y3.9717
G01 X20.8000 Y3.9677
G01 X20.8093 Y3.9646
G01 X20.8189 Y3.9625
G01 X20.8286 Y3.9613
G01 X20.8360 Y3.9610
G00 Z2.0000
G00 X20.8360 Y3.8210
G01 F60.00
G01 Z-0.1200
G01 F80.00
G01 X21.4272 Y3.8210
G01 X22.5496 Y2.6986
G01 X22.5766 Y2.6737
G01 X22.5855 Y2.6660
G01 X22.5948 Y2.6588
G01 X22.6196 Y2.6405
G01 X22.6294 Y2.6339
G01 X22.6661 Y2.6122
G01 X22.7045 Y2.5938
G01 X22.7154 Y2.5893
G01 X22.7444 Y2.5788
G01 X22.7556 Y2.5751
G01 X22.7669 Y2.5720
G01 X22.8026 Y2.5634
G01 X22.8447 Y2.5569
G01 X22.8623 Y2.5554
G01 X22.8990 Y2.5539
G01 X27.7791 Y2.5539
G01 X28.2209 Y2.1122
G01 X28.2296 Y2.1043
G01 X28.2387 Y2.0968
G01 X28.2482 Y2.0898
G01 X28.2580 Y2.0832
G01 X28.2681 Y2.0772
G01 X28.2785 Y2.0716
G01 X28.2945 Y2.0643
G01 X28.3055 Y2.0600
G01 X28.3167 Y2.0563
G01 X28.3338 Y2.0518
G01 X28.3453 Y2.0495
G01 X28.3570 Y2.0478
G01 X28.3687 Y2.0467
G01 X28.3805 Y2.0461
G01 X29.0235 Y2.0461
G01 X29.0412 Y2.0472
G01 X29.0528 Y2.0486
G01 X29.0645 Y2.0506
G01 X29.0759 Y2.0532
G01 X29.0873 Y2.0563
G01 X29.0985 Y2.0600
G01 X29.1095 Y2.0643
G01 X29.1255 Y2.0716
G01 X29.1359 Y2.0772
G01 X29.1460 Y2.0832
G01 X29.1558 Y2.0898
G01 X29.1653 Y2.0968
G01 X29.1744 Y2.1043
G01 X29.1831 Y2.1122
G01 X29.6337 Y2.5627
G01 X29.6457 Y2.5756
G01 X29.6568 Y2.5894
G01 X29.6668 Y2.6040
G01 X29.6757 Y2.6192
G01 X29.6834 Y2.6351
G01 X29.6900 Y2.6515
G01 X29.6953 Y2.6684
G01 X29.6994 Y2.6855
G01 X29.7022 Y2.7030
G01 X29.7033 Y2.7147
G01 X29.7040 Y2.7324
G01 X29.7039 Y3.3695
G01 X29.7033 Y3.3813
G01 X29.7022 Y3.3930
G01 X29.7005 Y3.4047
G01 X29.6982 Y3.4162
G01 X29.6937 Y3.4333
G01 X29.6900 Y3.4445
G01 X29.6857 Y3.4555
G01 X29.6810 Y3.4662
G01 X29.6728 Y3.4819
G01 X29.6635 Y3.4970
G01 X29.6568 Y3.5066
G01 X29.6495 Y3.5159
G01 X29.6378 Y3.5291
G01 X29.1873 Y3.9797
G01 X29.1788 Y3.9878
G01 X29.1653 Y3.9992
G01 X29.1510 Y4.0095
G01 X29.1359 Y4.0188
G01 X29.1202 Y4.0270
G01 X29.1040 Y4.0339
G01 X29.0873 Y4.0397
G01 X29.0702 Y4.0442
G01 X29.0587 Y4.0465
G01 X29.0470 Y4.0482
G01 X29.0294 Y4.0497
G01 X29.0176 Y4.0500
G01 X28.3805 Y4.0499
G01 X28.3687 Y4.0493
G01 X28.3570 Y4.0482
G01 X28.3395 Y4.0454
G01 X28.3281 Y4.0428
G01 X28.3167 Y4.0397
G01 X28.3000 Y4.0339
G01 X28.2891 Y4.0294
G01 X28.2785 Y4.0244
G01 X28.2681 Y4.0188
G01 X28.2580 Y4.0128
G01 X28.2482 Y4.0062
G01 X28.2387 Y3.9992
G01 X28.2296 Y3.9917
G01 X28.2209 Y3.9838
G01 X27.7791 Y3.5421
G01 X23.1037 Y3.5421
G01 X22.0760 Y4.5698
G01 X22.0760 Y5.1610
G01 X22.0757 Y5.1728
G01 X22.0742 Y5.1904
G01 X22.0725 Y5.2020
G01 X22.0688 Y5.2193
G01 X22.0639 Y5.2363
G01 X22.0577 Y5.2528
G01 X22.0504 Y5.2689
G01 X22.0419 Y5.2844
G01 X22.0322 Y5.2992
G01 X22.0252 Y5.3087
G01 X22.0177 Y5.3178
G01 X22.0057 Y5.3307
G01 X21.9928 Y5.3427
G01 X21.9790 Y5.3538
G01 X21.9644 Y5.3638
G01 X21.9491 Y5.3727
G01 X21.9333 Y5.3804
G01 X21.9169 Y5.3870
G01 X21.9000 Y5.3923
G01 X21.8828 Y5.3964
G01 X21.8654 Y5.3992
G01 X21.8478 Y5.4007
G01 X21.8360 Y5.4010
G01 X20.8360 Y5.4010
G01 X20.8183 Y5.4003
G01 X20.8008 Y5.3984
G01 X20.7892 Y5.3964
G01 X20.7777 Y5.3938
G01 X20.7663 Y5.3907
G01 X20.7551 Y5.3870
G01 X20.7387 Y5.3804
G01 X20.7281 Y5.3754
G01 X20.7177 Y5.3698
G01 X20.7076 Y5.3638
G01 X20.6978 Y5.3572
G01 X20.6837 Y5.3465
G01 X20.6748 Y5.3388
G01 X20.6622 Y5.3265
G01 X20.6543 Y5.3178
G01 X20.6468 Y5.3087
G01 X20.6364 Y5.2943
G01 X20.6272 Y5.2793
G01 X20.6190 Y5.2636
G01 X20.6121 Y5.2474
G01 X20.6063 Y5.2307
G01 X20.6018 Y5.2136
G01 X20.5995 Y5.2020
G01 X20.5972 Y5.1845
G01 X20.5961 Y5.1669
G01 X20.5960 Y4.0610
G01 X20.5967 Y4.0433
G01 X20.5978 Y4.0316
G01 X20.5995 Y4.0200
G01 X20.6018 Y4.0084
G01 X20.6063 Y3.9913
G01 X20.6100 Y3.9801
G01 X20.6143 Y3.9692
G01 X20.6190 Y3.9584
G01 X20.6243 Y3.9479
G01 X20.6332 Y3.9326
G01 X20.6398 Y3.9228
G01 X20.6468 Y3.9133
G01 X20.6543 Y3.9042
G01 X20.6622 Y3.8955
G01 X20.6705 Y3.8872
G01 X20.6792 Y3.8793
G01 X20.6883 Y3.8718
G01 X20.6978 Y3.8648
G01 X20.7126 Y3.8551
G01 X20.7281 Y3.8466
G01 X20.7387 Y3.8416
G01 X20.7496 Y3.8371
G01 X20.7607 Y3.8331
G01 X20.7720 Y3.8297
G01 X20.7834 Y3.8268
G01 X20.7950 Y3.8245
G01 X20.8125 Y3.8222
G01 X20.8242 Y3.8213
G01 X20.8360 Y3.8210
G00 Z2.0000
G00 X18.4416 Y16.6370
G01 F60.00
G01 Z-0.1200
G01 F80.00
G01 X18.4416 Y15.1130
G01 X18.4458 Y15.0285
G01 X18.4574 Y14.9496
G01 X18.4593 Y14.9400
G01 X18.4788 Y14.8627
G01 X18.5055 Y14.7876
G01 X18.5093 Y14.7785
G01 X18.5434 Y14.7065
G01 X18.5843 Y14.6380
G01 X18.5898 Y14.6299
G01 X18.6358 Y14.5678
G01 X18.6406 Y14.5622
G01 X18.6942 Y14.5032
G01 X18.7532 Y14.4496
G01 X18.7588 Y14.4448
G01 X18.8209 Y14.3988
G01 X18.8290 Y14.3933
G01 X18.8975 Y14.3524
G01 X18.9499 Y14.3275
G01 X18.9499 Y13.3325
G01 X18.9516 Y13.3003
G01 X18.9567 Y13.2659
G01 X18.9651 Y13.2322
G01 X18.9778 Y13.1972
G01 X18.9917 Y13.1681
G01 X19.0096 Y13.1383
G01 X19.0303 Y13.1103
G01 X19.0536 Y13.0846
G01 X20.6889 Y11.4493
G01 X20.6889 Y9.7440
G01 X20.4905 Y9.7440
G01 X20.4808 Y9.7432
G01 X20.4687 Y9.7410
G01 X20.4570 Y9.7373
G01 X20.4502 Y9.7344
G01 X20.4437 Y9.7310
G01 X20.4334 Y9.7243
G01 X20.4277 Y9.7197
G01 X20.4223 Y9.7147
G01 X20.4142 Y9.7055
G01 X20.4072 Y9.6954
G01 X20.4016 Y9.6845
G01 X20.3988 Y9.6777
G01 X20.3966 Y9.6707
G01 X20.3949 Y9.6635
G01 X20.3938 Y9.6562
G01 X20.3930 Y9.6440
G01 X20.3930 Y8.6440
G01 X20.3933 Y8.6366
G01 X20.3941 Y8.6293
G01 X20.3954 Y8.6221
G01 X20.3973 Y8.6150
G01 X20.4006 Y8.6057
G01 X20.4037 Y8.5990
G01 X20.4072 Y8.5926
G01 X20.4112 Y8.5864
G01 X20.4157 Y8.5806
G01 X20.4206 Y8.5750
G01 X20.4277 Y8.5683
G01 X20.4334 Y8.5637
G01 X20.4395 Y8.5595
G01 X20.4459 Y8.5558
G01 X20.4525 Y8.5526
G01 X20.4616 Y8.5490
G01 X20.4687 Y8.5470
G01 X20.4759 Y8.5455
G01 X20.4832 Y8.5445
G01 X20.4905 Y8.5440
G01 X20.6889 Y8.5440
G01 X20.6889 Y6.6015
G01 X20.6902 Y6.5742
G01 X20.6912 Y6.5644
G01 X20.6957 Y6.5349
G01 X20.7034 Y6.5036
G01 X20.7057 Y6.4965
G01 X20.7168 Y6.4662
G01 X20.7296 Y6.4392
G01 X20.7360 Y6.4280
G01 X20.7360 Y5.7610
G01 X20.7363 Y5.7536
G01 X20.7371 Y5.7463
G01 X20.7384 Y5.7391
G01 X20.7403 Y5.7320
G01 X20.7427 Y5.7250
G01 X20.7456 Y5.7182
G01 X20.7490 Y5.7117
G01 X20.7529 Y5.7054
G01 X20.7572 Y5.6995
G01 X20.7636 Y5.6920
G01 X20.7688 Y5.6869
G01 X20.7745 Y5.6822
G01 X20.7804 Y5.6779
G01 X20.7867 Y5.6740
G01 X20.7932 Y5.6706
G01 X20.8023 Y5.6668
G01 X20.8093 Y5.6646
G01 X20.8165 Y5.6629
G01 X20.8238 Y5.6618
G01 X20.8311 Y5.6611
G01 X21.8360 Y5.6610
G01 X21.8434 Y5.6613
G01 X21.8507 Y5.6621
G01 X21.8579 Y5.6634
G01 X21.8650 Y5.6653
G01 X21.8743 Y5.6686
G01 X21.8810 Y5.6717
G01 X21.8874 Y5.6752
G01 X21.8936 Y5.6792
G01 X21.8994 Y5.6837
G01 X21.9050 Y5.6886
G01 X21.9101 Y5.6938
G01 X21.9148 Y5.6995
G01 X21.9191 Y5.7054
G01 X21.9230 Y5.7117
G01 X21.9264 Y5.7182
G01 X21.9302 Y5.7273
G01 X21.9324 Y5.7343
G01 X21.9341 Y5.7415
G01 X21.9352 Y5.7488
G01 X21.9359 Y5.7561
G01 X21.9360 Y6.8610
G01 X21.9357 Y6.8684
G01 X21.9345 Y6.8781
G01 X21.9330 Y6.8853
G01 X21.9302 Y6.8947
G01 X21.9274 Y6.9015
G01 X21.9242 Y6.9081
G01 X21.9178 Y6.9186
G01 X21.9133 Y6.9244
G01 X21.9084 Y6.9300
G01 X21.9032 Y6.9351
G01 X21.8975 Y6.9398
G01 X21.8916 Y6.9441
G01 X21.8853 Y6.9480
G01 X21.8743 Y6.9534
G01 X21.8627 Y6.9574
G01 X21.8555 Y6.9591
G01 X21.8482 Y6.9602
G01 X21.8360 Y6.9610
G01 X21.3971 Y6.9610
G01 X21.3971 Y8.5440
G01 X21.5955 Y8.5440
G01 X21.6052 Y8.5448
G01 X21.6173 Y8.5470
G01 X21.6290 Y8.5507
G01 X21.6358 Y8.5536
G01 X21.6423 Y8.5570
G01 X21.6486 Y8.5609
G01 X21.6545 Y8.5652
G01 X21.6637 Y8.5733
G01 X21.6687 Y8.5787
G01 X21.6733 Y8.5844
G01 X21.6800 Y8.5947
G01 X21.6854 Y8.6057
G01 X21.6894 Y8.6173
G01 X21.6911 Y8.6245
G01 X21.6922 Y8.6318
G01 X21.6930 Y8.6440
G01 X21.6930 Y9.6440
G01 X21.6927 Y9.6514
G01 X21.6919 Y9.6587
G01 X21.6906 Y9.6659
G01 X21.6887 Y9.6730
G01 X21.6854 Y9.6823
G01 X21.6823 Y9.6890
G01 X21.6788 Y9.6954
G01 X21.6748 Y9.7016
G01 X21.6703 Y9.7074
G01 X21.6654 Y9.7130
G01 X21.6583 Y9.7197
G01 X21.6526 Y9.7243
G01 X21.6465 Y9.7285
G01 X21.6401 Y9.7322
G01 X21.6335 Y9.7354
G01 X21.6244 Y9.7390
G01 X21.6173 Y9.7410
G01 X21.6101 Y9.7425
G01 X21.6028 Y9.7435
G01 X21.5955 Y9.7440
G01 X21.3971 Y9.7440
G01 X21.3971 Y11.5960
G01 X21.3958 Y11.6258
G01 X21.3948 Y11.6356
G01 X21.3903 Y11.6651
G01 X21.3826 Y11.6964
G01 X21.3702 Y11.7315
G01 X21.3575 Y11.7586
G01 X21.3529 Y11.7672
G01 X21.3374 Y11.7927
G01 X21.3198 Y11.8168
G01 X21.3135 Y11.8244
G01 X21.2951 Y11.8446
G01 X19.6581 Y13.4817
G01 X19.6581 Y14.3275
G01 X19.7105 Y14.3524
G01 X19.7790 Y14.3933
G01 X19.7871 Y14.3988
G01 X19.8511 Y14.4464
G01 X19.9102 Y14.4998
G01 X19.9172 Y14.5068
G01 X19.9706 Y14.5659
G01 X20.0182 Y14.6299
G01 X20.0237 Y14.6380
G01 X20.0646 Y14.7065
G01 X20.0987 Y14.7785
G01 X20.1025 Y14.7876
G01 X20.1292 Y14.8627
G01 X20.1487 Y14.9400
G01 X20.1506 Y14.9496
G01 X20.1616 Y15.0236
G01 X20.1626 Y15.0334
G01 X20.1664 Y15.1130
G01 X20.1664 Y16.6395
G01 X20.1622 Y16.7215
G01 X20.1506 Y16.8004
G01 X20.1487 Y16.8100
G01 X20.1292 Y16.8873
G01 X20.1007 Y16.9670
G01 X20.0646 Y17.0435
G01 X20.0210 Y17.1161
G01 X19.9736 Y17.1802
G01 X19.9674 Y17.1878
G01 X19.9138 Y17.2468
G01 X19.8548 Y17.3004
G01 X19.8472 Y17.3066
G01 X19.7871 Y17.3512
G01 X19.7790 Y17.3567
G01 X19.7105 Y17.3976
G01 X19.6340 Y17.4337
G01 X19.5543 Y17.4622
G01 X19.4722 Y17.4828
G01 X19.3885 Y17.4952
G01 X19.3040 Y17.4994
G01 X19.2195 Y17.4952
G01 X19.1406 Y17.4836
G01 X19.1310 Y17.4817
G01 X19.0537 Y17.4622
G01 X18.9786 Y17.4355
G01 X18.9695 Y17.4317
G01 X18.9019 Y17.3998
G01 X18.8932 Y17.3951
G01 X18.8249 Y17.3540
G01 X18.7569 Y17.3036
G01 X18.6942 Y17.2468
G01 X18.6374 Y17.1841
G01 X18.5870 Y17.1161
G01 X18.5434 Y17.0435
G01 X18.5073 Y16.9670
G01 X18.4803 Y16.8920
G01 X18.4774 Y16.8826
G01 X18.4593 Y16.8100
G01 X18.4574 Y16.8004
G01 X18.4458 Y16.7215
G01 X18.4416 Y16.6370
G00 Z2.0000
G00 X18.3016 Y16.6370
G01 F60.00
G01 Z-0.1200
G01 F80.00
G01 X18.3016 Y15.1130
G01 X18.3019 Y15.1012
G01 X18.3064 Y15.0147
G01 X18.3189 Y14.9291
G01 X18.3209 Y14.9174
G01 X18.3235 Y14.9060
G01 X18.3448 Y14.8220
G01 X18.3485 Y14.8108
G01 X18.3779 Y14.7294
G01 X18.3827 Y14.7186
G01 X18.4200 Y14.6405
G01 X18.4642 Y14.5661
G01 X18.4739 Y14.5512
G01 X18.5219 Y14.4864
G01 X18.5291 Y14.4771
G01 X18.5871 Y14.4127
G01 X18.5952 Y14.4042
G01 X18.6037 Y14.3961
G01 X18.6592 Y14.3458
G01 X18.6681 Y14.3381
G01 X18.6774 Y14.3309
G01 X18.7471 Y14.2796
G01 X18.8099 Y14.2416
G01 X18.8099 Y13.3291
G01 X18.8123 Y13.2866
G01 X18.8137 Y13.2749
G01 X18.8194 Y13.2386
G01 X18.8280 Y13.2029
G01 X18.8311 Y13.1916
G01 X18.8348 Y13.1804
G01 X18.8475 Y13.1459
G01 X18.8548 Y13.1298
G01 X18.8682 Y13.1021
G01 X18.8830 Y13.0768
G01 X18.8931 Y13.0605
G01 X18.9148 Y13.0308
G01 X18.9220 Y13.0215
G01 X18.9505 Y12.9898
G01 X20.5489 Y11.3913
G01 X20.5489 Y9.8840
G01 X20.4812 Y9.8837
G01 X20.4636 Y9.8822
G01 X20.4462 Y9.8794
G01 X20.4347 Y9.8768
G01 X20.4233 Y9.8737
G01 X20.4066 Y9.8679
G01 X20.3957 Y9.8634
G01 X20.3851 Y9.8584
G01 X20.3747 Y9.8528
G01 X20.3646 Y9.8468
G01 X20.3548 Y9.8402
G01 X20.3453 Y9.8332
G01 X20.3362 Y9.8257
G01 X20.3275 Y9.8178
G01 X20.3192 Y9.8095
G01 X20.3113 Y9.8008
G01 X20.3002 Y9.7870
G01 X20.2934 Y9.7773
G01 X20.2871 Y9.7674
G01 X20.2813 Y9.7571
G01 X20.2760 Y9.7466
G01 X20.2713 Y9.7358
G01 X20.2670 Y9.7249
G01 X20.2633 Y9.7137
G01 X20.2602 Y9.7023
G01 X20.2576 Y9.6908
G01 X20.2548 Y9.6734
G01 X20.2533 Y9.6558
G01 X20.2530 Y9.6440
G01 X20.2530 Y8.6440
G01 X20.2537 Y8.6263
G01 X20.2548 Y8.6146
G01 X20.2565 Y8.6030
G01 X20.2588 Y8.5914
G01 X20.2633 Y8.5743
G01 X20.2670 Y8.5631
G01 X20.2713 Y8.5522
G01 X20.2760 Y8.5414
G01 X20.2813 Y8.5309
G01 X20.2902 Y8.5156
G01 X20.2968 Y8.5058
G01 X20.3038 Y8.4963
G01 X20.3113 Y8.4872
G01 X20.3192 Y8.4785
G01 X20.3275 Y8.4702
G01 X20.3407 Y8.4585
G01 X20.3500 Y8.4512
G01 X20.3646 Y8.4412
G01 X20.3747 Y8.4352
G01 X20.3851 Y8.4296
G01 X20.3957 Y8.4246
G01 X20.4121 Y8.4180
G01 X20.4233 Y8.4143
G01 X20.4347 Y8.4112
G01 X20.4520 Y8.4075
G01 X20.4636 Y8.4058
G01 X20.4753 Y8.4047
G01 X20.4930 Y8.4040
G01 X20.5489 Y8.4040
G01 X20.5489 Y6.5981
G01 X20.5513 Y6.5556
G01 X20.5564 Y6.5192
G01 X20.5596 Y6.5018
G01 X20.5670 Y6.4719
G01 X20.5719 Y6.4549
G01 X20.5843 Y6.4204
G01 X20.5888 Y6.4095
G01 X20.5960 Y6.3941
G01 X20.5961 Y5.7551
G01 X20.5972 Y5.7375
G01 X20.5995 Y5.7200
G01 X20.6032 Y5.7027
G01 X20.6081 Y5.6857
G01 X20.6143 Y5.6692
G01 X20.6216 Y5.6531
G01 X20.6301 Y5.6376
G01 X20.6398 Y5.6228
G01 X20.6468 Y5.6133
G01 X20.6582 Y5.5998
G01 X20.6705 Y5.5872
G01 X20.6837 Y5.5755
G01 X20.6978 Y5.5648
G01 X20.7126 Y5.5551
G01 X20.7281 Y5.5466
G01 X20.7442 Y5.5393
G01 X20.7607 Y5.5331
G01 X20.7720 Y5.5297
G01 X20.7892 Y5.5256
G01 X20.8066 Y5.5228
G01 X20.8183 Y5.5217
G01 X20.8360 Y5.5210
G01 X21.8360 Y5.5210
G01 X21.8478 Y5.5213
G01 X21.8595 Y5.5222
G01 X21.8770 Y5.5245
G01 X21.8943 Y5.5282
G01 X21.9113 Y5.5331
G01 X21.9278 Y5.5393
G01 X21.9386 Y5.5440
G01 X21.9543 Y5.5522
G01 X21.9693 Y5.5614
G01 X21.9837 Y5.5718
G01 X21.9972 Y5.5832
G01 X22.0098 Y5.5955
G01 X22.0215 Y5.6087
G01 X22.0322 Y5.6228
G01 X22.0388 Y5.6326
G01 X22.0477 Y5.6479
G01 X22.0554 Y5.6637
G01 X22.0620 Y5.6801
G01 X22.0673 Y5.6970
G01 X22.0714 Y5.7142
G01 X22.0742 Y5.7316
G01 X22.0757 Y5.7492
G01 X22.0760 Y5.7610
G01 X22.0760 Y6.8610
G01 X22.0757 Y6.8728
G01 X22.0742 Y6.8904
G01 X22.0725 Y6.9020
G01 X22.0688 Y6.9193
G01 X22.0657 Y6.9307
G01 X22.0599 Y6.9474
G01 X22.0530 Y6.9636
G01 X22.0477 Y6.9741
G01 X22.0419 Y6.9844
G01 X22.0322 Y6.9992
G01 X22.0215 Y7.0133
G01 X22.0138 Y7.0222
G01 X22.0015 Y7.0348
G01 X21.9883 Y7.0465
G01 X21.9790 Y7.0538
G01 X21.9644 Y7.0638
G01 X21.9491 Y7.0727
G01 X21.9386 Y7.0780
G01 X21.9278 Y7.0827
G01 X21.9113 Y7.0889
G01 X21.8943 Y7.0938
G01 X21.8770 Y7.0975
G01 X21.8595 Y7.0998
G01 X21.8419 Y7.1009
G01 X21.5371 Y7.1010
G01 X21.5371 Y8.4040
G01 X21.6048 Y8.4043
G01 X21.6224 Y8.4058
G01 X21.6398 Y8.4086
G01 X21.6513 Y8.4112
G01 X21.6627 Y8.4143
G01 X21.6739 Y8.4180
G01 X21.6848 Y8.4223
G01 X21.7009 Y8.4296
G01 X21.7113 Y8.4352
G01 X21.7214 Y8.4412
G01 X21.7360 Y8.4512
G01 X21.7453 Y8.4585
G01 X21.7542 Y8.4662
G01 X21.7627 Y8.4743
G01 X21.7708 Y8.4828
G01 X21.7785 Y8.4917
G01 X21.7858 Y8.5010
G01 X21.7926 Y8.5107
G01 X21.7989 Y8.5206
G01 X21.8047 Y8.5309
G01 X21.8100 Y8.5414
G01 X21.8147 Y8.5522
G01 X21.8190 Y8.5631
G01 X21.8227 Y8.5743
G01 X21.8258 Y8.5857
G01 X21.8284 Y8.5972
G01 X21.8312 Y8.6146
G01 X21.8327 Y8.6322
G01 X21.8330 Y8.6440
G01 X21.8330 Y9.6440
G01 X21.8323 Y9.6617
G01 X21.8312 Y9.6734
G01 X21.8295 Y9.6850
G01 X21.8272 Y9.6966
G01 X21.8227 Y9.7137
G01 X21.8190 Y9.7249
G01 X21.8147 Y9.7358
G01 X21.8100 Y9.7466
G01 X21.8047 Y9.7571
G01 X21.7958 Y9.7724
G01 X21.7892 Y9.7822
G01 X21.7822 Y9.7917
G01 X21.7747 Y9.8008
G01 X21.7668 Y9.8095
G01 X21.7585 Y9.8178
G01 X21.7453 Y9.8295
G01 X21.7360 Y9.8368
G01 X21.7214 Y9.8468
G01 X21.7113 Y9.8528
G01 X21.7009 Y9.8584
G01 X21.6903 Y9.8634
G01 X21.6739 Y9.8700
G01 X21.6627 Y9.8737
G01 X21.6513 Y9.8768
G01 X21.6340 Y9.8805
G01 X21.6224 Y9.8822
G01 X21.6107 Y9.8833
G01 X21.5930 Y9.8840
G01 X21.5371 Y9.8840
G01 X21.5371 Y11.5960
G01 X21.5353 Y11.6386
G01 X21.5333 Y11.6561
G01 X21.5276 Y11.6924
G01 X21.5175 Y11.7338
G01 X21.5122 Y11.7506
G01 X21.4995 Y11.7851
G01 X21.4815 Y11.8237
G01 X21.4730 Y11.8392
G01 X21.4539 Y11.8705
G01 X21.4322 Y11.9002
G01 X21.4212 Y11.9140
G01 X21.3965 Y11.9412
G01 X19.7981 Y13.5397
G01 X19.7981 Y14.2416
G01 X19.8609 Y14.2796
G01 X19.9306 Y14.3309
G01 X19.9399 Y14.3381
G01 X19.9488 Y14.3458
G01 X20.0043 Y14.3961
G01 X20.0128 Y14.4042
G01 X20.0209 Y14.4127
G01 X20.0789 Y14.4771
G01 X20.1307 Y14.5465
G01 X20.1374 Y14.5561
G01 X20.1822 Y14.6302
G01 X20.1880 Y14.6405
G01 X20.2253 Y14.7186
G01 X20.2301 Y14.7294
G01 X20.2343 Y14.7404
G01 X20.2632 Y14.8220
G01 X20.2845 Y14.9060
G01 X20.2871 Y14.9174
G01 X20.2891 Y14.9291
G01 X20.3001 Y15.0031
G01 X20.3016 Y15.0147
G01 X20.3024 Y15.0265
G01 X20.3064 Y15.1130
G01 X20.3063 Y16.6429
G01 X20.3024 Y16.7235
G01 X20.3016 Y16.7353
G01 X20.2891 Y16.8209
G01 X20.2871 Y16.8326
G01 X20.2845 Y16.8440
G01 X20.2664 Y16.9166
G01 X20.2614 Y16.9336
G01 X20.2343 Y17.0096
G01 X20.2301 Y17.0206
G01 X20.2253 Y17.0314
G01 X20.1880 Y17.1095
G01 X20.1438 Y17.1839
G01 X20.1374 Y17.1939
G01 X20.0861 Y17.2636
G01 X20.0789 Y17.2729
G01 X20.0712 Y17.2818
G01 X20.0128 Y17.3458
G01 X19.9488 Y17.4042
G01 X19.9399 Y17.4119
G01 X19.9306 Y17.4191
G01 X19.8705 Y17.4637
G01 X19.8609 Y17.4704
G01 X19.8509 Y17.4768
G01 X19.7765 Y17.5210
G01 X19.7660 Y17.5263
G01 X19.6876 Y17.5631
G01 X19.6766 Y17.5673
G01 X19.5950 Y17.5962
G01 X19.5110 Y17.6175
G01 X19.4996 Y17.6201
G01 X19.4879 Y17.6221
G01 X19.4023 Y17.6346
G01 X19.3158 Y17.6391
G01 X19.3040 Y17.6394
G01 X19.2175 Y17.6354
G01 X19.2057 Y17.6346
G01 X19.1201 Y17.6221
G01 X19.1084 Y17.6201
G01 X19.0970 Y17.6175
G01 X19.0130 Y17.5962
G01 X18.9314 Y17.5673
G01 X18.9204 Y17.5631
G01 X18.9096 Y17.5583
G01 X18.8420 Y17.5263
G01 X18.8315 Y17.5210
G01 X18.8212 Y17.5152
G01 X18.7471 Y17.4704
G01 X18.6774 Y17.4191
G01 X18.6681 Y17.4119
G01 X18.6037 Y17.3539
G01 X18.5952 Y17.3458
G01 X18.5368 Y17.2818
G01 X18.5291 Y17.2729
G01 X18.4773 Y17.2035
G01 X18.4706 Y17.1939
G01 X18.4642 Y17.1839
G01 X18.4200 Y17.1095
G01 X18.3827 Y17.0314
G01 X18.3779 Y17.0206
G01 X18.3485 Y16.9392
G01 X18.3448 Y16.9280
G01 X18.3416 Y16.9166
G01 X18.3235 Y16.8440
G01 X18.3209 Y16.8326
G01 X18.3189 Y16.8209
G01 X18.3064 Y16.7353
G01 X18.3019 Y16.6488
G01 X18.3016 Y16.6370
G00 Z2.0000
G00 X13.3616 Y16.6370
G01 F60.00
G01 Z-0.1200
G01 F80.00
G01 X13.3616 Y15.1130
G01 X13.3658 Y15.0285
G01 X13.3774 Y14.9496
G01 X13.3787 Y14.9424
G01 X13.3988 Y14.8627
G01 X13.4255 Y14.7876
G01 X13.4293 Y14.7785
G01 X13.4634 Y14.7065
G01 X13.5043 Y14.6380
G01 X13.5098 Y14.6299
G01 X13.5558 Y14.5678
G01 X13.5606 Y14.5622
G01 X13.6142 Y14.5032
G01 X13.6732 Y14.4496
G01 X13.6788 Y14.4448
G01 X13.7409 Y14.3988
G01 X13.7490 Y14.3933
G01 X13.8175 Y14.3524
G01 X13.8699 Y14.3275
G01 X13.8699 Y10.0999
G01 X13.6126 Y10.0999
G01 X13.6004 Y10.0988
G01 X13.5884 Y10.0963
G01 X13.5814 Y10.0941
G01 X13.5746 Y10.0913
G01 X13.5680 Y10.0881
G01 X13.5595 Y10.0830
G01 X13.5536 Y10.0787
G01 X13.5461 Y10.0723
G01 X13.5410 Y10.0671
G01 X13.5363 Y10.0614
G01 X13.5306 Y10.0534
G01 X13.5269 Y10.0470
G01 X13.5237 Y10.0404
G01 X13.5209 Y10.0336
G01 X13.5187 Y10.0266
G01 X13.5166 Y10.0170
G01 X13.5156 Y10.0097
G01 X13.5151 Y10.0024
G01 X13.5151 Y8.2881
G01 X13.5154 Y8.2807
G01 X13.5170 Y8.2686
G01 X13.5187 Y8.2614
G01 X13.5209 Y8.2544
G01 X13.5237 Y8.2476
G01 X13.5269 Y8.2410
G01 X13.5333 Y8.2305
G01 X13.5378 Y8.2247
G01 X13.5427 Y8.2191
G01 X13.5517 Y8.2108
G01 X13.5575 Y8.2063
G01 X13.5637 Y8.2023
G01 X13.5701 Y8.1988
G01 X13.5768 Y8.1957
G01 X13.5861 Y8.1924
G01 X13.5932 Y8.1905
G01 X13.6004 Y8.1892
G01 X13.6102 Y8.1882
G01 X13.7419 Y8.1881
G01 X13.7419 Y6.7710
G01 X13.7436 Y6.7363
G01 X13.7487 Y6.7019
G01 X13.7558 Y6.6729
G01 X13.7587 Y6.6635
G01 X13.7688 Y6.6355
G01 X13.7815 Y6.6084
G01 X13.7861 Y6.5998
G01 X13.8016 Y6.5743
G01 X13.8238 Y6.5445
G01 X13.8456 Y6.5206
G01 X14.2480 Y6.1182
G01 X14.2481 Y5.4641
G01 X14.2495 Y5.4519
G01 X14.2516 Y5.4423
G01 X14.2556 Y5.4307
G01 X14.2598 Y5.4219
G01 X14.2649 Y5.4134
G01 X14.2723 Y5.4037
G01 X14.2790 Y5.3966
G01 X14.2865 Y5.3902
G01 X14.2924 Y5.3859
G01 X14.2987 Y5.3820
G01 X14.3052 Y5.3786
G01 X14.3143 Y5.3748
G01 X14.3213 Y5.3726
G01 X14.3285 Y5.3709
G01 X14.3358 Y5.3698
G01 X14.3455 Y5.3690
G01 X15.4480 Y5.3690
G01 X15.4578 Y5.3695
G01 X15.4675 Y5.3709
G01 X15.4747 Y5.3726
G01 X15.4840 Y5.3757
G01 X15.4908 Y5.3786
G01 X15.4973 Y5.3820
G01 X15.5056 Y5.3872
G01 X15.5114 Y5.3917
G01 X15.5187 Y5.3983
G01 X15.5237 Y5.4037
G01 X15.5283 Y5.4094
G01 X15.5325 Y5.4155
G01 X15.5362 Y5.4219
G01 X15.5404 Y5.4307
G01 X15.5437 Y5.4400
G01 X15.5456 Y5.4471
G01 X15.5469 Y5.4543
G01 X15.5479 Y5.4641
G01 X15.5480 Y6.4715
G01 X15.5475 Y6.4788
G01 X15.5465 Y6.4861
G01 X15.5450 Y6.4933
G01 X15.5430 Y6.5004
G01 X15.5384 Y6.5118
G01 X15.5350 Y6.5183
G01 X15.5311 Y6.5246
G01 X15.5237 Y6.5343
G01 X15.5170 Y6.5414
G01 X15.5076 Y6.5493
G01 X15.4973 Y6.5560
G01 X15.4863 Y6.5614
G01 X15.4747 Y6.5654
G01 X15.4627 Y6.5679
G01 X15.4529 Y6.5689
G01 X14.7988 Y6.5690
G01 X14.4501 Y6.9177
G01 X14.4501 Y8.1881
G01 X14.5818 Y8.1882
G01 X14.5916 Y8.1892
G01 X14.6012 Y8.1911
G01 X14.6083 Y8.1931
G01 X14.6174 Y8.1967
G01 X14.6283 Y8.2023
G01 X14.6345 Y8.2063
G01 X14.6403 Y8.2108
G01 X14.6459 Y8.2157
G01 X14.6510 Y8.2209
G01 X14.6557 Y8.2266
G01 X14.6600 Y8.2325
G01 X14.6639 Y8.2388
G01 X14.6673 Y8.2453
G01 X14.6702 Y8.2521
G01 X14.6726 Y8.2591
G01 X14.6754 Y8.2710
G01 X14.6764 Y8.2783
G01 X14.6769 Y8.2856
G01 X14.6768 Y10.0048
G01 X14.6758 Y10.0146
G01 X14.6745 Y10.0218
G01 X14.6719 Y10.0313
G01 X14.6683 Y10.0404
G01 X14.6639 Y10.0492
G01 X14.6587 Y10.0575
G01 X14.6526 Y10.0652
G01 X14.6459 Y10.0723
G01 X14.6403 Y10.0772
G01 X14.6325 Y10.0830
G01 X14.6240 Y10.0881
G01 X14.6152 Y10.0923
G01 X14.6059 Y10.0956
G01 X14.5964 Y10.0980
G01 X14.5867 Y10.0994
G01 X14.5781 Y10.0999
G01 X14.5781 Y14.3275
G01 X14.6305 Y14.3524
G01 X14.6990 Y14.3933
G01 X14.7071 Y14.3988
G01 X14.7692 Y14.4448
G01 X14.7748 Y14.4496
G01 X14.8338 Y14.5032
G01 X14.8874 Y14.5622
G01 X14.8922 Y14.5678
G01 X14.9382 Y14.6299
G01 X14.9437 Y14.6380
G01 X14.9846 Y14.7065
G01 X15.0187 Y14.7785
G01 X15.0225 Y14.7876
G01 X15.0492 Y14.8627
G01 X15.0698 Y14.9448
G01 X15.0822 Y15.0285
G01 X15.0864 Y15.1130
G01 X15.0864 Y16.6370
G01 X15.0822 Y16.7215
G01 X15.0698 Y16.8052
G01 X15.0492 Y16.8873
G01 X15.0207 Y16.9670
G01 X14.9846 Y17.0435
G01 X14.9437 Y17.1120
G01 X14.9382 Y17.1201
G01 X14.8906 Y17.1841
G01 X14.8372 Y17.2432
G01 X14.8302 Y17.2502
G01 X14.7748 Y17.3004
G01 X14.7672 Y17.3066
G01 X14.7031 Y17.3540
G01 X14.6305 Y17.3976
G01 X14.5540 Y17.4337
G01 X14.4743 Y17.4622
G01 X14.3922 Y17.4828
G01 X14.3085 Y17.4952
G01 X14.2240 Y17.4994
G01 X14.1395 Y17.4952
G01 X14.0558 Y17.4828
G01 X13.9737 Y17.4622
G01 X13.8940 Y17.4337
G01 X13.8175 Y17.3976
G01 X13.7449 Y17.3540
G01 X13.6769 Y17.3036
G01 X13.6142 Y17.2468
G01 X13.5606 Y17.1878
G01 X13.5544 Y17.1802
G01 X13.5070 Y17.1161
G01 X13.4659 Y17.0478
G01 X13.4612 Y17.0391
G01 X13.4293 Y16.9715
G01 X13.4255 Y16.9624
G01 X13.3988 Y16.8873
G01 X13.3782 Y16.8052
G01 X13.3658 Y16.7215
G01 X13.3616 Y16.6370
G00 Z2.0000
M05
G00 Z2.0000
G00 Z15.00


