(G-CODE GENERATED BY FLATCAM v8.994 - www.flatcam.org - Version Date: 2020/11/7)

(Name: new_geo_cnc)
(Type: G-code from Geometry)
(Units: MM)

(Created on Saturday, 30 April 2022 at 18:47)

(This preprocessor is used with a motion controller loaded with GRBL firmware.)
(It is configured to be compatible with almost any version of GRBL firmware.)

(TOOL DIAMETER: 3.175 mm)
(Feedrate_XY: 100.0 mm/min)
(Feedrate_Z: 60.0 mm/min)
(Feedrate rapids 1500.0 mm/min)

(Z_Cut: -1.6 mm)
(DepthPerCut: 0.4 mm <=>4 passes)
(Z_Move: 2.0 mm)
(Z Start: None mm)
(Z End: 15.0 mm)
(X,Y End: None mm)
(Steps per circle: 64)
(Steps per circle: 64)
(Preprocessor Geometry: grbl_11)

(X range:   -1.8703 ...   36.2514  mm)
(Y range:   -1.0339 ...   20.0363  mm)

(Spindle Speed: 0.0 RPM)
G21
G90
G17
G94


G01 F100.00

M5             
G00 Z15.0000
G00 X0.0000 Y0.0000                
T1
M6
(MSG, Change to Tool Dia = 3.1750)
M0
G00 Z15.0000

M03
G01 F100.00
G00 X-1.8703 Y-1.0337
G01 F60.00
G01 Z-0.4000
G01 F100.00
G01 X8.8540 Y20.0139 F100.00
G00 X8.8540 Y20.0139
G01 F60.00
G01 Z-0.8000
G01 F100.00
G01 X-1.8703 Y-1.0337 F100.00
G00 X-1.8703 Y-1.0337
G01 F60.00
G01 Z-1.2000
G01 F100.00
G01 X8.8540 Y20.0139 F100.00
G00 X8.8540 Y20.0139
G01 F60.00
G01 Z-1.6000
G01 F100.00
G01 X-1.8703 Y-1.0337 F100.00
G00 Z2.0000
G00 X8.8540 Y20.0139
G01 F60.00
G01 Z-0.4000
G01 F100.00
G01 X8.8632 Y20.0330 F100.00
G00 X8.8632 Y20.0330
G01 F60.00
G01 Z-0.8000
G01 F100.00
G01 X8.8540 Y20.0139 F100.00
G00 X8.8540 Y20.0139
G01 F60.00
G01 Z-1.2000
G01 F100.00
G01 X8.8632 Y20.0330 F100.00
G00 X8.8632 Y20.0330
G01 F60.00
G01 Z-1.6000
G01 F100.00
G01 X8.8540 Y20.0139 F100.00
G00 Z2.0000
G00 X8.8632 Y20.0330
G01 F60.00
G01 Z-0.4000
G01 F100.00
G01 X25.5269 Y20.0363 F100.00
G00 X25.5269 Y20.0363
G01 F60.00
G01 Z-0.8000
G01 F100.00
G01 X8.8632 Y20.0330 F100.00
G00 X8.8632 Y20.0330
G01 F60.00
G01 Z-1.2000
G01 F100.00
G01 X25.5269 Y20.0363 F100.00
G00 X25.5269 Y20.0363
G01 F60.00
G01 Z-1.6000
G01 F100.00
G01 X8.8632 Y20.0330 F100.00
G00 Z2.0000
G00 X25.5269 Y20.0363
G01 F60.00
G01 Z-0.4000
G01 F100.00
G01 X36.2514 Y-1.0339 F100.00
G00 X36.2514 Y-1.0339
G01 F60.00
G01 Z-0.8000
G01 F100.00
G01 X25.5269 Y20.0363 F100.00
G00 X25.5269 Y20.0363
G01 F60.00
G01 Z-1.2000
G01 F100.00
G01 X36.2514 Y-1.0339 F100.00
G00 X36.2514 Y-1.0339
G01 F60.00
G01 Z-1.6000
G01 F100.00
G01 X25.5269 Y20.0363 F100.00
G00 Z2.0000
G00 X36.2514 Y-1.0339
G01 F60.00
G01 Z-0.4000
G01 F100.00
G01 X-1.8703 Y-1.0337 F100.00
G00 X-1.8703 Y-1.0337
G01 F60.00
G01 Z-0.8000
G01 F100.00
G01 X36.2514 Y-1.0339 F100.00
G00 X36.2514 Y-1.0339
G01 F60.00
G01 Z-1.2000
G01 F100.00
G01 X-1.8703 Y-1.0337 F100.00
G00 X-1.8703 Y-1.0337
G01 F60.00
G01 Z-1.6000
G01 F100.00
G01 X36.2514 Y-1.0339 F100.00
G00 Z2.0000
M05
G00 Z2.0000
G00 Z15.00


