(G-CODE GENERATED BY FLATCAM v8.994 - www.flatcam.org - Version Date: 2020/11/7)

(Name: copper_top.gbr_iso_combined_1_cnc)
(Type: G-code from Geometry)
(Units: MM)

(Created on Saturday, 30 April 2022 at 19:10)

(This preprocessor is the default preprocessor used by FlatCAM.)
(It is made to work with MACH3 compatible motion controllers.)

(TOOL DIAMETER: 0.2 mm)
(Feedrate_XY: 100.0 mm/min)
(Feedrate_Z: 100.0 mm/min)
(Feedrate rapids 1500.0 mm/min)

(Z_Cut: -0.1 mm)
(Z_Move: 2.0 mm)
(Z Start: None mm)
(Z End: 15.0 mm)
(X,Y End: None mm)
(Steps per circle: 64)
(Preprocessor Geometry: default)

(X range:    5.7320 ...   29.5740  mm)
(Y range:    2.0490 ...   17.5094  mm)

(Spindle Speed: 0.0 RPM)
G21
G90
G94

G01 F100.00

M5
G00 Z15.0000
G00 X0.0000 Y0.0000
T1
M6    
(MSG, Change to Tool Dia = 0.2000)
M0
G00 Z15.0000

M03
G01 F100.00
G00 X5.7320 Y3.2366
G01 F100.00
G01 Z-0.1000
G01 F100.00
G01 X5.7320 Y2.6027
G01 X5.7332 Y2.5892
G01 X5.7353 Y2.5786
G01 X5.7384 Y2.5683
G01 X5.7426 Y2.5583
G01 X5.7463 Y2.5512
G01 X5.7521 Y2.5420
G01 X5.7587 Y2.5335
G01 X5.7642 Y2.5276
G01 X6.2125 Y2.0793
G01 X6.2186 Y2.0740
G01 X6.2273 Y2.0675
G01 X6.2342 Y2.0633
G01 X6.2438 Y2.0584
G01 X6.2539 Y2.0546
G01 X6.2616 Y2.0523
G01 X6.2696 Y2.0506
G01 X6.2803 Y2.0493
G01 X6.2884 Y2.0490
G01 X6.9196 Y2.0490
G01 X6.9304 Y2.0495
G01 X6.9411 Y2.0511
G01 X6.9516 Y2.0537
G01 X6.9617 Y2.0574
G01 X6.9715 Y2.0620
G01 X6.9807 Y2.0675
G01 X6.9894 Y2.0740
G01 X6.9974 Y2.0812
G01 X7.4438 Y2.5276
G01 X7.4510 Y2.5356
G01 X7.4559 Y2.5420
G01 X7.4603 Y2.5488
G01 X7.4647 Y2.5569
G01 X14.3510 Y2.5569
G01 X14.3813 Y2.5582
G01 X14.3920 Y2.5593
G01 X14.4220 Y2.5639
G01 X14.4567 Y2.5726
G01 X14.4903 Y2.5846
G01 X14.5178 Y2.5974
G01 X14.5250 Y2.6012
G01 X14.5487 Y2.6154
G01 X14.5577 Y2.6213
G01 X14.5820 Y2.6395
G01 X14.6065 Y2.6616
G01 X16.7675 Y4.8225
G01 X16.7915 Y4.8490
G01 X16.8097 Y4.8733
G01 X16.8156 Y4.8823
G01 X16.8311 Y4.9084
G01 X16.8442 Y4.9357
G01 X16.8484 Y4.9457
G01 X16.8584 Y4.9743
G01 X16.8659 Y5.0037
G01 X16.8676 Y5.0116
G01 X16.8724 Y5.0443
G01 X16.8741 Y5.0773
G01 X16.8741 Y5.3590
G01 X17.1480 Y5.3590
G01 X17.1615 Y5.3598
G01 X17.1721 Y5.3617
G01 X17.1851 Y5.3654
G01 X17.1926 Y5.3684
G01 X17.1999 Y5.3720
G01 X17.2113 Y5.3791
G01 X17.2178 Y5.3840
G01 X17.2238 Y5.3893
G01 X17.2330 Y5.3992
G01 X17.2379 Y5.4057
G01 X17.2424 Y5.4124
G01 X17.2463 Y5.4195
G01 X17.2496 Y5.4269
G01 X17.2540 Y5.4397
G01 X17.2568 Y5.4529
G01 X17.2577 Y5.4609
G01 X17.2580 Y5.4690
G01 X17.2580 Y6.4690
G01 X17.2572 Y6.4825
G01 X17.2559 Y6.4905
G01 X17.2540 Y6.4983
G01 X17.2516 Y6.5061
G01 X17.2474 Y6.5160
G01 X17.2424 Y6.5256
G01 X17.2379 Y6.5323
G01 X17.2330 Y6.5388
G01 X17.2258 Y6.5468
G01 X17.2198 Y6.5523
G01 X17.2113 Y6.5589
G01 X17.2046 Y6.5634
G01 X17.1950 Y6.5684
G01 X17.1851 Y6.5726
G01 X17.1773 Y6.5750
G01 X17.1695 Y6.5769
G01 X17.1615 Y6.5782
G01 X17.1480 Y6.5790
G01 X16.5030 Y6.5790
G01 X16.1121 Y6.9698
G01 X16.1121 Y10.5172
G01 X17.0252 Y11.4304
G01 X17.0455 Y11.4530
G01 X17.0637 Y11.4773
G01 X17.0696 Y11.4863
G01 X17.0851 Y11.5124
G01 X17.1004 Y11.5447
G01 X17.1108 Y11.5732
G01 X17.1139 Y11.5835
G01 X17.1216 Y11.6156
G01 X17.1264 Y11.6483
G01 X17.1281 Y11.6840
G01 X17.1281 Y14.3212
G01 X17.1752 Y14.3436
G01 X17.2464 Y14.3862
G01 X17.2531 Y14.3908
G01 X17.3132 Y14.4353
G01 X17.3195 Y14.4404
G01 X17.3809 Y14.4961
G01 X17.4348 Y14.5555
G01 X17.4417 Y14.5638
G01 X17.4862 Y14.6239
G01 X17.4908 Y14.6306
G01 X17.5334 Y14.7018
G01 X17.5678 Y14.7742
G01 X17.5719 Y14.7842
G01 X17.5988 Y14.8598
G01 X17.6184 Y14.9375
G01 X17.6205 Y14.9481
G01 X17.6322 Y15.0275
G01 X17.6363 Y15.1103
G01 X17.6364 Y16.6370
G01 X17.6326 Y16.7171
G01 X17.6315 Y16.7279
G01 X17.6196 Y16.8072
G01 X17.5988 Y16.8902
G01 X17.5700 Y16.9708
G01 X17.5334 Y17.0482
G01 X17.4894 Y17.1217
G01 X17.4384 Y17.1904
G01 X17.3809 Y17.2539
G01 X17.3174 Y17.3114
G01 X17.2531 Y17.3592
G01 X17.2441 Y17.3652
G01 X17.1752 Y17.4064
G01 X17.1028 Y17.4408
G01 X17.0928 Y17.4449
G01 X17.0172 Y17.4718
G01 X16.9395 Y17.4914
G01 X16.9289 Y17.4935
G01 X16.8495 Y17.5052
G01 X16.7694 Y17.5092
G01 X16.7586 Y17.5092
G01 X16.6785 Y17.5052
G01 X16.5991 Y17.4935
G01 X16.5885 Y17.4914
G01 X16.5108 Y17.4718
G01 X16.4352 Y17.4449
G01 X16.4252 Y17.4408
G01 X16.3528 Y17.4064
G01 X16.2839 Y17.3652
G01 X16.2749 Y17.3592
G01 X16.2106 Y17.3114
G01 X16.1510 Y17.2576
G01 X16.1434 Y17.2500
G01 X16.0896 Y17.1904
G01 X16.0418 Y17.1261
G01 X16.0358 Y17.1171
G01 X15.9946 Y17.0482
G01 X15.9602 Y16.9758
G01 X15.9561 Y16.9658
G01 X15.9292 Y16.8902
G01 X15.9096 Y16.8125
G01 X15.9079 Y16.8045
G01 X15.8958 Y16.7225
G01 X15.8916 Y16.6370
G01 X15.8916 Y15.1130
G01 X15.8958 Y15.0275
G01 X15.9084 Y14.9428
G01 X15.9292 Y14.8598
G01 X15.9561 Y14.7842
G01 X15.9602 Y14.7742
G01 X15.9946 Y14.7018
G01 X16.0358 Y14.6329
G01 X16.0418 Y14.6239
G01 X16.0880 Y14.5617
G01 X16.0932 Y14.5555
G01 X16.1471 Y14.4961
G01 X16.2065 Y14.4422
G01 X16.2127 Y14.4370
G01 X16.2749 Y14.3908
G01 X16.2816 Y14.3862
G01 X16.3528 Y14.3436
G01 X16.3999 Y14.3212
G01 X16.3999 Y11.8348
G01 X15.4868 Y10.9216
G01 X15.4665 Y10.8990
G01 X15.4483 Y10.8747
G01 X15.4424 Y10.8657
G01 X15.4269 Y10.8396
G01 X15.4116 Y10.8073
G01 X15.4012 Y10.7788
G01 X15.3981 Y10.7685
G01 X15.3904 Y10.7364
G01 X15.3856 Y10.7037
G01 X15.3839 Y10.6680
G01 X15.3839 Y6.8163
G01 X15.3856 Y6.7833
G01 X15.3909 Y6.7480
G01 X15.3996 Y6.7133
G01 X15.4106 Y6.6822
G01 X15.4138 Y6.6747
G01 X15.4269 Y6.6474
G01 X15.4438 Y6.6190
G01 X15.4648 Y6.5901
G01 X15.4784 Y6.5747
G01 X15.4641 Y6.5778
G01 X15.4561 Y6.5787
G01 X15.4480 Y6.5790
G01 X14.8030 Y6.5790
G01 X14.4601 Y6.9218
G01 X14.4601 Y8.1781
G01 X14.5769 Y8.1781
G01 X14.5850 Y8.1784
G01 X14.5930 Y8.1793
G01 X14.6036 Y8.1814
G01 X14.6140 Y8.1845
G01 X14.6239 Y8.1887
G01 X14.6357 Y8.1952
G01 X14.6424 Y8.1997
G01 X14.6487 Y8.2048
G01 X14.6547 Y8.2103
G01 X14.6602 Y8.2163
G01 X14.6684 Y8.2270
G01 X14.6726 Y8.2339
G01 X14.6763 Y8.2411
G01 X14.6795 Y8.2485
G01 X14.6822 Y8.2562
G01 X14.6842 Y8.2640
G01 X14.6857 Y8.2720
G01 X14.6869 Y8.2854
G01 X14.6868 Y10.0053
G01 X14.6857 Y10.0160
G01 X14.6836 Y10.0266
G01 X14.6805 Y10.0370
G01 X14.6775 Y10.0445
G01 X14.6726 Y10.0541
G01 X14.6684 Y10.0610
G01 X14.6619 Y10.0697
G01 X14.6566 Y10.0757
G01 X14.6487 Y10.0832
G01 X14.6424 Y10.0883
G01 X14.6357 Y10.0928
G01 X14.6264 Y10.0982
G01 X14.6165 Y10.1025
G01 X14.6088 Y10.1052
G01 X14.5984 Y10.1078
G01 X14.5881 Y10.1093
G01 X14.5881 Y14.3212
G01 X14.6352 Y14.3436
G01 X14.7064 Y14.3862
G01 X14.7131 Y14.3908
G01 X14.7753 Y14.4370
G01 X14.7815 Y14.4422
G01 X14.8409 Y14.4961
G01 X14.8948 Y14.5555
G01 X14.9000 Y14.5617
G01 X14.9462 Y14.6239
G01 X14.9522 Y14.6329
G01 X14.9934 Y14.7018
G01 X15.0278 Y14.7742
G01 X15.0319 Y14.7842
G01 X15.0588 Y14.8598
G01 X15.0796 Y14.9428
G01 X15.0922 Y15.0275
G01 X15.0964 Y15.1130
G01 X15.0964 Y16.6370
G01 X15.0922 Y16.7225
G01 X15.0796 Y16.8072
G01 X15.0588 Y16.8902
G01 X15.0319 Y16.9658
G01 X15.0278 Y16.9758
G01 X14.9958 Y17.0434
G01 X14.9907 Y17.0529
G01 X14.9494 Y17.1217
G01 X14.8984 Y17.1904
G01 X14.8409 Y17.2539
G01 X14.7774 Y17.3114
G01 X14.7087 Y17.3624
G01 X14.6352 Y17.4064
G01 X14.5578 Y17.4430
G01 X14.4824 Y17.4701
G01 X14.4720 Y17.4733
G01 X14.3995 Y17.4914
G01 X14.3889 Y17.4935
G01 X14.3095 Y17.5052
G01 X14.2294 Y17.5092
G01 X14.2186 Y17.5092
G01 X14.1385 Y17.5052
G01 X14.0538 Y17.4926
G01 X13.9708 Y17.4718
G01 X13.8902 Y17.4430
G01 X13.8128 Y17.4064
G01 X13.7393 Y17.3624
G01 X13.6706 Y17.3114
G01 X13.6110 Y17.2576
G01 X13.6034 Y17.2500
G01 X13.5532 Y17.1945
G01 X13.5463 Y17.1862
G01 X13.4986 Y17.1217
G01 X13.4573 Y17.0529
G01 X13.4522 Y17.0434
G01 X13.4180 Y16.9708
G01 X13.3892 Y16.8902
G01 X13.3684 Y16.8072
G01 X13.3558 Y16.7225
G01 X13.3516 Y16.6370
G01 X13.3516 Y15.1130
G01 X13.3558 Y15.0275
G01 X13.3684 Y14.9428
G01 X13.3892 Y14.8598
G01 X13.4161 Y14.7842
G01 X13.4202 Y14.7742
G01 X13.4546 Y14.7018
G01 X13.4958 Y14.6329
G01 X13.5018 Y14.6239
G01 X13.5480 Y14.5617
G01 X13.5532 Y14.5555
G01 X13.6071 Y14.4961
G01 X13.6665 Y14.4422
G01 X13.6727 Y14.4370
G01 X13.7349 Y14.3908
G01 X13.7416 Y14.3862
G01 X13.8128 Y14.3436
G01 X13.8599 Y14.3212
G01 X13.8599 Y10.1099
G01 X13.6124 Y10.1099
G01 X13.5990 Y10.1087
G01 X13.5910 Y10.1072
G01 X13.5832 Y10.1052
G01 X13.5755 Y10.1025
G01 X13.5681 Y10.0993
G01 X13.5585 Y10.0943
G01 X13.5518 Y10.0898
G01 X13.5453 Y10.0849
G01 X13.5393 Y10.0796
G01 X13.5336 Y10.0738
G01 X13.5284 Y10.0676
G01 X13.5222 Y10.0587
G01 X13.5181 Y10.0518
G01 X13.5145 Y10.0445
G01 X13.5115 Y10.0370
G01 X13.5091 Y10.0292
G01 X13.5072 Y10.0214
G01 X13.5059 Y10.0134
G01 X13.5051 Y10.0026
G01 X13.5051 Y8.2881
G01 X13.5054 Y8.2800
G01 X13.5072 Y8.2666
G01 X13.5091 Y8.2588
G01 X13.5115 Y8.2510
G01 X13.5145 Y8.2435
G01 X13.5181 Y8.2362
G01 X13.5252 Y8.2248
G01 X13.5336 Y8.2142
G01 X13.5393 Y8.2084
G01 X13.5453 Y8.2031
G01 X13.5563 Y8.1952
G01 X13.5632 Y8.1911
G01 X13.5705 Y8.1875
G01 X13.5780 Y8.1845
G01 X13.5884 Y8.1814
G01 X13.5990 Y8.1793
G01 X13.6097 Y8.1782
G01 X13.7319 Y8.1781
G01 X13.7319 Y6.7710
G01 X13.7336 Y6.7353
G01 X13.7379 Y6.7053
G01 X13.7401 Y6.6947
G01 X13.7476 Y6.6653
G01 X13.7576 Y6.6367
G01 X13.7607 Y6.6292
G01 X13.7724 Y6.6042
G01 X13.7775 Y6.5947
G01 X13.7932 Y6.5687
G01 X13.8112 Y6.5443
G01 X13.8163 Y6.5379
G01 X13.8385 Y6.5135
G01 X14.2380 Y6.1140
G01 X14.2380 Y5.4690
G01 X14.2383 Y5.4609
G01 X14.2396 Y5.4502
G01 X14.2427 Y5.4371
G01 X14.2474 Y5.4244
G01 X14.2536 Y5.4124
G01 X14.2613 Y5.4013
G01 X14.2702 Y5.3912
G01 X14.2803 Y5.3823
G01 X14.2914 Y5.3746
G01 X14.3034 Y5.3684
G01 X14.3161 Y5.3637
G01 X14.3292 Y5.3606
G01 X14.3372 Y5.3595
G01 X14.3453 Y5.3590
G01 X15.4480 Y5.3590
G01 X15.4588 Y5.3595
G01 X15.4695 Y5.3611
G01 X15.4799 Y5.3637
G01 X15.4876 Y5.3664
G01 X15.4950 Y5.3696
G01 X15.5046 Y5.3746
G01 X15.5135 Y5.3806
G01 X15.5219 Y5.3875
G01 X15.5295 Y5.3951
G01 X15.5364 Y5.4035
G01 X15.5424 Y5.4124
G01 X15.5474 Y5.4220
G01 X15.5516 Y5.4319
G01 X15.5547 Y5.4423
G01 X15.5572 Y5.4555
G01 X15.5580 Y5.4663
G01 X15.5580 Y6.4690
G01 X15.5572 Y6.4825
G01 X15.5559 Y6.4905
G01 X15.5541 Y6.4979
G01 X15.9380 Y6.1140
G01 X15.9380 Y5.4690
G01 X15.9385 Y5.4582
G01 X15.9407 Y5.4449
G01 X15.9436 Y5.4345
G01 X15.9486 Y5.4220
G01 X15.9551 Y5.4102
G01 X15.9630 Y5.3992
G01 X15.9722 Y5.3893
G01 X15.9825 Y5.3806
G01 X15.9938 Y5.3733
G01 X16.0059 Y5.3674
G01 X16.0161 Y5.3637
G01 X16.0239 Y5.3617
G01 X16.0319 Y5.3602
G01 X16.0426 Y5.3591
G01 X16.1459 Y5.3590
G01 X16.1459 Y5.2308
G01 X14.2002 Y3.2851
G01 X7.4647 Y3.2851
G01 X7.4603 Y3.2932
G01 X7.4559 Y3.3000
G01 X7.4510 Y3.3064
G01 X7.4438 Y3.3144
G01 X6.9974 Y3.7608
G01 X6.9915 Y3.7663
G01 X6.9830 Y3.7729
G01 X6.9738 Y3.7787
G01 X6.9642 Y3.7836
G01 X6.9541 Y3.7874
G01 X6.9437 Y3.7903
G01 X6.9331 Y3.7922
G01 X6.9223 Y3.7930
G01 X6.2884 Y3.7930
G01 X6.2776 Y3.7925
G01 X6.2696 Y3.7914
G01 X6.2590 Y3.7890
G01 X6.2488 Y3.7856
G01 X6.2389 Y3.7813
G01 X6.2295 Y3.7759
G01 X6.2207 Y3.7697
G01 X6.2145 Y3.7645
G01 X5.7642 Y3.3144
G01 X5.7570 Y3.3064
G01 X5.7505 Y3.2977
G01 X5.7450 Y3.2885
G01 X5.7404 Y3.2787
G01 X5.7367 Y3.2686
G01 X5.7341 Y3.2581
G01 X5.7325 Y3.2474
G01 X5.7320 Y3.2366
G00 Z2.0000
G00 X5.7920 Y3.2366
G01 F100.00
G01 Z-0.1000
G01 F100.00
G01 X5.7920 Y2.6054
G01 X5.7924 Y2.5992
G01 X5.7932 Y2.5944
G01 X5.7963 Y2.5851
G01 X5.8004 Y2.5776
G01 X5.8066 Y2.5700
G01 X6.2539 Y2.1228
G01 X6.2606 Y2.1174
G01 X6.2681 Y2.1133
G01 X6.2762 Y2.1105
G01 X6.2847 Y2.1091
G01 X6.9196 Y2.1090
G01 X6.9245 Y2.1092
G01 X6.9306 Y2.1102
G01 X6.9399 Y2.1133
G01 X6.9484 Y2.1181
G01 X6.9550 Y2.1236
G01 X7.4022 Y2.5709
G01 X7.4062 Y2.5756
G01 X7.4089 Y2.5797
G01 X7.4117 Y2.5851
G01 X7.4138 Y2.5909
G01 X7.4153 Y2.5968
G01 X7.4159 Y2.6017
G01 X7.4160 Y2.6169
G01 X14.3510 Y2.6169
G01 X14.3808 Y2.6183
G01 X14.4079 Y2.6223
G01 X14.4416 Y2.6307
G01 X14.4674 Y2.6400
G01 X14.4944 Y2.6528
G01 X14.5220 Y2.6695
G01 X14.5439 Y2.6859
G01 X14.5652 Y2.7051
G01 X16.7251 Y4.8649
G01 X16.7451 Y4.8871
G01 X16.7642 Y4.9131
G01 X16.7782 Y4.9366
G01 X16.7910 Y4.9636
G01 X16.8017 Y4.9941
G01 X16.8083 Y5.0207
G01 X16.8125 Y5.0490
G01 X16.8141 Y5.0800
G01 X16.8141 Y5.4190
G01 X17.1529 Y5.4192
G01 X17.1601 Y5.4205
G01 X17.1683 Y5.4233
G01 X17.1747 Y5.4268
G01 X17.1807 Y5.4311
G01 X17.1859 Y5.4363
G01 X17.1902 Y5.4423
G01 X17.1937 Y5.4487
G01 X17.1962 Y5.4557
G01 X17.1976 Y5.4629
G01 X17.1980 Y5.4690
G01 X17.1980 Y6.4690
G01 X17.1976 Y6.4751
G01 X17.1958 Y6.4835
G01 X17.1921 Y6.4926
G01 X17.1874 Y6.4998
G01 X17.1816 Y6.5060
G01 X17.1747 Y6.5112
G01 X17.1671 Y6.5152
G01 X17.1590 Y6.5178
G01 X17.1505 Y6.5189
G01 X16.4781 Y6.5190
G01 X16.0521 Y6.9450
G01 X16.0521 Y10.5420
G01 X16.9799 Y11.4698
G01 X16.9991 Y11.4911
G01 X17.0155 Y11.5130
G01 X17.0322 Y11.5406
G01 X17.0450 Y11.5676
G01 X17.0543 Y11.5934
G01 X17.0625 Y11.6259
G01 X17.0667 Y11.6542
G01 X17.0681 Y11.6840
G01 X17.0681 Y14.3600
G01 X17.0771 Y14.3635
G01 X17.1491 Y14.3978
G01 X17.2153 Y14.4375
G01 X17.2794 Y14.4850
G01 X17.3384 Y14.5386
G01 X17.3904 Y14.5958
G01 X17.4395 Y14.6617
G01 X17.4816 Y14.7322
G01 X17.5145 Y14.8021
G01 X17.5414 Y14.8772
G01 X17.5612 Y14.9569
G01 X17.5725 Y15.0334
G01 X17.5763 Y15.1105
G01 X17.5764 Y16.6370
G01 X17.5722 Y16.7191
G01 X17.5608 Y16.7955
G01 X17.5414 Y16.8728
G01 X17.5145 Y16.9479
G01 X17.4805 Y17.0200
G01 X17.4395 Y17.0883
G01 X17.3920 Y17.1524
G01 X17.3384 Y17.2114
G01 X17.2794 Y17.2650
G01 X17.2133 Y17.3138
G01 X17.1470 Y17.3535
G01 X17.0771 Y17.3865
G01 X16.9998 Y17.4144
G01 X16.9201 Y17.4342
G01 X16.8436 Y17.4455
G01 X16.7665 Y17.4493
G01 X16.6844 Y17.4455
G01 X16.6031 Y17.4332
G01 X16.5282 Y17.4144
G01 X16.4531 Y17.3875
G01 X16.3789 Y17.3522
G01 X16.3127 Y17.3125
G01 X16.2506 Y17.2665
G01 X16.1896 Y17.2114
G01 X16.1345 Y17.1504
G01 X16.0885 Y17.0883
G01 X16.0488 Y17.0221
G01 X16.0135 Y16.9479
G01 X15.9859 Y16.8705
G01 X15.9672 Y16.7955
G01 X15.9555 Y16.7166
G01 X15.9516 Y16.6370
G01 X15.9516 Y15.1130
G01 X15.9555 Y15.0334
G01 X15.9675 Y14.9533
G01 X15.9874 Y14.8748
G01 X16.0135 Y14.8021
G01 X16.0464 Y14.7322
G01 X16.0885 Y14.6617
G01 X16.1360 Y14.5976
G01 X16.1913 Y14.5369
G01 X16.2486 Y14.4850
G01 X16.3107 Y14.4389
G01 X16.3810 Y14.3965
G01 X16.4509 Y14.3635
G01 X16.4599 Y14.3600
G01 X16.4599 Y11.8100
G01 X15.5321 Y10.8822
G01 X15.5129 Y10.8609
G01 X15.4965 Y10.8390
G01 X15.4798 Y10.8114
G01 X15.4661 Y10.7821
G01 X15.4570 Y10.7563
G01 X15.4497 Y10.7273
G01 X15.4453 Y10.6978
G01 X15.4439 Y10.6680
G01 X15.4439 Y6.8178
G01 X15.4453 Y6.7892
G01 X15.4497 Y6.7597
G01 X15.4570 Y6.7307
G01 X15.4661 Y6.7049
G01 X15.4810 Y6.6735
G01 X15.4951 Y6.6500
G01 X15.5129 Y6.6261
G01 X15.5329 Y6.6039
G01 X15.9980 Y6.1389
G01 X15.9980 Y5.4690
G01 X15.9984 Y5.4629
G01 X15.9992 Y5.4580
G01 X16.0014 Y5.4510
G01 X16.0039 Y5.4454
G01 X16.0078 Y5.4392
G01 X16.0126 Y5.4336
G01 X16.0182 Y5.4288
G01 X16.0244 Y5.4249
G01 X16.0312 Y5.4219
G01 X16.0382 Y5.4200
G01 X16.0480 Y5.4190
G01 X16.2059 Y5.4190
G01 X16.2059 Y5.2060
G01 X14.2250 Y3.2251
G01 X7.4160 Y3.2251
G01 X7.4159 Y3.2403
G01 X7.4153 Y3.2452
G01 X7.4138 Y3.2511
G01 X7.4117 Y3.2569
G01 X7.4089 Y3.2623
G01 X7.4054 Y3.2674
G01 X7.4014 Y3.2720
G01 X6.9541 Y3.7192
G01 X6.9464 Y3.7252
G01 X6.9388 Y3.7292
G01 X6.9294 Y3.7320
G01 X6.9196 Y3.7330
G01 X6.2884 Y3.7330
G01 X6.2835 Y3.7328
G01 X6.2774 Y3.7318
G01 X6.2681 Y3.7287
G01 X6.2596 Y3.7239
G01 X6.2530 Y3.7184
G01 X5.8058 Y3.2711
G01 X5.7998 Y3.2634
G01 X5.7958 Y3.2558
G01 X5.7930 Y3.2464
G01 X5.7920 Y3.2366
G00 Z2.0000
G00 X16.6651 Y8.1781
G01 F100.00
G01 Z-0.1000
G01 F100.00
G01 X17.6296 Y8.1781
G01 X17.6430 Y8.1793
G01 X17.6562 Y8.1821
G01 X17.6690 Y8.1865
G01 X17.6811 Y8.1924
G01 X17.6924 Y8.1997
G01 X17.7027 Y8.2084
G01 X17.7119 Y8.2183
G01 X17.7198 Y8.2293
G01 X17.7263 Y8.2411
G01 X17.7313 Y8.2536
G01 X17.7348 Y8.2666
G01 X17.7364 Y8.2773
G01 X17.7369 Y8.2881
G01 X17.7369 Y8.7799
G01 X18.6830 Y8.7799
G01 X18.6831 Y8.6386
G01 X18.6842 Y8.6279
G01 X18.6857 Y8.6199
G01 X18.6886 Y8.6095
G01 X18.6914 Y8.6019
G01 X18.6947 Y8.5945
G01 X18.6986 Y8.5874
G01 X18.7063 Y8.5763
G01 X18.7152 Y8.5662
G01 X18.7212 Y8.5607
G01 X18.7275 Y8.5556
G01 X18.7342 Y8.5511
G01 X18.7411 Y8.5470
G01 X18.7534 Y8.5414
G01 X18.7611 Y8.5387
G01 X18.7689 Y8.5367
G01 X18.7822 Y8.5345
G01 X18.7930 Y8.5340
G01 X19.8930 Y8.5340
G01 X19.9038 Y8.5345
G01 X19.9145 Y8.5361
G01 X19.9249 Y8.5387
G01 X19.9376 Y8.5434
G01 X19.9449 Y8.5470
G01 X19.9518 Y8.5511
G01 X19.9585 Y8.5556
G01 X19.9648 Y8.5607
G01 X19.9745 Y8.5701
G01 X19.9797 Y8.5763
G01 X19.9845 Y8.5829
G01 X19.9913 Y8.5945
G01 X19.9946 Y8.6019
G01 X19.9974 Y8.6095
G01 X20.0009 Y8.6225
G01 X20.0022 Y8.6305
G01 X20.0029 Y8.6386
G01 X20.0030 Y9.6440
G01 X20.0025 Y9.6548
G01 X20.0003 Y9.6681
G01 X19.9974 Y9.6785
G01 X19.9936 Y9.6886
G01 X19.9900 Y9.6959
G01 X19.9859 Y9.7028
G01 X19.9780 Y9.7138
G01 X19.9727 Y9.7198
G01 X19.9669 Y9.7255
G01 X19.9607 Y9.7307
G01 X19.9541 Y9.7355
G01 X19.9425 Y9.7423
G01 X19.9351 Y9.7456
G01 X19.9275 Y9.7484
G01 X19.9145 Y9.7519
G01 X19.9065 Y9.7532
G01 X19.8984 Y9.7539
G01 X18.7930 Y9.7540
G01 X18.7849 Y9.7537
G01 X18.7769 Y9.7528
G01 X18.7689 Y9.7513
G01 X18.7559 Y9.7476
G01 X18.7484 Y9.7446
G01 X18.7411 Y9.7410
G01 X18.7342 Y9.7369
G01 X18.7275 Y9.7324
G01 X18.7212 Y9.7273
G01 X18.7152 Y9.7218
G01 X18.7063 Y9.7117
G01 X18.7015 Y9.7051
G01 X18.6973 Y9.6982
G01 X18.6914 Y9.6861
G01 X18.6877 Y9.6759
G01 X18.6857 Y9.6681
G01 X18.6842 Y9.6601
G01 X18.6831 Y9.6494
G01 X18.6830 Y9.5081
G01 X17.7369 Y9.5081
G01 X17.7369 Y9.9999
G01 X17.7364 Y10.0107
G01 X17.7342 Y10.0240
G01 X17.7305 Y10.0370
G01 X17.7252 Y10.0494
G01 X17.7184 Y10.0610
G01 X17.7102 Y10.0717
G01 X17.7008 Y10.0814
G01 X17.6902 Y10.0898
G01 X17.6788 Y10.0969
G01 X17.6665 Y10.1025
G01 X17.6536 Y10.1066
G01 X17.6404 Y10.1091
G01 X17.6269 Y10.1099
G01 X16.6651 Y10.1099
G01 X16.6543 Y10.1094
G01 X16.6410 Y10.1072
G01 X16.6306 Y10.1043
G01 X16.6205 Y10.1005
G01 X16.6085 Y10.0943
G01 X16.6018 Y10.0898
G01 X16.5953 Y10.0849
G01 X16.5893 Y10.0796
G01 X16.5836 Y10.0738
G01 X16.5784 Y10.0676
G01 X16.5736 Y10.0610
G01 X16.5694 Y10.0541
G01 X16.5657 Y10.0469
G01 X16.5625 Y10.0395
G01 X16.5598 Y10.0318
G01 X16.5578 Y10.0240
G01 X16.5563 Y10.0160
G01 X16.5551 Y10.0026
G01 X16.5551 Y8.2854
G01 X16.5559 Y8.2746
G01 X16.5578 Y8.2640
G01 X16.5607 Y8.2536
G01 X16.5645 Y8.2435
G01 X16.5694 Y8.2339
G01 X16.5752 Y8.2248
G01 X16.5818 Y8.2163
G01 X16.5893 Y8.2084
G01 X16.5974 Y8.2014
G01 X16.6063 Y8.1952
G01 X16.6156 Y8.1898
G01 X16.6255 Y8.1855
G01 X16.6358 Y8.1821
G01 X16.6463 Y8.1797
G01 X16.6543 Y8.1786
G01 X16.6651 Y8.1781
G00 Z2.0000
G00 X16.6651 Y8.2381
G01 F100.00
G01 Z-0.1000
G01 F100.00
G01 X17.6269 Y8.2381
G01 X17.6330 Y8.2385
G01 X17.6402 Y8.2399
G01 X17.6460 Y8.2419
G01 X17.6526 Y8.2452
G01 X17.6577 Y8.2487
G01 X17.6623 Y8.2527
G01 X17.6663 Y8.2573
G01 X17.6698 Y8.2624
G01 X17.6726 Y8.2678
G01 X17.6747 Y8.2736
G01 X17.6762 Y8.2796
G01 X17.6768 Y8.2856
G01 X17.6769 Y8.8399
G01 X18.7430 Y8.8399
G01 X18.7430 Y8.6440
G01 X18.7437 Y8.6355
G01 X18.7455 Y8.6283
G01 X18.7489 Y8.6204
G01 X18.7536 Y8.6132
G01 X18.7594 Y8.6070
G01 X18.7663 Y8.6018
G01 X18.7727 Y8.5983
G01 X18.7809 Y8.5955
G01 X18.7881 Y8.5942
G01 X19.8930 Y8.5940
G01 X19.9028 Y8.5950
G01 X19.9075 Y8.5962
G01 X19.9133 Y8.5983
G01 X19.9197 Y8.6018
G01 X19.9257 Y8.6061
G01 X19.9309 Y8.6113
G01 X19.9346 Y8.6162
G01 X19.9382 Y8.6226
G01 X19.9408 Y8.6295
G01 X19.9425 Y8.6367
G01 X19.9430 Y8.6428
G01 X19.9430 Y9.6440
G01 X19.9426 Y9.6501
G01 X19.9418 Y9.6550
G01 X19.9387 Y9.6643
G01 X19.9352 Y9.6707
G01 X19.9309 Y9.6767
G01 X19.9257 Y9.6819
G01 X19.9208 Y9.6856
G01 X19.9155 Y9.6887
G01 X19.9087 Y9.6915
G01 X19.9015 Y9.6933
G01 X19.8942 Y9.6940
G01 X18.7881 Y9.6938
G01 X18.7797 Y9.6922
G01 X18.7727 Y9.6897
G01 X18.7663 Y9.6862
G01 X18.7594 Y9.6810
G01 X18.7536 Y9.6748
G01 X18.7489 Y9.6676
G01 X18.7455 Y9.6597
G01 X18.7437 Y9.6525
G01 X18.7430 Y9.6440
G01 X18.7430 Y9.4481
G01 X17.6769 Y9.4481
G01 X17.6768 Y10.0024
G01 X17.6759 Y10.0097
G01 X17.6744 Y10.0156
G01 X17.6721 Y10.0213
G01 X17.6691 Y10.0266
G01 X17.6656 Y10.0316
G01 X17.6614 Y10.0361
G01 X17.6567 Y10.0401
G01 X17.6515 Y10.0434
G01 X17.6460 Y10.0461
G01 X17.6402 Y10.0481
G01 X17.6342 Y10.0494
G01 X17.6269 Y10.0499
G01 X16.6651 Y10.0499
G01 X16.6553 Y10.0489
G01 X16.6494 Y10.0474
G01 X16.6448 Y10.0456
G01 X16.6384 Y10.0421
G01 X16.6324 Y10.0378
G01 X16.6272 Y10.0326
G01 X16.6235 Y10.0277
G01 X16.6204 Y10.0224
G01 X16.6176 Y10.0156
G01 X16.6158 Y10.0084
G01 X16.6151 Y10.0011
G01 X16.6151 Y8.2881
G01 X16.6161 Y8.2783
G01 X16.6189 Y8.2690
G01 X16.6235 Y8.2603
G01 X16.6297 Y8.2527
G01 X16.6373 Y8.2465
G01 X16.6460 Y8.2419
G01 X16.6553 Y8.2391
G01 X16.6651 Y8.2381
G00 Z2.0000
G00 X20.8360 Y4.0110
G01 F100.00
G01 Z-0.1000
G01 F100.00
G01 X21.5059 Y4.0110
G01 X22.6848 Y2.8321
G01 X22.7061 Y2.8129
G01 X22.7280 Y2.7965
G01 X22.7578 Y2.7787
G01 X22.7826 Y2.7670
G01 X22.8107 Y2.7570
G01 X22.8397 Y2.7497
G01 X22.8668 Y2.7456
G01 X22.8990 Y2.7439
G01 X27.8900 Y2.7439
G01 X27.8901 Y2.7287
G01 X27.8910 Y2.7226
G01 X27.8922 Y2.7179
G01 X27.8943 Y2.7121
G01 X27.8971 Y2.7067
G01 X27.9006 Y2.7016
G01 X27.9046 Y2.6970
G01 X28.3519 Y2.2498
G01 X28.3586 Y2.2444
G01 X28.3672 Y2.2398
G01 X28.3766 Y2.2370
G01 X28.3864 Y2.2360
G01 X29.0176 Y2.2360
G01 X29.0225 Y2.2362
G01 X29.0286 Y2.2372
G01 X29.0379 Y2.2403
G01 X29.0454 Y2.2444
G01 X29.0530 Y2.2506
G01 X29.4994 Y2.6970
G01 X29.5049 Y2.7036
G01 X29.5087 Y2.7099
G01 X29.5115 Y2.7167
G01 X29.5135 Y2.7250
G01 X29.5140 Y2.7324
G01 X29.5140 Y3.3636
G01 X29.5130 Y3.3734
G01 X29.5115 Y3.3793
G01 X29.5097 Y3.3839
G01 X29.5049 Y3.3924
G01 X29.4994 Y3.3990
G01 X29.0530 Y3.8454
G01 X29.0464 Y3.8509
G01 X29.0390 Y3.8552
G01 X29.0310 Y3.8582
G01 X29.0225 Y3.8598
G01 X28.3864 Y3.8600
G01 X28.3766 Y3.8590
G01 X28.3719 Y3.8578
G01 X28.3661 Y3.8557
G01 X28.3576 Y3.8509
G01 X28.3510 Y3.8454
G01 X27.9038 Y3.3981
G01 X27.9006 Y3.3944
G01 X27.8971 Y3.3893
G01 X27.8943 Y3.3839
G01 X27.8922 Y3.3781
G01 X27.8910 Y3.3734
G01 X27.8901 Y3.3673
G01 X27.8900 Y3.3521
G01 X23.0250 Y3.3521
G01 X21.8860 Y4.4911
G01 X21.8859 Y5.1635
G01 X21.8848 Y5.1720
G01 X21.8822 Y5.1801
G01 X21.8782 Y5.1877
G01 X21.8730 Y5.1946
G01 X21.8668 Y5.2004
G01 X21.8596 Y5.2051
G01 X21.8517 Y5.2085
G01 X21.8433 Y5.2105
G01 X21.8360 Y5.2110
G01 X20.8348 Y5.2110
G01 X20.8299 Y5.2106
G01 X20.8239 Y5.2095
G01 X20.8180 Y5.2076
G01 X20.8135 Y5.2057
G01 X20.8093 Y5.2032
G01 X20.8043 Y5.1997
G01 X20.7973 Y5.1927
G01 X20.7925 Y5.1856
G01 X20.7889 Y5.1778
G01 X20.7867 Y5.1695
G01 X20.7860 Y5.1610
G01 X20.7860 Y4.0598
G01 X20.7872 Y4.0500
G01 X20.7903 Y4.0407
G01 X20.7944 Y4.0332
G01 X20.8006 Y4.0256
G01 X20.8082 Y4.0194
G01 X20.8169 Y4.0148
G01 X20.8262 Y4.0120
G01 X20.8360 Y4.0110
G00 Z2.0000
G00 X20.8360 Y3.9510
G01 F100.00
G01 Z-0.1000
G01 F100.00
G01 X21.4810 Y3.9510
G01 X22.6454 Y2.7868
G01 X22.6680 Y2.7665
G01 X22.6945 Y2.7468
G01 X22.7227 Y2.7295
G01 X22.7322 Y2.7244
G01 X22.7597 Y2.7116
G01 X22.7933 Y2.6996
G01 X22.8280 Y2.6909
G01 X22.8580 Y2.6863
G01 X22.8687 Y2.6852
G01 X22.8990 Y2.6839
G01 X27.8413 Y2.6839
G01 X27.8457 Y2.6758
G01 X27.8501 Y2.6690
G01 X27.8550 Y2.6626
G01 X27.8622 Y2.6546
G01 X28.3086 Y2.2082
G01 X28.3166 Y2.2010
G01 X28.3253 Y2.1945
G01 X28.3322 Y2.1903
G01 X28.3418 Y2.1854
G01 X28.3519 Y2.1816
G01 X28.3623 Y2.1787
G01 X28.3729 Y2.1768
G01 X28.3837 Y2.1760
G01 X29.0176 Y2.1760
G01 X29.0284 Y2.1765
G01 X29.0391 Y2.1781
G01 X29.0496 Y2.1807
G01 X29.0597 Y2.1844
G01 X29.0695 Y2.1890
G01 X29.0765 Y2.1931
G01 X29.0853 Y2.1993
G01 X29.0935 Y2.2063
G01 X29.5437 Y2.6565
G01 X29.5490 Y2.6626
G01 X29.5539 Y2.6690
G01 X29.5583 Y2.6758
G01 X29.5623 Y2.6829
G01 X29.5656 Y2.6903
G01 X29.5684 Y2.6979
G01 X29.5713 Y2.7083
G01 X29.5728 Y2.7162
G01 X29.5737 Y2.7243
G01 X29.5740 Y2.7324
G01 X29.5740 Y3.3636
G01 X29.5735 Y3.3744
G01 X29.5719 Y3.3851
G01 X29.5693 Y3.3956
G01 X29.5646 Y3.4082
G01 X29.5597 Y3.4178
G01 X29.5539 Y3.4270
G01 X29.5490 Y3.4334
G01 X29.5418 Y3.4414
G01 X29.0935 Y3.8897
G01 X29.0874 Y3.8950
G01 X29.0810 Y3.8999
G01 X29.0718 Y3.9057
G01 X29.0647 Y3.9094
G01 X29.0547 Y3.9136
G01 X29.0470 Y3.9160
G01 X29.0364 Y3.9184
G01 X29.0284 Y3.9195
G01 X29.0176 Y3.9200
G01 X28.3864 Y3.9200
G01 X28.3756 Y3.9195
G01 X28.3649 Y3.9179
G01 X28.3544 Y3.9153
G01 X28.3443 Y3.9116
G01 X28.3345 Y3.9070
G01 X28.3253 Y3.9015
G01 X28.3166 Y3.8950
G01 X28.3086 Y3.8878
G01 X27.8622 Y3.4414
G01 X27.8550 Y3.4334
G01 X27.8501 Y3.4270
G01 X27.8457 Y3.4202
G01 X27.8413 Y3.4121
G01 X23.0498 Y3.4121
G01 X21.9460 Y4.5160
G01 X21.9460 Y5.1610
G01 X21.9452 Y5.1745
G01 X21.9439 Y5.1825
G01 X21.9420 Y5.1903
G01 X21.9396 Y5.1981
G01 X21.9354 Y5.2080
G01 X21.9317 Y5.2152
G01 X21.9275 Y5.2221
G01 X21.9210 Y5.2308
G01 X21.9157 Y5.2368
G01 X21.9099 Y5.2425
G01 X21.9015 Y5.2494
G01 X21.8926 Y5.2554
G01 X21.8855 Y5.2593
G01 X21.8756 Y5.2636
G01 X21.8679 Y5.2663
G01 X21.8601 Y5.2683
G01 X21.8521 Y5.2698
G01 X21.8441 Y5.2707
G01 X21.8360 Y5.2710
G01 X20.8306 Y5.2709
G01 X20.8172 Y5.2694
G01 X20.8067 Y5.2670
G01 X20.7964 Y5.2636
G01 X20.7841 Y5.2580
G01 X20.7749 Y5.2525
G01 X20.7642 Y5.2443
G01 X20.7563 Y5.2368
G01 X20.7493 Y5.2287
G01 X20.7445 Y5.2221
G01 X20.7403 Y5.2152
G01 X20.7366 Y5.2080
G01 X20.7324 Y5.1981
G01 X20.7300 Y5.1903
G01 X20.7276 Y5.1798
G01 X20.7265 Y5.1718
G01 X20.7260 Y5.1637
G01 X20.7260 Y4.0610
G01 X20.7263 Y4.0529
G01 X20.7276 Y4.0422
G01 X20.7300 Y4.0317
G01 X20.7334 Y4.0214
G01 X20.7366 Y4.0140
G01 X20.7416 Y4.0044
G01 X20.7476 Y3.9955
G01 X20.7545 Y3.9871
G01 X20.7621 Y3.9795
G01 X20.7683 Y3.9743
G01 X20.7772 Y3.9681
G01 X20.7865 Y3.9627
G01 X20.7964 Y3.9584
G01 X20.8067 Y3.9550
G01 X20.8172 Y3.9526
G01 X20.8252 Y3.9515
G01 X20.8360 Y3.9510
G00 Z2.0000
G00 X18.4916 Y16.6370
G01 F100.00
G01 Z-0.1000
G01 F100.00
G01 X18.4916 Y15.1130
G01 X18.4955 Y15.0334
G01 X18.5068 Y14.9569
G01 X18.5266 Y14.8772
G01 X18.5545 Y14.7999
G01 X18.5875 Y14.7300
G01 X18.6272 Y14.6637
G01 X18.6760 Y14.5976
G01 X18.7313 Y14.5369
G01 X18.7886 Y14.4850
G01 X18.8507 Y14.4389
G01 X18.9210 Y14.3965
G01 X18.9909 Y14.3635
G01 X18.9999 Y14.3600
G01 X18.9999 Y13.3338
G01 X19.0013 Y13.3052
G01 X19.0057 Y13.2757
G01 X19.0130 Y13.2467
G01 X19.0235 Y13.2175
G01 X19.0358 Y13.1916
G01 X19.0511 Y13.1660
G01 X19.0689 Y13.1421
G01 X19.0889 Y13.1199
G01 X20.7389 Y11.4700
G01 X20.7389 Y9.6940
G01 X20.4930 Y9.6940
G01 X20.4869 Y9.6936
G01 X20.4797 Y9.6922
G01 X20.4727 Y9.6897
G01 X20.4663 Y9.6862
G01 X20.4603 Y9.6819
G01 X20.4551 Y9.6767
G01 X20.4508 Y9.6707
G01 X20.4473 Y9.6643
G01 X20.4448 Y9.6573
G01 X20.4434 Y9.6501
G01 X20.4430 Y9.6440
G01 X20.4430 Y8.6440
G01 X20.4437 Y8.6355
G01 X20.4459 Y8.6272
G01 X20.4495 Y8.6194
G01 X20.4543 Y8.6123
G01 X20.4603 Y8.6061
G01 X20.4673 Y8.6011
G01 X20.4750 Y8.5974
G01 X20.4845 Y8.5947
G01 X20.4930 Y8.5940
G01 X20.7389 Y8.5940
G01 X20.7389 Y6.6028
G01 X20.7403 Y6.5742
G01 X20.7443 Y6.5471
G01 X20.7520 Y6.5157
G01 X20.7630 Y6.4854
G01 X20.7748 Y6.4606
G01 X20.7860 Y6.4418
G01 X20.7860 Y5.7610
G01 X20.7865 Y5.7537
G01 X20.7882 Y5.7465
G01 X20.7913 Y5.7385
G01 X20.7951 Y5.7322
G01 X20.7998 Y5.7265
G01 X20.8062 Y5.7208
G01 X20.8124 Y5.7169
G01 X20.8192 Y5.7139
G01 X20.8262 Y5.7120
G01 X20.8348 Y5.7110
G01 X21.8360 Y5.7110
G01 X21.8433 Y5.7115
G01 X21.8505 Y5.7132
G01 X21.8574 Y5.7158
G01 X21.8648 Y5.7201
G01 X21.8705 Y5.7248
G01 X21.8754 Y5.7302
G01 X21.8795 Y5.7364
G01 X21.8831 Y5.7442
G01 X21.8850 Y5.7512
G01 X21.8860 Y5.7598
G01 X21.8860 Y6.8610
G01 X21.8850 Y6.8708
G01 X21.8822 Y6.8801
G01 X21.8789 Y6.8867
G01 X21.8747 Y6.8927
G01 X21.8705 Y6.8972
G01 X21.8648 Y6.9019
G01 X21.8585 Y6.9057
G01 X21.8517 Y6.9085
G01 X21.8445 Y6.9103
G01 X21.8385 Y6.9109
G01 X21.3471 Y6.9110
G01 X21.3471 Y8.5940
G01 X21.5930 Y8.5940
G01 X21.5991 Y8.5944
G01 X21.6063 Y8.5958
G01 X21.6133 Y8.5983
G01 X21.6197 Y8.6018
G01 X21.6257 Y8.6061
G01 X21.6309 Y8.6113
G01 X21.6352 Y8.6173
G01 X21.6387 Y8.6237
G01 X21.6412 Y8.6307
G01 X21.6426 Y8.6379
G01 X21.6430 Y8.6440
G01 X21.6430 Y9.6440
G01 X21.6423 Y9.6525
G01 X21.6401 Y9.6608
G01 X21.6365 Y9.6686
G01 X21.6317 Y9.6757
G01 X21.6257 Y9.6819
G01 X21.6187 Y9.6869
G01 X21.6110 Y9.6906
G01 X21.6015 Y9.6933
G01 X21.5930 Y9.6940
G01 X21.3471 Y9.6940
G01 X21.3471 Y11.5960
G01 X21.3454 Y11.6282
G01 X21.3413 Y11.6553
G01 X21.3344 Y11.6831
G01 X21.3240 Y11.7124
G01 X21.3100 Y11.7415
G01 X21.2959 Y11.7650
G01 X21.2796 Y11.7870
G01 X21.2589 Y11.8102
G01 X19.6081 Y13.4610
G01 X19.6081 Y14.3600
G01 X19.6171 Y14.3635
G01 X19.6870 Y14.3965
G01 X19.7573 Y14.4389
G01 X19.8194 Y14.4850
G01 X19.8767 Y14.5369
G01 X19.9335 Y14.5996
G01 X19.9795 Y14.6617
G01 X20.0192 Y14.7279
G01 X20.0545 Y14.8021
G01 X20.0821 Y14.8795
G01 X20.1008 Y14.9545
G01 X20.1122 Y15.0309
G01 X20.1164 Y15.1130
G01 X20.1164 Y16.6382
G01 X20.1125 Y16.7166
G01 X20.1012 Y16.7931
G01 X20.0814 Y16.8728
G01 X20.0545 Y16.9479
G01 X20.0205 Y17.0200
G01 X19.9795 Y17.0883
G01 X19.9335 Y17.1504
G01 X19.8784 Y17.2114
G01 X19.8212 Y17.2634
G01 X19.7533 Y17.3138
G01 X19.6870 Y17.3535
G01 X19.6149 Y17.3875
G01 X19.5398 Y17.4144
G01 X19.4625 Y17.4338
G01 X19.3836 Y17.4455
G01 X19.3040 Y17.4494
G01 X19.2244 Y17.4455
G01 X19.1479 Y17.4342
G01 X19.0682 Y17.4144
G01 X18.9954 Y17.3884
G01 X18.9189 Y17.3522
G01 X18.8527 Y17.3125
G01 X18.7886 Y17.2650
G01 X18.7296 Y17.2114
G01 X18.6760 Y17.1524
G01 X18.6285 Y17.0883
G01 X18.5875 Y17.0200
G01 X18.5535 Y16.9479
G01 X18.5274 Y16.8752
G01 X18.5068 Y16.7931
G01 X18.4955 Y16.7166
G01 X18.4916 Y16.6370
G00 Z2.0000
G00 X18.4316 Y16.6370
G01 F100.00
G01 Z-0.1000
G01 F100.00
G01 X18.4316 Y15.1130
G01 X18.4358 Y15.0275
G01 X18.4475 Y14.9481
G01 X18.4496 Y14.9375
G01 X18.4692 Y14.8598
G01 X18.4961 Y14.7842
G01 X18.5002 Y14.7742
G01 X18.5346 Y14.7018
G01 X18.5758 Y14.6329
G01 X18.5818 Y14.6239
G01 X18.6280 Y14.5617
G01 X18.6332 Y14.5555
G01 X18.6871 Y14.4961
G01 X18.7465 Y14.4422
G01 X18.7527 Y14.4370
G01 X18.8149 Y14.3908
G01 X18.8216 Y14.3862
G01 X18.8928 Y14.3436
G01 X18.9399 Y14.3212
G01 X18.9399 Y13.3323
G01 X18.9416 Y13.2993
G01 X18.9469 Y13.2640
G01 X18.9556 Y13.2293
G01 X18.9656 Y13.2007
G01 X18.9687 Y13.1932
G01 X18.9829 Y13.1634
G01 X19.0012 Y13.1327
G01 X19.0225 Y13.1040
G01 X19.0465 Y13.0775
G01 X20.6789 Y11.4452
G01 X20.6789 Y9.7540
G01 X20.4903 Y9.7540
G01 X20.4769 Y9.7528
G01 X20.4637 Y9.7500
G01 X20.4509 Y9.7456
G01 X20.4435 Y9.7423
G01 X20.4364 Y9.7384
G01 X20.4253 Y9.7307
G01 X20.4152 Y9.7218
G01 X20.4063 Y9.7117
G01 X20.3986 Y9.7006
G01 X20.3924 Y9.6886
G01 X20.3894 Y9.6811
G01 X20.3870 Y9.6733
G01 X20.3842 Y9.6601
G01 X20.3833 Y9.6521
G01 X20.3830 Y9.6440
G01 X20.3830 Y8.6440
G01 X20.3833 Y8.6359
G01 X20.3842 Y8.6279
G01 X20.3857 Y8.6199
G01 X20.3877 Y8.6121
G01 X20.3904 Y8.6044
G01 X20.3947 Y8.5945
G01 X20.3986 Y8.5874
G01 X20.4031 Y8.5807
G01 X20.4080 Y8.5742
G01 X20.4133 Y8.5682
G01 X20.4191 Y8.5625
G01 X20.4253 Y8.5573
G01 X20.4319 Y8.5525
G01 X20.4388 Y8.5483
G01 X20.4460 Y8.5446
G01 X20.4534 Y8.5414
G01 X20.4611 Y8.5387
G01 X20.4715 Y8.5361
G01 X20.4822 Y8.5345
G01 X20.4903 Y8.5340
G01 X20.6789 Y8.5340
G01 X20.6789 Y6.6013
G01 X20.6804 Y6.5710
G01 X20.6813 Y6.5630
G01 X20.6859 Y6.5330
G01 X20.6938 Y6.5009
G01 X20.6962 Y6.4932
G01 X20.7066 Y6.4647
G01 X20.7206 Y6.4347
G01 X20.7260 Y6.4252
G01 X20.7260 Y5.7610
G01 X20.7263 Y5.7529
G01 X20.7272 Y5.7449
G01 X20.7287 Y5.7369
G01 X20.7307 Y5.7291
G01 X20.7334 Y5.7214
G01 X20.7366 Y5.7140
G01 X20.7403 Y5.7068
G01 X20.7445 Y5.6999
G01 X20.7493 Y5.6933
G01 X20.7545 Y5.6871
G01 X20.7602 Y5.6813
G01 X20.7683 Y5.6743
G01 X20.7749 Y5.6695
G01 X20.7818 Y5.6653
G01 X20.7890 Y5.6616
G01 X20.7964 Y5.6584
G01 X20.8041 Y5.6557
G01 X20.8119 Y5.6537
G01 X20.8199 Y5.6522
G01 X20.8279 Y5.6513
G01 X20.8360 Y5.6510
G01 X21.8360 Y5.6510
G01 X21.8441 Y5.6513
G01 X21.8521 Y5.6522
G01 X21.8601 Y5.6537
G01 X21.8679 Y5.6557
G01 X21.8756 Y5.6584
G01 X21.8830 Y5.6616
G01 X21.8902 Y5.6653
G01 X21.8971 Y5.6695
G01 X21.9058 Y5.6760
G01 X21.9118 Y5.6813
G01 X21.9175 Y5.6871
G01 X21.9227 Y5.6933
G01 X21.9275 Y5.6999
G01 X21.9330 Y5.7091
G01 X21.9366 Y5.7164
G01 X21.9396 Y5.7239
G01 X21.9420 Y5.7317
G01 X21.9439 Y5.7395
G01 X21.9452 Y5.7475
G01 X21.9459 Y5.7556
G01 X21.9460 Y6.8610
G01 X21.9455 Y6.8718
G01 X21.9444 Y6.8798
G01 X21.9427 Y6.8877
G01 X21.9396 Y6.8981
G01 X21.9343 Y6.9105
G01 X21.9304 Y6.9176
G01 X21.9259 Y6.9243
G01 X21.9210 Y6.9308
G01 X21.9157 Y6.9368
G01 X21.9058 Y6.9460
G01 X21.8993 Y6.9509
G01 X21.8926 Y6.9554
G01 X21.8806 Y6.9616
G01 X21.8679 Y6.9663
G01 X21.8601 Y6.9683
G01 X21.8521 Y6.9698
G01 X21.8441 Y6.9707
G01 X21.8360 Y6.9710
G01 X21.4071 Y6.9710
G01 X21.4071 Y8.5340
G01 X21.5957 Y8.5340
G01 X21.6091 Y8.5352
G01 X21.6223 Y8.5380
G01 X21.6351 Y8.5424
G01 X21.6425 Y8.5457
G01 X21.6496 Y8.5496
G01 X21.6607 Y8.5573
G01 X21.6708 Y8.5662
G01 X21.6797 Y8.5763
G01 X21.6874 Y8.5874
G01 X21.6913 Y8.5945
G01 X21.6946 Y8.6019
G01 X21.6990 Y8.6147
G01 X21.7018 Y8.6279
G01 X21.7027 Y8.6359
G01 X21.7030 Y8.6440
G01 X21.7030 Y9.6440
G01 X21.7027 Y9.6521
G01 X21.7018 Y9.6601
G01 X21.7003 Y9.6681
G01 X21.6983 Y9.6759
G01 X21.6956 Y9.6836
G01 X21.6913 Y9.6935
G01 X21.6874 Y9.7006
G01 X21.6829 Y9.7073
G01 X21.6780 Y9.7138
G01 X21.6727 Y9.7198
G01 X21.6669 Y9.7255
G01 X21.6607 Y9.7307
G01 X21.6541 Y9.7355
G01 X21.6472 Y9.7397
G01 X21.6400 Y9.7434
G01 X21.6326 Y9.7466
G01 X21.6249 Y9.7493
G01 X21.6145 Y9.7519
G01 X21.6038 Y9.7535
G01 X21.5957 Y9.7540
G01 X21.4071 Y9.7540
G01 X21.4071 Y11.5960
G01 X21.4058 Y11.6263
G01 X21.4047 Y11.6370
G01 X21.4001 Y11.6670
G01 X21.3922 Y11.6991
G01 X21.3898 Y11.7068
G01 X21.3794 Y11.7353
G01 X21.3666 Y11.7628
G01 X21.3615 Y11.7723
G01 X21.3458 Y11.7983
G01 X21.3278 Y11.8227
G01 X21.3227 Y11.8291
G01 X21.3024 Y11.8515
G01 X19.6681 Y13.4858
G01 X19.6681 Y14.3212
G01 X19.7152 Y14.3436
G01 X19.7864 Y14.3862
G01 X19.7931 Y14.3908
G01 X19.8532 Y14.4353
G01 X19.8595 Y14.4404
G01 X19.9209 Y14.4961
G01 X19.9748 Y14.5555
G01 X19.9817 Y14.5638
G01 X20.0278 Y14.6261
G01 X20.0322 Y14.6329
G01 X20.0734 Y14.7018
G01 X20.1078 Y14.7742
G01 X20.1119 Y14.7842
G01 X20.1388 Y14.8598
G01 X20.1584 Y14.9375
G01 X20.1605 Y14.9481
G01 X20.1715 Y15.0221
G01 X20.1726 Y15.0329
G01 X20.1764 Y15.1130
G01 X20.1763 Y16.6397
G01 X20.1722 Y16.7225
G01 X20.1605 Y16.8019
G01 X20.1584 Y16.8125
G01 X20.1388 Y16.8902
G01 X20.1100 Y16.9708
G01 X20.0734 Y17.0482
G01 X20.0294 Y17.1217
G01 X19.9817 Y17.1862
G01 X19.9748 Y17.1945
G01 X19.9209 Y17.2539
G01 X19.8615 Y17.3078
G01 X19.8532 Y17.3147
G01 X19.7931 Y17.3592
G01 X19.7841 Y17.3652
G01 X19.7152 Y17.4064
G01 X19.6378 Y17.4430
G01 X19.5572 Y17.4718
G01 X19.4742 Y17.4926
G01 X19.3895 Y17.5052
G01 X19.3040 Y17.5094
G01 X19.2185 Y17.5052
G01 X19.1391 Y17.4935
G01 X19.1285 Y17.4914
G01 X19.0508 Y17.4718
G01 X18.9752 Y17.4449
G01 X18.9652 Y17.4408
G01 X18.8976 Y17.4088
G01 X18.8881 Y17.4037
G01 X18.8193 Y17.3624
G01 X18.7506 Y17.3114
G01 X18.6871 Y17.2539
G01 X18.6296 Y17.1904
G01 X18.5786 Y17.1217
G01 X18.5346 Y17.0482
G01 X18.4980 Y16.9708
G01 X18.4709 Y16.8954
G01 X18.4677 Y16.8850
G01 X18.4496 Y16.8125
G01 X18.4475 Y16.8019
G01 X18.4358 Y16.7225
G01 X18.4316 Y16.6370
G00 Z2.0000
G00 X13.4116 Y16.6370
G01 F100.00
G01 Z-0.1000
G01 F100.00
G01 X13.4116 Y15.1130
G01 X13.4155 Y15.0334
G01 X13.4275 Y14.9533
G01 X13.4474 Y14.8748
G01 X13.4735 Y14.8021
G01 X13.5064 Y14.7322
G01 X13.5485 Y14.6617
G01 X13.5960 Y14.5976
G01 X13.6513 Y14.5369
G01 X13.7086 Y14.4850
G01 X13.7707 Y14.4389
G01 X13.8410 Y14.3965
G01 X13.9109 Y14.3635
G01 X13.9199 Y14.3600
G01 X13.9199 Y10.0499
G01 X13.6151 Y10.0499
G01 X13.6078 Y10.0494
G01 X13.5994 Y10.0474
G01 X13.5915 Y10.0440
G01 X13.5843 Y10.0393
G01 X13.5781 Y10.0335
G01 X13.5722 Y10.0256
G01 X13.5685 Y10.0179
G01 X13.5661 Y10.0097
G01 X13.5651 Y10.0011
G01 X13.5652 Y8.2844
G01 X13.5666 Y8.2760
G01 X13.5689 Y8.2690
G01 X13.5729 Y8.2614
G01 X13.5772 Y8.2554
G01 X13.5834 Y8.2494
G01 X13.5894 Y8.2452
G01 X13.5971 Y8.2415
G01 X13.6053 Y8.2391
G01 X13.6151 Y8.2381
G01 X13.7919 Y8.2381
G01 X13.7919 Y6.7710
G01 X13.7933 Y6.7412
G01 X13.7975 Y6.7129
G01 X13.8050 Y6.6827
G01 X13.8160 Y6.6524
G01 X13.8278 Y6.6276
G01 X13.8418 Y6.6041
G01 X13.8617 Y6.5771
G01 X13.8809 Y6.5559
G01 X14.2980 Y6.1389
G01 X14.2980 Y5.4678
G01 X14.2984 Y5.4629
G01 X14.2995 Y5.4569
G01 X14.3009 Y5.4522
G01 X14.3033 Y5.4465
G01 X14.3064 Y5.4412
G01 X14.3093 Y5.4373
G01 X14.3126 Y5.4336
G01 X14.3172 Y5.4296
G01 X14.3244 Y5.4249
G01 X14.3312 Y5.4219
G01 X14.3395 Y5.4197
G01 X14.3480 Y5.4190
G01 X15.4480 Y5.4190
G01 X15.4565 Y5.4197
G01 X15.4648 Y5.4219
G01 X15.4726 Y5.4255
G01 X15.4797 Y5.4303
G01 X15.4859 Y5.4363
G01 X15.4909 Y5.4433
G01 X15.4946 Y5.4510
G01 X15.4970 Y5.4592
G01 X15.4980 Y5.4678
G01 X15.4980 Y6.4690
G01 X15.4973 Y6.4775
G01 X15.4955 Y6.4847
G01 X15.4927 Y6.4915
G01 X15.4889 Y6.4978
G01 X15.4850 Y6.5026
G01 X15.4816 Y6.5060
G01 X15.4768 Y6.5099
G01 X15.4716 Y6.5131
G01 X15.4660 Y6.5156
G01 X15.4601 Y6.5175
G01 X15.4541 Y6.5186
G01 X15.4492 Y6.5190
G01 X14.7781 Y6.5190
G01 X14.4001 Y6.8970
G01 X14.4001 Y8.2381
G01 X14.5769 Y8.2381
G01 X14.5830 Y8.2385
G01 X14.5879 Y8.2393
G01 X14.5960 Y8.2419
G01 X14.6036 Y8.2459
G01 X14.6105 Y8.2511
G01 X14.6156 Y8.2564
G01 X14.6204 Y8.2635
G01 X14.6240 Y8.2713
G01 X14.6259 Y8.2783
G01 X14.6269 Y8.2869
G01 X14.6268 Y10.0024
G01 X14.6259 Y10.0097
G01 X14.6244 Y10.0156
G01 X14.6221 Y10.0213
G01 X14.6185 Y10.0277
G01 X14.6139 Y10.0335
G01 X14.6096 Y10.0378
G01 X14.6036 Y10.0421
G01 X14.5983 Y10.0451
G01 X14.5890 Y10.0484
G01 X14.5806 Y10.0498
G01 X14.5281 Y10.0499
G01 X14.5281 Y14.3600
G01 X14.5371 Y14.3635
G01 X14.6070 Y14.3965
G01 X14.6773 Y14.4389
G01 X14.7394 Y14.4850
G01 X14.7967 Y14.5369
G01 X14.8520 Y14.5976
G01 X14.9008 Y14.6637
G01 X14.9405 Y14.7300
G01 X14.9735 Y14.7999
G01 X15.0014 Y14.8772
G01 X15.0208 Y14.9545
G01 X15.0325 Y15.0334
G01 X15.0364 Y15.1130
G01 X15.0364 Y16.6370
G01 X15.0325 Y16.7166
G01 X15.0210 Y16.7943
G01 X15.0014 Y16.8728
G01 X14.9745 Y16.9479
G01 X14.9405 Y17.0200
G01 X14.9008 Y17.0863
G01 X14.8520 Y17.1524
G01 X14.8001 Y17.2097
G01 X14.7374 Y17.2665
G01 X14.6753 Y17.3125
G01 X14.6070 Y17.3535
G01 X14.5349 Y17.3875
G01 X14.4598 Y17.4144
G01 X14.3825 Y17.4338
G01 X14.3036 Y17.4455
G01 X14.2240 Y17.4494
G01 X14.1444 Y17.4455
G01 X14.0655 Y17.4338
G01 X13.9882 Y17.4144
G01 X13.9131 Y17.3875
G01 X13.8410 Y17.3535
G01 X13.7727 Y17.3125
G01 X13.7086 Y17.2650
G01 X13.6496 Y17.2114
G01 X13.5976 Y17.1542
G01 X13.5485 Y17.0883
G01 X13.5088 Y17.0221
G01 X13.4726 Y16.9456
G01 X13.4466 Y16.8728
G01 X13.4272 Y16.7955
G01 X13.4155 Y16.7166
G01 X13.4116 Y16.6370
G00 Z2.0000
M05
G00 Z2.0000
G00 Z15.00


