(G-CODE GENERATED BY FLATCAM v8.994 - www.flatcam.org - Version Date: 2020/11/7)

(Name: copper_top.gbr_iso_combined_1_cnc)
(Type: G-code from Geometry)
(Units: MM)

(Created on Friday, 10 June 2022 at 14:17)

(This preprocessor is the default preprocessor used by FlatCAM.)
(It is made to work with MACH3 compatible motion controllers.)

(TOOL DIAMETER: 0.25 mm)
(Feedrate_XY: 80.0 mm/min)
(Feedrate_Z: 60.0 mm/min)
(Feedrate rapids 1500.0 mm/min)

(Z_Cut: -0.04 mm)
(Z_Move: 2.0 mm)
(Z Start: None mm)
(Z End: 15.0 mm)
(X,Y End: None mm)
(Steps per circle: 64)
(Preprocessor Geometry: default)

(X range:    5.5420 ...   29.7640  mm)
(Y range:    1.8590 ...   17.6994  mm)

(Spindle Speed: 1000.0 RPM)
G21
G90
G94

G01 F80.00

G00 Z15.0000

M03 S1000.0
G01 F80.00
G00 X5.5420 Y3.2366
G01 F60.00
G01 Z-0.0400
G01 F80.00
G01 X5.5420 Y2.6054
G01 X5.5424 Y2.5907
G01 X5.5434 Y2.5760
G01 X5.5452 Y2.5614
G01 X5.5478 Y2.5468
G01 X5.5529 Y2.5254
G01 X5.5595 Y2.5043
G01 X5.5648 Y2.4906
G01 X5.5708 Y2.4771
G01 X5.5774 Y2.4640
G01 X5.5885 Y2.4449
G01 X5.6010 Y2.4267
G01 X5.6101 Y2.4151
G01 X5.6247 Y2.3985
G01 X6.0762 Y1.9469
G01 X6.0869 Y1.9367
G01 X6.1038 Y1.9225
G01 X6.1156 Y1.9137
G01 X6.1279 Y1.9055
G01 X6.1470 Y1.8944
G01 X6.1668 Y1.8847
G01 X6.1873 Y1.8765
G01 X6.2013 Y1.8719
G01 X6.2155 Y1.8680
G01 X6.2371 Y1.8634
G01 X6.2590 Y1.8604
G01 X6.2737 Y1.8594
G01 X6.2884 Y1.8590
G01 X6.9270 Y1.8591
G01 X6.9490 Y1.8604
G01 X6.9636 Y1.8622
G01 X6.9782 Y1.8648
G01 X6.9925 Y1.8680
G01 X7.0067 Y1.8719
G01 X7.0276 Y1.8791
G01 X7.0412 Y1.8847
G01 X7.0545 Y1.8910
G01 X7.0675 Y1.8980
G01 X7.0801 Y1.9055
G01 X7.0924 Y1.9137
G01 X7.1042 Y1.9225
G01 X7.1156 Y1.9318
G01 X7.1265 Y1.9417
G01 X7.5518 Y2.3669
G01 X14.3510 Y2.3669
G01 X14.3906 Y2.3685
G01 X14.4126 Y2.3704
G01 X14.4446 Y2.3750
G01 X14.4591 Y2.3775
G01 X14.4735 Y2.3807
G01 X14.5119 Y2.3907
G01 X14.5493 Y2.4038
G01 X14.5631 Y2.4091
G01 X14.5991 Y2.4257
G01 X14.6122 Y2.4323
G01 X14.6250 Y2.4396
G01 X14.6527 Y2.4562
G01 X14.6649 Y2.4644
G01 X14.6909 Y2.4836
G01 X14.7025 Y2.4927
G01 X14.7137 Y2.5023
G01 X14.7376 Y2.5240
G01 X16.9018 Y4.6882
G01 X16.9120 Y4.6988
G01 X16.9383 Y4.7285
G01 X16.9474 Y4.7401
G01 X16.9707 Y4.7721
G01 X16.9914 Y4.8060
G01 X16.9987 Y4.8188
G01 X17.0053 Y4.8319
G01 X17.0219 Y4.8679
G01 X17.0356 Y4.9052
G01 X17.0423 Y4.9262
G01 X17.0503 Y4.9575
G01 X17.0535 Y4.9719
G01 X17.0560 Y4.9864
G01 X17.0615 Y5.0257
G01 X17.0625 Y5.0404
G01 X17.0640 Y5.0726
G01 X17.0641 Y5.1690
G01 X17.1554 Y5.1691
G01 X17.1774 Y5.1704
G01 X17.1993 Y5.1734
G01 X17.2137 Y5.1763
G01 X17.2280 Y5.1799
G01 X17.2421 Y5.1841
G01 X17.2560 Y5.1891
G01 X17.2696 Y5.1947
G01 X17.2829 Y5.2010
G01 X17.3022 Y5.2117
G01 X17.3147 Y5.2196
G01 X17.3267 Y5.2280
G01 X17.3383 Y5.2371
G01 X17.3495 Y5.2467
G01 X17.3601 Y5.2569
G01 X17.3703 Y5.2675
G01 X17.3799 Y5.2787
G01 X17.3890 Y5.2903
G01 X17.3974 Y5.3023
G01 X17.4053 Y5.3148
G01 X17.4126 Y5.3276
G01 X17.4192 Y5.3407
G01 X17.4252 Y5.3542
G01 X17.4305 Y5.3679
G01 X17.4371 Y5.3890
G01 X17.4422 Y5.4105
G01 X17.4448 Y5.4250
G01 X17.4472 Y5.4469
G01 X17.4480 Y5.4690
G01 X17.4480 Y6.4690
G01 X17.4472 Y6.4911
G01 X17.4457 Y6.5057
G01 X17.4436 Y6.5203
G01 X17.4390 Y6.5419
G01 X17.4351 Y6.5561
G01 X17.4279 Y6.5770
G01 X17.4192 Y6.5973
G01 X17.4126 Y6.6104
G01 X17.4015 Y6.6295
G01 X17.3933 Y6.6417
G01 X17.3799 Y6.6593
G01 X17.3703 Y6.6705
G01 X17.3549 Y6.6863
G01 X17.3383 Y6.7009
G01 X17.3267 Y6.7100
G01 X17.3085 Y6.7225
G01 X17.2894 Y6.7336
G01 X17.2763 Y6.7402
G01 X17.2628 Y6.7462
G01 X17.2491 Y6.7515
G01 X17.2351 Y6.7561
G01 X17.2209 Y6.7600
G01 X17.2065 Y6.7632
G01 X17.1920 Y6.7658
G01 X17.1774 Y6.7676
G01 X17.1627 Y6.7686
G01 X17.1480 Y6.7690
G01 X16.5817 Y6.7690
G01 X16.3021 Y7.0485
G01 X16.3021 Y10.4385
G01 X17.1558 Y11.2922
G01 X17.1660 Y11.3028
G01 X17.1876 Y11.3268
G01 X17.2014 Y11.3441
G01 X17.2247 Y11.3761
G01 X17.2326 Y11.3886
G01 X17.2491 Y11.4163
G01 X17.2593 Y11.4359
G01 X17.2759 Y11.4719
G01 X17.2812 Y11.4857
G01 X17.2920 Y11.5161
G01 X17.2982 Y11.5373
G01 X17.3060 Y11.5687
G01 X17.3088 Y11.5831
G01 X17.3137 Y11.6151
G01 X17.3155 Y11.6297
G01 X17.3165 Y11.6444
G01 X17.3181 Y11.6840
G01 X17.3181 Y14.2076
G01 X17.3481 Y14.2256
G01 X17.3603 Y14.2338
G01 X17.4322 Y14.2872
G01 X17.4491 Y14.3014
G01 X17.5046 Y14.3516
G01 X17.5204 Y14.3671
G01 X17.5756 Y14.4279
G01 X17.5852 Y14.4390
G01 X17.5943 Y14.4506
G01 X17.6389 Y14.5107
G01 X17.6473 Y14.5228
G01 X17.6552 Y14.5352
G01 X17.6974 Y14.6057
G01 X17.7076 Y14.6253
G01 X17.7395 Y14.6930
G01 X17.7455 Y14.7064
G01 X17.7508 Y14.7202
G01 X17.7760 Y14.7906
G01 X17.7806 Y14.8046
G01 X17.7846 Y14.8188
G01 X17.8027 Y14.8914
G01 X17.8060 Y14.9057
G01 X17.8085 Y14.9202
G01 X17.8195 Y14.9943
G01 X17.8213 Y15.0089
G01 X17.8223 Y15.0236
G01 X17.8263 Y15.1056
G01 X17.8264 Y16.6370
G01 X17.8260 Y16.6517
G01 X17.8223 Y16.7264
G01 X17.8213 Y16.7411
G01 X17.8195 Y16.7557
G01 X17.8073 Y16.8370
G01 X17.8027 Y16.8586
G01 X17.7846 Y16.9312
G01 X17.7806 Y16.9454
G01 X17.7760 Y16.9594
G01 X17.7508 Y17.0298
G01 X17.7455 Y17.0436
G01 X17.7395 Y17.0570
G01 X17.7043 Y17.1313
G01 X17.6937 Y17.1506
G01 X17.6552 Y17.2148
G01 X17.6473 Y17.2272
G01 X17.6389 Y17.2393
G01 X17.5943 Y17.2994
G01 X17.5852 Y17.3110
G01 X17.5756 Y17.3221
G01 X17.5254 Y17.3776
G01 X17.5152 Y17.3882
G01 X17.5046 Y17.3984
G01 X17.4491 Y17.4486
G01 X17.4380 Y17.4582
G01 X17.4264 Y17.4673
G01 X17.3663 Y17.5119
G01 X17.3542 Y17.5203
G01 X17.3418 Y17.5282
G01 X17.2776 Y17.5667
G01 X17.2648 Y17.5739
G01 X17.2517 Y17.5806
G01 X17.1840 Y17.6125
G01 X17.1706 Y17.6185
G01 X17.1568 Y17.6238
G01 X17.0864 Y17.6490
G01 X17.0724 Y17.6536
G01 X17.0582 Y17.6576
G01 X16.9856 Y17.6757
G01 X16.9713 Y17.6790
G01 X16.9568 Y17.6815
G01 X16.8827 Y17.6925
G01 X16.8681 Y17.6943
G01 X16.8534 Y17.6953
G01 X16.7787 Y17.6990
G01 X16.7640 Y17.6994
G01 X16.7493 Y17.6990
G01 X16.6746 Y17.6953
G01 X16.6599 Y17.6943
G01 X16.6453 Y17.6925
G01 X16.5712 Y17.6815
G01 X16.5567 Y17.6790
G01 X16.5424 Y17.6757
G01 X16.4698 Y17.6576
G01 X16.4556 Y17.6536
G01 X16.4416 Y17.6490
G01 X16.3712 Y17.6238
G01 X16.3574 Y17.6185
G01 X16.3440 Y17.6125
G01 X16.2763 Y17.5806
G01 X16.2632 Y17.5739
G01 X16.2504 Y17.5667
G01 X16.1862 Y17.5282
G01 X16.1738 Y17.5203
G01 X16.1617 Y17.5119
G01 X16.1016 Y17.4673
G01 X16.0900 Y17.4582
G01 X16.0789 Y17.4486
G01 X16.0234 Y17.3984
G01 X16.0128 Y17.3882
G01 X16.0026 Y17.3776
G01 X15.9524 Y17.3221
G01 X15.9428 Y17.3110
G01 X15.9337 Y17.2994
G01 X15.8891 Y17.2393
G01 X15.8807 Y17.2272
G01 X15.8728 Y17.2148
G01 X15.8343 Y17.1506
G01 X15.8271 Y17.1378
G01 X15.8204 Y17.1247
G01 X15.7885 Y17.0570
G01 X15.7825 Y17.0436
G01 X15.7772 Y17.0298
G01 X15.7520 Y16.9594
G01 X15.7474 Y16.9454
G01 X15.7434 Y16.9312
G01 X15.7253 Y16.8586
G01 X15.7220 Y16.8443
G01 X15.7195 Y16.8298
G01 X15.7085 Y16.7557
G01 X15.7067 Y16.7411
G01 X15.7057 Y16.7264
G01 X15.7020 Y16.6517
G01 X15.7016 Y16.6370
G01 X15.7016 Y15.1130
G01 X15.7020 Y15.0983
G01 X15.7057 Y15.0236
G01 X15.7067 Y15.0089
G01 X15.7085 Y14.9943
G01 X15.7207 Y14.9130
G01 X15.7253 Y14.8914
G01 X15.7434 Y14.8188
G01 X15.7474 Y14.8046
G01 X15.7520 Y14.7906
G01 X15.7772 Y14.7202
G01 X15.7825 Y14.7064
G01 X15.7885 Y14.6930
G01 X15.8204 Y14.6253
G01 X15.8271 Y14.6122
G01 X15.8343 Y14.5994
G01 X15.8728 Y14.5352
G01 X15.8848 Y14.5167
G01 X15.9337 Y14.4506
G01 X15.9428 Y14.4390
G01 X15.9524 Y14.4279
G01 X16.0026 Y14.3724
G01 X16.0181 Y14.3566
G01 X16.0789 Y14.3014
G01 X16.0958 Y14.2872
G01 X16.1677 Y14.2338
G01 X16.1799 Y14.2256
G01 X16.2099 Y14.2076
G01 X16.2099 Y11.9135
G01 X15.3562 Y11.0598
G01 X15.3460 Y11.0492
G01 X15.3244 Y11.0252
G01 X15.3106 Y11.0079
G01 X15.2873 Y10.9759
G01 X15.2794 Y10.9634
G01 X15.2629 Y10.9357
G01 X15.2527 Y10.9161
G01 X15.2361 Y10.8801
G01 X15.2224 Y10.8428
G01 X15.2157 Y10.8218
G01 X15.2077 Y10.7905
G01 X15.2045 Y10.7761
G01 X15.2020 Y10.7616
G01 X15.1965 Y10.7223
G01 X15.1942 Y10.6827
G01 X15.1939 Y10.6680
G01 X15.1939 Y6.8190
G01 X15.1942 Y6.8043
G01 X15.1962 Y6.7690
G01 X14.8817 Y6.7690
G01 X14.6501 Y7.0005
G01 X14.6501 Y7.9972
G01 X14.6640 Y8.0010
G01 X14.6780 Y8.0056
G01 X14.6985 Y8.0138
G01 X14.7183 Y8.0235
G01 X14.7311 Y8.0308
G01 X14.7436 Y8.0387
G01 X14.7615 Y8.0516
G01 X14.7784 Y8.0658
G01 X14.7942 Y8.0812
G01 X14.8041 Y8.0921
G01 X14.8134 Y8.1035
G01 X14.8263 Y8.1214
G01 X14.8379 Y8.1402
G01 X14.8481 Y8.1598
G01 X14.8541 Y8.1733
G01 X14.8594 Y8.1870
G01 X14.8660 Y8.2081
G01 X14.8696 Y8.2224
G01 X14.8725 Y8.2368
G01 X14.8755 Y8.2587
G01 X14.8768 Y8.2807
G01 X14.8769 Y9.9999
G01 X14.8765 Y10.0146
G01 X14.8755 Y10.0293
G01 X14.8737 Y10.0439
G01 X14.8711 Y10.0584
G01 X14.8679 Y10.0728
G01 X14.8640 Y10.0870
G01 X14.8594 Y10.1010
G01 X14.8541 Y10.1147
G01 X14.8481 Y10.1282
G01 X14.8415 Y10.1413
G01 X14.8342 Y10.1541
G01 X14.8263 Y10.1666
G01 X14.8179 Y10.1786
G01 X14.8088 Y10.1902
G01 X14.7992 Y10.2014
G01 X14.7890 Y10.2120
G01 X14.7781 Y10.2224
G01 X14.7781 Y14.2076
G01 X14.8081 Y14.2256
G01 X14.8203 Y14.2338
G01 X14.8922 Y14.2872
G01 X14.9091 Y14.3014
G01 X14.9699 Y14.3566
G01 X14.9854 Y14.3724
G01 X15.0356 Y14.4279
G01 X15.0452 Y14.4390
G01 X15.0543 Y14.4506
G01 X15.1032 Y14.5167
G01 X15.1152 Y14.5352
G01 X15.1537 Y14.5994
G01 X15.1609 Y14.6122
G01 X15.1676 Y14.6253
G01 X15.1995 Y14.6930
G01 X15.2055 Y14.7064
G01 X15.2108 Y14.7202
G01 X15.2360 Y14.7906
G01 X15.2406 Y14.8046
G01 X15.2446 Y14.8188
G01 X15.2627 Y14.8914
G01 X15.2673 Y14.9130
G01 X15.2795 Y14.9943
G01 X15.2813 Y15.0089
G01 X15.2823 Y15.0236
G01 X15.2860 Y15.0983
G01 X15.2864 Y15.1130
G01 X15.2864 Y16.6370
G01 X15.2860 Y16.6517
G01 X15.2823 Y16.7264
G01 X15.2813 Y16.7411
G01 X15.2795 Y16.7557
G01 X15.2685 Y16.8298
G01 X15.2660 Y16.8443
G01 X15.2627 Y16.8586
G01 X15.2446 Y16.9312
G01 X15.2406 Y16.9454
G01 X15.2360 Y16.9594
G01 X15.2108 Y17.0298
G01 X15.2026 Y17.0503
G01 X15.1676 Y17.1247
G01 X15.1609 Y17.1378
G01 X15.1537 Y17.1506
G01 X15.1152 Y17.2148
G01 X15.1073 Y17.2272
G01 X15.0989 Y17.2393
G01 X15.0543 Y17.2994
G01 X15.0452 Y17.3110
G01 X15.0356 Y17.3221
G01 X14.9854 Y17.3776
G01 X14.9752 Y17.3882
G01 X14.9646 Y17.3984
G01 X14.9091 Y17.4486
G01 X14.8980 Y17.4582
G01 X14.8864 Y17.4673
G01 X14.8263 Y17.5119
G01 X14.8142 Y17.5203
G01 X14.8018 Y17.5282
G01 X14.7376 Y17.5667
G01 X14.7248 Y17.5739
G01 X14.7117 Y17.5806
G01 X14.6440 Y17.6125
G01 X14.6306 Y17.6185
G01 X14.6168 Y17.6238
G01 X14.5464 Y17.6490
G01 X14.5253 Y17.6557
G01 X14.4456 Y17.6757
G01 X14.4313 Y17.6790
G01 X14.4168 Y17.6815
G01 X14.3427 Y17.6925
G01 X14.3208 Y17.6949
G01 X14.2387 Y17.6990
G01 X14.2240 Y17.6994
G01 X14.2093 Y17.6990
G01 X14.1346 Y17.6953
G01 X14.1199 Y17.6943
G01 X14.1053 Y17.6925
G01 X14.0312 Y17.6815
G01 X14.0167 Y17.6790
G01 X14.0024 Y17.6757
G01 X13.9298 Y17.6576
G01 X13.9156 Y17.6536
G01 X13.9016 Y17.6490
G01 X13.8312 Y17.6238
G01 X13.8174 Y17.6185
G01 X13.8040 Y17.6125
G01 X13.7363 Y17.5806
G01 X13.7232 Y17.5739
G01 X13.7104 Y17.5667
G01 X13.6462 Y17.5282
G01 X13.6338 Y17.5203
G01 X13.6217 Y17.5119
G01 X13.5616 Y17.4673
G01 X13.5500 Y17.4582
G01 X13.5389 Y17.4486
G01 X13.4834 Y17.3984
G01 X13.4728 Y17.3882
G01 X13.4626 Y17.3776
G01 X13.4075 Y17.3166
G01 X13.3937 Y17.2994
G01 X13.3491 Y17.2393
G01 X13.3366 Y17.2211
G01 X13.2943 Y17.1506
G01 X13.2871 Y17.1378
G01 X13.2804 Y17.1247
G01 X13.2485 Y17.0570
G01 X13.2425 Y17.0436
G01 X13.2372 Y17.0298
G01 X13.2120 Y16.9594
G01 X13.2074 Y16.9454
G01 X13.2034 Y16.9312
G01 X13.1853 Y16.8586
G01 X13.1820 Y16.8443
G01 X13.1795 Y16.8298
G01 X13.1675 Y16.7484
G01 X13.1657 Y16.7264
G01 X13.1620 Y16.6517
G01 X13.1616 Y16.6370
G01 X13.1616 Y15.1130
G01 X13.1620 Y15.0983
G01 X13.1657 Y15.0236
G01 X13.1667 Y15.0089
G01 X13.1685 Y14.9943
G01 X13.1795 Y14.9202
G01 X13.1820 Y14.9057
G01 X13.1853 Y14.8914
G01 X13.2034 Y14.8188
G01 X13.2074 Y14.8046
G01 X13.2120 Y14.7906
G01 X13.2372 Y14.7202
G01 X13.2425 Y14.7064
G01 X13.2485 Y14.6930
G01 X13.2804 Y14.6253
G01 X13.2871 Y14.6122
G01 X13.2943 Y14.5994
G01 X13.3328 Y14.5352
G01 X13.3448 Y14.5167
G01 X13.3937 Y14.4506
G01 X13.4028 Y14.4390
G01 X13.4124 Y14.4279
G01 X13.4626 Y14.3724
G01 X13.4781 Y14.3566
G01 X13.5389 Y14.3014
G01 X13.5558 Y14.2872
G01 X13.6277 Y14.2338
G01 X13.6399 Y14.2256
G01 X13.6699 Y14.2076
G01 X13.6699 Y10.2999
G01 X13.6151 Y10.2999
G01 X13.5930 Y10.2991
G01 X13.5784 Y10.2976
G01 X13.5638 Y10.2955
G01 X13.5494 Y10.2926
G01 X13.5351 Y10.2890
G01 X13.5210 Y10.2848
G01 X13.5071 Y10.2798
G01 X13.4935 Y10.2742
G01 X13.4802 Y10.2679
G01 X13.4672 Y10.2609
G01 X13.4546 Y10.2534
G01 X13.4424 Y10.2452
G01 X13.4248 Y10.2318
G01 X13.4136 Y10.2222
G01 X13.4030 Y10.2120
G01 X13.3928 Y10.2014
G01 X13.3786 Y10.1845
G01 X13.3698 Y10.1726
G01 X13.3616 Y10.1604
G01 X13.3541 Y10.1478
G01 X13.3471 Y10.1348
G01 X13.3408 Y10.1215
G01 X13.3352 Y10.1079
G01 X13.3302 Y10.0940
G01 X13.3241 Y10.0728
G01 X13.3209 Y10.0584
G01 X13.3174 Y10.0366
G01 X13.3159 Y10.0220
G01 X13.3152 Y10.0073
G01 X13.3151 Y8.2881
G01 X13.3159 Y8.2660
G01 X13.3183 Y8.2441
G01 X13.3224 Y8.2224
G01 X13.3280 Y8.2010
G01 X13.3352 Y8.1801
G01 X13.3439 Y8.1598
G01 X13.3541 Y8.1402
G01 X13.3657 Y8.1214
G01 X13.3741 Y8.1094
G01 X13.3832 Y8.0978
G01 X13.3978 Y8.0812
G01 X13.4136 Y8.0658
G01 X13.4305 Y8.0516
G01 X13.4424 Y8.0428
G01 X13.4546 Y8.0346
G01 X13.4737 Y8.0235
G01 X13.4935 Y8.0138
G01 X13.5140 Y8.0056
G01 X13.5280 Y8.0010
G01 X13.5419 Y7.9972
G01 X13.5419 Y6.7710
G01 X13.5422 Y6.7563
G01 X13.5445 Y6.7167
G01 X13.5500 Y6.6774
G01 X13.5540 Y6.6557
G01 X13.5637 Y6.6172
G01 X13.5680 Y6.6031
G01 X13.5813 Y6.5658
G01 X13.5900 Y6.5455
G01 X13.6073 Y6.5098
G01 X13.6274 Y6.4756
G01 X13.6394 Y6.4571
G01 X13.6631 Y6.4252
G01 X13.6773 Y6.4083
G01 X13.7042 Y6.3792
G01 X14.0480 Y6.0353
G01 X14.0480 Y5.4690
G01 X14.0484 Y5.4543
G01 X14.0494 Y5.4396
G01 X14.0524 Y5.4177
G01 X14.0553 Y5.4033
G01 X14.0589 Y5.3890
G01 X14.0655 Y5.3679
G01 X14.0708 Y5.3542
G01 X14.0768 Y5.3407
G01 X14.0834 Y5.3276
G01 X14.0907 Y5.3148
G01 X14.0986 Y5.3023
G01 X14.1070 Y5.2903
G01 X14.1161 Y5.2787
G01 X14.1307 Y5.2621
G01 X14.1411 Y5.2517
G01 X14.1520 Y5.2418
G01 X14.1634 Y5.2325
G01 X14.1753 Y5.2237
G01 X14.1875 Y5.2155
G01 X14.2066 Y5.2044
G01 X14.2264 Y5.1947
G01 X14.2469 Y5.1865
G01 X14.2680 Y5.1799
G01 X14.2895 Y5.1748
G01 X14.3113 Y5.1713
G01 X14.3333 Y5.1694
G01 X14.3480 Y5.1690
G01 X15.4554 Y5.1691
G01 X15.4774 Y5.1704
G01 X15.4920 Y5.1722
G01 X15.5137 Y5.1763
G01 X15.5280 Y5.1799
G01 X15.5491 Y5.1865
G01 X15.5628 Y5.1918
G01 X15.5763 Y5.1978
G01 X15.5894 Y5.2044
G01 X15.6085 Y5.2155
G01 X15.6207 Y5.2237
G01 X15.6326 Y5.2325
G01 X15.6440 Y5.2418
G01 X15.6549 Y5.2517
G01 X15.6703 Y5.2675
G01 X15.6799 Y5.2787
G01 X15.6890 Y5.2903
G01 X15.6974 Y5.3023
G01 X15.7053 Y5.3148
G01 X15.7126 Y5.3276
G01 X15.7223 Y5.3474
G01 X15.7305 Y5.3679
G01 X15.7351 Y5.3819
G01 X15.7390 Y5.3961
G01 X15.7422 Y5.4105
G01 X15.7448 Y5.4250
G01 X15.7466 Y5.4396
G01 X15.7476 Y5.4543
G01 X15.7480 Y5.4690
G01 X15.7480 Y6.0353
G01 X15.7480 Y5.4690
G01 X15.7488 Y5.4469
G01 X15.7512 Y5.4250
G01 X15.7538 Y5.4105
G01 X15.7570 Y5.3961
G01 X15.7609 Y5.3819
G01 X15.7655 Y5.3679
G01 X15.7708 Y5.3542
G01 X15.7768 Y5.3407
G01 X15.7834 Y5.3276
G01 X15.7907 Y5.3148
G01 X15.7986 Y5.3023
G01 X15.8070 Y5.2903
G01 X15.8161 Y5.2787
G01 X15.8257 Y5.2675
G01 X15.8359 Y5.2569
G01 X15.8465 Y5.2467
G01 X15.8577 Y5.2371
G01 X15.8722 Y5.2259
G01 X14.1215 Y3.4751
G01 X7.5518 Y3.4751
G01 X7.1265 Y3.9003
G01 X7.1156 Y3.9102
G01 X7.1042 Y3.9195
G01 X7.0924 Y3.9283
G01 X7.0801 Y3.9365
G01 X7.0675 Y3.9440
G01 X7.0545 Y3.9510
G01 X7.0412 Y3.9573
G01 X7.0276 Y3.9629
G01 X7.0067 Y3.9701
G01 X6.9925 Y3.9740
G01 X6.9782 Y3.9772
G01 X6.9636 Y3.9798
G01 X6.9490 Y3.9816
G01 X6.9270 Y3.9829
G01 X6.2810 Y3.9829
G01 X6.2590 Y3.9816
G01 X6.2371 Y3.9786
G01 X6.2226 Y3.9757
G01 X6.2084 Y3.9721
G01 X6.1873 Y3.9655
G01 X6.1668 Y3.9573
G01 X6.1535 Y3.9510
G01 X6.1405 Y3.9440
G01 X6.1279 Y3.9365
G01 X6.1156 Y3.9283
G01 X6.0981 Y3.9149
G01 X6.0869 Y3.9053
G01 X6.0762 Y3.8951
G01 X5.6299 Y3.4488
G01 X5.6197 Y3.4381
G01 X5.6101 Y3.4269
G01 X5.6010 Y3.4153
G01 X5.5926 Y3.4033
G01 X5.5847 Y3.3909
G01 X5.5774 Y3.3780
G01 X5.5708 Y3.3649
G01 X5.5648 Y3.3514
G01 X5.5595 Y3.3377
G01 X5.5549 Y3.3237
G01 X5.5510 Y3.3095
G01 X5.5478 Y3.2952
G01 X5.5452 Y3.2806
G01 X5.5434 Y3.2660
G01 X5.5424 Y3.2513
G01 X5.5420 Y3.2366
G00 Z2.0000
G00 X5.7170 Y3.2366
G01 F60.00
G01 Z-0.0400
G01 F80.00
G01 X5.7170 Y2.6023
G01 X5.7179 Y2.5901
G01 X5.7200 Y2.5780
G01 X5.7233 Y2.5662
G01 X5.7290 Y2.5519
G01 X5.7332 Y2.5438
G01 X5.7398 Y2.5334
G01 X5.7454 Y2.5261
G01 X5.7536 Y2.5170
G01 X6.2022 Y2.0685
G01 X6.2091 Y2.0624
G01 X6.2189 Y2.0551
G01 X6.2268 Y2.0502
G01 X6.2377 Y2.0447
G01 X6.2492 Y2.0403
G01 X6.2580 Y2.0377
G01 X6.2670 Y2.0358
G01 X6.2792 Y2.0343
G01 X6.2884 Y2.0340
G01 X6.9227 Y2.0340
G01 X6.9319 Y2.0346
G01 X6.9440 Y2.0364
G01 X6.9559 Y2.0394
G01 X6.9675 Y2.0435
G01 X6.9786 Y2.0488
G01 X6.9891 Y2.0551
G01 X6.9989 Y2.0624
G01 X7.0080 Y2.0706
G01 X7.4544 Y2.5170
G01 X7.4645 Y2.5285
G01 X7.4699 Y2.5359
G01 X7.4737 Y2.5419
G01 X14.3510 Y2.5419
G01 X14.3820 Y2.5432
G01 X14.3943 Y2.5444
G01 X14.4250 Y2.5492
G01 X14.4611 Y2.5582
G01 X14.4961 Y2.5707
G01 X14.5242 Y2.5839
G01 X14.5351 Y2.5897
G01 X14.5642 Y2.6075
G01 X14.5915 Y2.6279
G01 X14.6169 Y2.6508
G01 X16.7781 Y4.8119
G01 X16.8031 Y4.8395
G01 X16.8217 Y4.8644
G01 X16.8285 Y4.8746
G01 X16.8444 Y4.9013
G01 X16.8578 Y4.9293
G01 X16.8625 Y4.9406
G01 X16.8728 Y4.9699
G01 X16.8805 Y5.0000
G01 X16.8824 Y5.0091
G01 X16.8873 Y5.0428
G01 X16.8891 Y5.0769
G01 X16.8891 Y5.3440
G01 X17.1511 Y5.3440
G01 X17.1663 Y5.3454
G01 X17.1784 Y5.3477
G01 X17.1872 Y5.3503
G01 X17.1958 Y5.3535
G01 X17.2096 Y5.3602
G01 X17.2225 Y5.3686
G01 X17.2342 Y5.3785
G01 X17.2406 Y5.3851
G01 X17.2465 Y5.3921
G01 X17.2552 Y5.4047
G01 X17.2623 Y5.4183
G01 X17.2657 Y5.4269
G01 X17.2685 Y5.4357
G01 X17.2706 Y5.4446
G01 X17.2721 Y5.4537
G01 X17.2730 Y5.4690
G01 X17.2730 Y6.4690
G01 X17.2721 Y6.4843
G01 X17.2706 Y6.4934
G01 X17.2685 Y6.5023
G01 X17.2657 Y6.5111
G01 X17.2610 Y6.5224
G01 X17.2568 Y6.5306
G01 X17.2519 Y6.5384
G01 X17.2446 Y6.5483
G01 X17.2385 Y6.5552
G01 X17.2296 Y6.5637
G01 X17.2225 Y6.5694
G01 X17.2149 Y6.5746
G01 X17.2069 Y6.5792
G01 X17.1958 Y6.5845
G01 X17.1872 Y6.5877
G01 X17.1784 Y6.5903
G01 X17.1663 Y6.5926
G01 X17.1572 Y6.5937
G01 X17.1480 Y6.5940
G01 X16.5092 Y6.5940
G01 X16.1271 Y6.9760
G01 X16.1271 Y10.5110
G01 X17.0363 Y11.4204
G01 X17.0571 Y11.4435
G01 X17.0757 Y11.4684
G01 X17.0825 Y11.4786
G01 X17.0984 Y11.5053
G01 X17.1143 Y11.5389
G01 X17.1249 Y11.5681
G01 X17.1284 Y11.5799
G01 X17.1364 Y11.6131
G01 X17.1413 Y11.6468
G01 X17.1431 Y11.6840
G01 X17.1431 Y14.3117
G01 X17.1768 Y14.3276
G01 X17.1850 Y14.3319
G01 X17.2544 Y14.3735
G01 X17.2620 Y14.3787
G01 X17.3221 Y14.4233
G01 X17.3293 Y14.4290
G01 X17.3915 Y14.4855
G01 X17.4459 Y14.5454
G01 X17.4537 Y14.5549
G01 X17.4983 Y14.6150
G01 X17.5035 Y14.6226
G01 X17.5466 Y14.6947
G01 X17.5813 Y14.7678
G01 X17.5860 Y14.7791
G01 X17.6132 Y14.8554
G01 X17.6330 Y14.9339
G01 X17.6354 Y14.9459
G01 X17.6471 Y15.0260
G01 X17.6513 Y15.1099
G01 X17.6514 Y16.6370
G01 X17.6476 Y16.7179
G01 X17.6464 Y16.7301
G01 X17.6343 Y16.8101
G01 X17.6132 Y16.8946
G01 X17.5838 Y16.9766
G01 X17.5466 Y17.0553
G01 X17.5018 Y17.1300
G01 X17.4500 Y17.1999
G01 X17.3915 Y17.2645
G01 X17.3269 Y17.3230
G01 X17.2620 Y17.3713
G01 X17.2518 Y17.3781
G01 X17.1823 Y17.4196
G01 X17.1092 Y17.4543
G01 X17.0979 Y17.4590
G01 X17.0216 Y17.4862
G01 X16.9431 Y17.5060
G01 X16.9311 Y17.5084
G01 X16.8510 Y17.5201
G01 X16.7701 Y17.5242
G01 X16.7579 Y17.5242
G01 X16.6770 Y17.5201
G01 X16.5969 Y17.5084
G01 X16.5849 Y17.5060
G01 X16.5064 Y17.4862
G01 X16.4301 Y17.4590
G01 X16.4188 Y17.4543
G01 X16.3457 Y17.4196
G01 X16.2762 Y17.3781
G01 X16.2660 Y17.3713
G01 X16.2011 Y17.3230
G01 X16.1410 Y17.2687
G01 X16.1323 Y17.2600
G01 X16.0780 Y17.1999
G01 X16.0297 Y17.1350
G01 X16.0229 Y17.1248
G01 X15.9814 Y17.0553
G01 X15.9467 Y16.9822
G01 X15.9420 Y16.9709
G01 X15.9148 Y16.8946
G01 X15.8950 Y16.8161
G01 X15.8931 Y16.8071
G01 X15.8809 Y16.7240
G01 X15.8766 Y16.6370
G01 X15.8766 Y15.1130
G01 X15.8809 Y15.0260
G01 X15.8937 Y14.9399
G01 X15.9148 Y14.8554
G01 X15.9420 Y14.7791
G01 X15.9467 Y14.7678
G01 X15.9814 Y14.6947
G01 X16.0229 Y14.6252
G01 X16.0297 Y14.6150
G01 X16.0761 Y14.5524
G01 X16.0821 Y14.5454
G01 X16.1365 Y14.4855
G01 X16.1964 Y14.4311
G01 X16.2034 Y14.4251
G01 X16.2660 Y14.3787
G01 X16.2736 Y14.3735
G01 X16.3430 Y14.3319
G01 X16.3512 Y14.3276
G01 X16.3849 Y14.3117
G01 X16.3849 Y11.8410
G01 X15.4757 Y10.9316
G01 X15.4549 Y10.9085
G01 X15.4363 Y10.8836
G01 X15.4295 Y10.8734
G01 X15.4136 Y10.8467
G01 X15.3977 Y10.8131
G01 X15.3871 Y10.7839
G01 X15.3836 Y10.7721
G01 X15.3756 Y10.7389
G01 X15.3707 Y10.7052
G01 X15.3689 Y10.6680
G01 X15.3689 Y6.8159
G01 X15.3707 Y6.7818
G01 X15.3751 Y6.7511
G01 X15.3775 Y6.7390
G01 X15.3861 Y6.7060
G01 X15.3977 Y6.6739
G01 X15.4122 Y6.6430
G01 X15.4167 Y6.6349
G01 X15.4311 Y6.6109
G01 X15.4432 Y6.5940
G01 X14.8092 Y6.5940
G01 X14.4751 Y6.9280
G01 X14.4751 Y8.1631
G01 X14.5769 Y8.1631
G01 X14.5892 Y8.1637
G01 X14.6013 Y8.1655
G01 X14.6132 Y8.1685
G01 X14.6247 Y8.1726
G01 X14.6358 Y8.1779
G01 X14.6489 Y8.1859
G01 X14.6562 Y8.1915
G01 X14.6631 Y8.1976
G01 X14.6735 Y8.2088
G01 X14.6825 Y8.2212
G01 X14.6871 Y8.2292
G01 X14.6912 Y8.2374
G01 X14.6965 Y8.2518
G01 X14.7001 Y8.2667
G01 X14.7013 Y8.2758
G01 X14.7019 Y8.2850
G01 X14.7017 Y10.0060
G01 X14.7010 Y10.0152
G01 X14.6995 Y10.0243
G01 X14.6974 Y10.0332
G01 X14.6935 Y10.0449
G01 X14.6899 Y10.0533
G01 X14.6841 Y10.0642
G01 X14.6791 Y10.0719
G01 X14.6716 Y10.0815
G01 X14.6653 Y10.0883
G01 X14.6585 Y10.0946
G01 X14.6489 Y10.1021
G01 X14.6412 Y10.1071
G01 X14.6331 Y10.1116
G01 X14.6219 Y10.1165
G01 X14.6132 Y10.1195
G01 X14.6031 Y10.1221
G01 X14.6031 Y14.3117
G01 X14.6368 Y14.3276
G01 X14.6450 Y14.3319
G01 X14.7144 Y14.3735
G01 X14.7220 Y14.3787
G01 X14.7846 Y14.4251
G01 X14.7916 Y14.4311
G01 X14.8515 Y14.4855
G01 X14.9059 Y14.5454
G01 X14.9119 Y14.5524
G01 X14.9583 Y14.6150
G01 X14.9651 Y14.6252
G01 X15.0066 Y14.6947
G01 X15.0413 Y14.7678
G01 X15.0460 Y14.7791
G01 X15.0732 Y14.8554
G01 X15.0943 Y14.9399
G01 X15.1071 Y15.0260
G01 X15.1114 Y15.1130
G01 X15.1114 Y16.6370
G01 X15.1071 Y16.7240
G01 X15.0943 Y16.8101
G01 X15.0732 Y16.8946
G01 X15.0460 Y16.9709
G01 X15.0413 Y16.9822
G01 X15.0094 Y17.0498
G01 X15.0036 Y17.0606
G01 X14.9618 Y17.1300
G01 X14.9100 Y17.1999
G01 X14.8515 Y17.2645
G01 X14.7869 Y17.3230
G01 X14.7170 Y17.3748
G01 X14.6423 Y17.4196
G01 X14.5636 Y17.4568
G01 X14.4874 Y17.4842
G01 X14.4757 Y17.4878
G01 X14.3971 Y17.5073
G01 X14.3171 Y17.5194
G01 X14.3049 Y17.5206
G01 X14.2301 Y17.5242
G01 X14.2179 Y17.5242
G01 X14.1370 Y17.5201
G01 X14.0509 Y17.5073
G01 X13.9664 Y17.4862
G01 X13.8844 Y17.4568
G01 X13.8057 Y17.4196
G01 X13.7310 Y17.3748
G01 X13.6611 Y17.3230
G01 X13.6010 Y17.2687
G01 X13.5923 Y17.2600
G01 X13.5380 Y17.1999
G01 X13.4897 Y17.1350
G01 X13.4829 Y17.1248
G01 X13.4444 Y17.0606
G01 X13.4386 Y17.0498
G01 X13.4042 Y16.9766
G01 X13.3748 Y16.8946
G01 X13.3537 Y16.8101
G01 X13.3409 Y16.7240
G01 X13.3366 Y16.6370
G01 X13.3366 Y15.1130
G01 X13.3409 Y15.0260
G01 X13.3537 Y14.9399
G01 X13.3748 Y14.8554
G01 X13.4020 Y14.7791
G01 X13.4067 Y14.7678
G01 X13.4414 Y14.6947
G01 X13.4829 Y14.6252
G01 X13.4897 Y14.6150
G01 X13.5361 Y14.5524
G01 X13.5421 Y14.5454
G01 X13.5965 Y14.4855
G01 X13.6564 Y14.4311
G01 X13.6634 Y14.4251
G01 X13.7260 Y14.3787
G01 X13.7336 Y14.3735
G01 X13.8030 Y14.3319
G01 X13.8112 Y14.3276
G01 X13.8449 Y14.3117
G01 X13.8449 Y10.1249
G01 X13.6120 Y10.1249
G01 X13.6028 Y10.1243
G01 X13.5937 Y10.1231
G01 X13.5847 Y10.1212
G01 X13.5759 Y10.1186
G01 X13.5673 Y10.1154
G01 X13.5589 Y10.1116
G01 X13.5508 Y10.1071
G01 X13.5431 Y10.1021
G01 X13.5358 Y10.0965
G01 X13.5267 Y10.0883
G01 X13.5204 Y10.0815
G01 X13.5147 Y10.0744
G01 X13.5095 Y10.0668
G01 X13.5049 Y10.0588
G01 X13.5008 Y10.0506
G01 X13.4974 Y10.0420
G01 X13.4946 Y10.0332
G01 X13.4919 Y10.0213
G01 X13.4907 Y10.0122
G01 X13.4901 Y10.0030
G01 X13.4901 Y8.2881
G01 X13.4904 Y8.2789
G01 X13.4915 Y8.2698
G01 X13.4931 Y8.2607
G01 X13.4974 Y8.2460
G01 X13.5034 Y8.2319
G01 X13.5112 Y8.2187
G01 X13.5166 Y8.2112
G01 X13.5225 Y8.2042
G01 X13.5335 Y8.1934
G01 X13.5457 Y8.1842
G01 X13.5589 Y8.1764
G01 X13.5701 Y8.1715
G01 X13.5818 Y8.1676
G01 X13.5937 Y8.1649
G01 X13.6059 Y8.1634
G01 X13.6151 Y8.1631
G01 X13.7169 Y8.1631
G01 X13.7169 Y6.7710
G01 X13.7187 Y6.7338
G01 X13.7231 Y6.7031
G01 X13.7255 Y6.6910
G01 X13.7332 Y6.6609
G01 X13.7435 Y6.6316
G01 X13.7469 Y6.6231
G01 X13.7589 Y6.5978
G01 X13.7647 Y6.5869
G01 X13.7808 Y6.5604
G01 X13.7992 Y6.5353
G01 X13.8049 Y6.5281
G01 X13.8279 Y6.5029
G01 X14.2230 Y6.1078
G01 X14.2230 Y5.4690
G01 X14.2233 Y5.4598
G01 X14.2254 Y5.4446
G01 X14.2293 Y5.4298
G01 X14.2350 Y5.4156
G01 X14.2424 Y5.4021
G01 X14.2514 Y5.3897
G01 X14.2618 Y5.3785
G01 X14.2711 Y5.3705
G01 X14.2837 Y5.3618
G01 X14.2918 Y5.3573
G01 X14.3002 Y5.3535
G01 X14.3147 Y5.3485
G01 X14.3297 Y5.3454
G01 X14.3449 Y5.3440
G01 X15.4480 Y5.3440
G01 X15.4572 Y5.3443
G01 X15.4694 Y5.3458
G01 X15.4784 Y5.3477
G01 X15.4901 Y5.3513
G01 X15.4987 Y5.3547
G01 X15.5096 Y5.3602
G01 X15.5200 Y5.3668
G01 X15.5296 Y5.3743
G01 X15.5385 Y5.3828
G01 X15.5465 Y5.3921
G01 X15.5536 Y5.4021
G01 X15.5597 Y5.4128
G01 X15.5646 Y5.4240
G01 X15.5693 Y5.4386
G01 X15.5716 Y5.4507
G01 X15.5728 Y5.4629
G01 X15.5730 Y6.4578
G01 X15.9230 Y6.1078
G01 X15.9230 Y5.4690
G01 X15.9239 Y5.4537
G01 X15.9267 Y5.4386
G01 X15.9314 Y5.4240
G01 X15.9363 Y5.4128
G01 X15.9441 Y5.3996
G01 X15.9514 Y5.3897
G01 X15.9596 Y5.3806
G01 X15.9711 Y5.3705
G01 X15.9811 Y5.3634
G01 X15.9946 Y5.3560
G01 X16.0030 Y5.3524
G01 X16.0147 Y5.3485
G01 X16.0266 Y5.3458
G01 X16.0357 Y5.3446
G01 X16.0480 Y5.3440
G01 X16.1309 Y5.3440
G01 X16.1309 Y5.2370
G01 X14.1940 Y3.3001
G01 X7.4737 Y3.3001
G01 X7.4699 Y3.3061
G01 X7.4645 Y3.3135
G01 X7.4544 Y3.3250
G01 X7.0080 Y3.7714
G01 X6.9989 Y3.7796
G01 X6.9891 Y3.7869
G01 X6.9786 Y3.7932
G01 X6.9675 Y3.7985
G01 X6.9588 Y3.8017
G01 X6.9470 Y3.8050
G01 X6.9349 Y3.8071
G01 X6.9227 Y3.8080
G01 X6.2884 Y3.8080
G01 X6.2761 Y3.8074
G01 X6.2640 Y3.8056
G01 X6.2550 Y3.8035
G01 X6.2434 Y3.7996
G01 X6.2322 Y3.7947
G01 X6.2215 Y3.7886
G01 X6.2115 Y3.7815
G01 X6.2044 Y3.7756
G01 X5.7536 Y3.3250
G01 X5.7454 Y3.3159
G01 X5.7381 Y3.3061
G01 X5.7318 Y3.2956
G01 X5.7265 Y3.2845
G01 X5.7224 Y3.2729
G01 X5.7194 Y3.2610
G01 X5.7176 Y3.2489
G01 X5.7170 Y3.2366
G00 Z2.0000
G00 X16.6651 Y7.9881
G01 F60.00
G01 Z-0.0400
G01 F80.00
G01 X17.6343 Y7.9882
G01 X17.6490 Y7.9889
G01 X17.6636 Y7.9904
G01 X17.6854 Y7.9939
G01 X17.6998 Y7.9971
G01 X17.7140 Y8.0010
G01 X17.7280 Y8.0056
G01 X17.7417 Y8.0109
G01 X17.7552 Y8.0169
G01 X17.7748 Y8.0271
G01 X17.7874 Y8.0346
G01 X17.7996 Y8.0428
G01 X17.8115 Y8.0516
G01 X17.8229 Y8.0609
G01 X17.8338 Y8.0708
G01 X17.8442 Y8.0812
G01 X17.8541 Y8.0921
G01 X17.8634 Y8.1035
G01 X17.8722 Y8.1154
G01 X17.8804 Y8.1276
G01 X17.8879 Y8.1402
G01 X17.8949 Y8.1532
G01 X17.9041 Y8.1733
G01 X17.9094 Y8.1870
G01 X17.9140 Y8.2010
G01 X17.9179 Y8.2152
G01 X17.9225 Y8.2368
G01 X17.9255 Y8.2587
G01 X17.9268 Y8.2807
G01 X17.9269 Y8.5899
G01 X18.4979 Y8.5899
G01 X18.5003 Y8.5783
G01 X18.5039 Y8.5640
G01 X18.5105 Y8.5429
G01 X18.5158 Y8.5292
G01 X18.5218 Y8.5157
G01 X18.5320 Y8.4961
G01 X18.5436 Y8.4773
G01 X18.5520 Y8.4653
G01 X18.5611 Y8.4537
G01 X18.5757 Y8.4371
G01 X18.5915 Y8.4217
G01 X18.6027 Y8.4121
G01 X18.6143 Y8.4030
G01 X18.6325 Y8.3905
G01 X18.6516 Y8.3794
G01 X18.6714 Y8.3697
G01 X18.6919 Y8.3615
G01 X18.7130 Y8.3549
G01 X18.7345 Y8.3498
G01 X18.7490 Y8.3472
G01 X18.7636 Y8.3454
G01 X18.7783 Y8.3444
G01 X18.7930 Y8.3440
G01 X19.9004 Y8.3441
G01 X19.9151 Y8.3448
G01 X19.9370 Y8.3472
G01 X19.9515 Y8.3498
G01 X19.9659 Y8.3530
G01 X19.9801 Y8.3569
G01 X20.0010 Y8.3641
G01 X20.0146 Y8.3697
G01 X20.0279 Y8.3760
G01 X20.0409 Y8.3830
G01 X20.0597 Y8.3946
G01 X20.0776 Y8.4075
G01 X20.0890 Y8.4168
G01 X20.1051 Y8.4319
G01 X20.1153 Y8.4425
G01 X20.1295 Y8.4594
G01 X20.1383 Y8.4713
G01 X20.1465 Y8.4835
G01 X20.1576 Y8.5026
G01 X20.1673 Y8.5224
G01 X20.1729 Y8.5360
G01 X20.1801 Y8.5569
G01 X20.1840 Y8.5711
G01 X20.1886 Y8.5927
G01 X20.1916 Y8.6146
G01 X20.1926 Y8.6293
G01 X20.1930 Y8.6440
G01 X20.1929 Y9.6514
G01 X20.1922 Y9.6661
G01 X20.1907 Y9.6807
G01 X20.1886 Y9.6953
G01 X20.1840 Y9.7169
G01 X20.1801 Y9.7311
G01 X20.1755 Y9.7451
G01 X20.1673 Y9.7656
G01 X20.1610 Y9.7789
G01 X20.1540 Y9.7919
G01 X20.1424 Y9.8107
G01 X20.1295 Y9.8286
G01 X20.1202 Y9.8400
G01 X20.1103 Y9.8509
G01 X20.0945 Y9.8663
G01 X20.0776 Y9.8805
G01 X20.0657 Y9.8893
G01 X20.0535 Y9.8975
G01 X20.0344 Y9.9086
G01 X20.0146 Y9.9183
G01 X20.0010 Y9.9239
G01 X19.9871 Y9.9289
G01 X19.9659 Y9.9350
G01 X19.9443 Y9.9396
G01 X19.9297 Y9.9417
G01 X19.9151 Y9.9432
G01 X19.8930 Y9.9440
G01 X18.7856 Y9.9439
G01 X18.7636 Y9.9426
G01 X18.7490 Y9.9408
G01 X18.7345 Y9.9382
G01 X18.7201 Y9.9350
G01 X18.7059 Y9.9311
G01 X18.6850 Y9.9239
G01 X18.6647 Y9.9152
G01 X18.6516 Y9.9086
G01 X18.6388 Y9.9013
G01 X18.6203 Y9.8893
G01 X18.6084 Y9.8805
G01 X18.5970 Y9.8712
G01 X18.5809 Y9.8561
G01 X18.5707 Y9.8455
G01 X18.5611 Y9.8343
G01 X18.5520 Y9.8227
G01 X18.5436 Y9.8107
G01 X18.5320 Y9.7919
G01 X18.5218 Y9.7723
G01 X18.5158 Y9.7588
G01 X18.5105 Y9.7451
G01 X18.5039 Y9.7240
G01 X18.5003 Y9.7097
G01 X18.4979 Y9.6981
G01 X17.9269 Y9.6981
G01 X17.9269 Y9.9999
G01 X17.9265 Y10.0146
G01 X17.9255 Y10.0293
G01 X17.9225 Y10.0512
G01 X17.9179 Y10.0728
G01 X17.9118 Y10.0940
G01 X17.9068 Y10.1079
G01 X17.8981 Y10.1282
G01 X17.8915 Y10.1413
G01 X17.8842 Y10.1541
G01 X17.8763 Y10.1666
G01 X17.8679 Y10.1786
G01 X17.8588 Y10.1902
G01 X17.8442 Y10.2068
G01 X17.8338 Y10.2172
G01 X17.8229 Y10.2271
G01 X17.8115 Y10.2364
G01 X17.7936 Y10.2493
G01 X17.7811 Y10.2572
G01 X17.7683 Y10.2645
G01 X17.7552 Y10.2711
G01 X17.7417 Y10.2771
G01 X17.7280 Y10.2824
G01 X17.7140 Y10.2870
G01 X17.6998 Y10.2909
G01 X17.6854 Y10.2941
G01 X17.6709 Y10.2967
G01 X17.6563 Y10.2985
G01 X17.6343 Y10.2998
G01 X16.6651 Y10.2999
G01 X16.6430 Y10.2991
G01 X16.6284 Y10.2976
G01 X16.6138 Y10.2955
G01 X16.5994 Y10.2926
G01 X16.5780 Y10.2870
G01 X16.5640 Y10.2824
G01 X16.5503 Y10.2771
G01 X16.5302 Y10.2679
G01 X16.5172 Y10.2609
G01 X16.4984 Y10.2493
G01 X16.4864 Y10.2409
G01 X16.4691 Y10.2271
G01 X16.4530 Y10.2120
G01 X16.4379 Y10.1959
G01 X16.4286 Y10.1845
G01 X16.4157 Y10.1666
G01 X16.4041 Y10.1478
G01 X16.3971 Y10.1348
G01 X16.3879 Y10.1147
G01 X16.3826 Y10.1010
G01 X16.3760 Y10.0799
G01 X16.3709 Y10.0584
G01 X16.3683 Y10.0439
G01 X16.3659 Y10.0220
G01 X16.3651 Y9.9999
G01 X16.3651 Y8.2881
G01 X16.3655 Y8.2734
G01 X16.3665 Y8.2587
G01 X16.3683 Y8.2441
G01 X16.3709 Y8.2296
G01 X16.3741 Y8.2152
G01 X16.3780 Y8.2010
G01 X16.3826 Y8.1870
G01 X16.3879 Y8.1733
G01 X16.3939 Y8.1598
G01 X16.4005 Y8.1467
G01 X16.4078 Y8.1339
G01 X16.4157 Y8.1214
G01 X16.4241 Y8.1094
G01 X16.4332 Y8.0978
G01 X16.4428 Y8.0866
G01 X16.4582 Y8.0708
G01 X16.4691 Y8.0609
G01 X16.4805 Y8.0516
G01 X16.4924 Y8.0428
G01 X16.5046 Y8.0346
G01 X16.5172 Y8.0271
G01 X16.5302 Y8.0201
G01 X16.5435 Y8.0138
G01 X16.5571 Y8.0082
G01 X16.5710 Y8.0032
G01 X16.5851 Y7.9990
G01 X16.5994 Y7.9954
G01 X16.6138 Y7.9925
G01 X16.6284 Y7.9904
G01 X16.6430 Y7.9889
G01 X16.6651 Y7.9881
G00 Z2.0000
G00 X16.6651 Y8.1631
G01 F60.00
G01 Z-0.0400
G01 F80.00
G01 X17.6300 Y8.1631
G01 X17.6452 Y8.1645
G01 X17.6602 Y8.1676
G01 X17.6747 Y8.1726
G01 X17.6885 Y8.1793
G01 X17.7014 Y8.1877
G01 X17.7131 Y8.1976
G01 X17.7235 Y8.2088
G01 X17.7325 Y8.2212
G01 X17.7399 Y8.2347
G01 X17.7456 Y8.2489
G01 X17.7495 Y8.2637
G01 X17.7513 Y8.2758
G01 X17.7519 Y8.2881
G01 X17.7519 Y8.7649
G01 X18.6680 Y8.7649
G01 X18.6680 Y8.6440
G01 X18.6683 Y8.6348
G01 X18.6698 Y8.6226
G01 X18.6725 Y8.6107
G01 X18.6753 Y8.6019
G01 X18.6800 Y8.5906
G01 X18.6874 Y8.5771
G01 X18.6964 Y8.5647
G01 X18.7068 Y8.5535
G01 X18.7137 Y8.5474
G01 X18.7210 Y8.5418
G01 X18.7341 Y8.5338
G01 X18.7480 Y8.5274
G01 X18.7567 Y8.5244
G01 X18.7656 Y8.5220
G01 X18.7807 Y8.5196
G01 X18.7930 Y8.5190
G01 X19.8930 Y8.5190
G01 X19.9053 Y8.5196
G01 X19.9204 Y8.5220
G01 X19.9322 Y8.5253
G01 X19.9464 Y8.5310
G01 X19.9546 Y8.5352
G01 X19.9624 Y8.5401
G01 X19.9746 Y8.5493
G01 X19.9856 Y8.5601
G01 X19.9915 Y8.5671
G01 X19.9969 Y8.5746
G01 X20.0018 Y8.5824
G01 X20.0060 Y8.5906
G01 X20.0117 Y8.6048
G01 X20.0156 Y8.6196
G01 X20.0171 Y8.6287
G01 X20.0178 Y8.6379
G01 X20.0180 Y9.6440
G01 X20.0171 Y9.6593
G01 X20.0150 Y9.6714
G01 X20.0117 Y9.6832
G01 X20.0060 Y9.6974
G01 X19.9986 Y9.7109
G01 X19.9934 Y9.7185
G01 X19.9877 Y9.7256
G01 X19.9769 Y9.7366
G01 X19.9699 Y9.7425
G01 X19.9624 Y9.7479
G01 X19.9546 Y9.7528
G01 X19.9464 Y9.7570
G01 X19.9322 Y9.7627
G01 X19.9174 Y9.7666
G01 X19.9083 Y9.7681
G01 X19.8991 Y9.7688
G01 X18.7930 Y9.7690
G01 X18.7838 Y9.7687
G01 X18.7747 Y9.7676
G01 X18.7656 Y9.7660
G01 X18.7509 Y9.7617
G01 X18.7423 Y9.7583
G01 X18.7341 Y9.7542
G01 X18.7210 Y9.7462
G01 X18.7137 Y9.7406
G01 X18.7068 Y9.7345
G01 X18.6964 Y9.7233
G01 X18.6874 Y9.7109
G01 X18.6800 Y9.6974
G01 X18.6753 Y9.6861
G01 X18.6717 Y9.6744
G01 X18.6694 Y9.6623
G01 X18.6683 Y9.6532
G01 X18.6680 Y9.6440
G01 X18.6680 Y9.5231
G01 X17.7519 Y9.5231
G01 X17.7519 Y9.9999
G01 X17.7510 Y10.0152
G01 X17.7482 Y10.0303
G01 X17.7435 Y10.0449
G01 X17.7371 Y10.0588
G01 X17.7291 Y10.0719
G01 X17.7195 Y10.0838
G01 X17.7085 Y10.0946
G01 X17.6963 Y10.1038
G01 X17.6831 Y10.1116
G01 X17.6690 Y10.1176
G01 X17.6543 Y10.1219
G01 X17.6392 Y10.1243
G01 X17.6269 Y10.1249
G01 X16.6651 Y10.1249
G01 X16.6498 Y10.1240
G01 X16.6377 Y10.1219
G01 X16.6230 Y10.1176
G01 X16.6117 Y10.1129
G01 X16.5982 Y10.1055
G01 X16.5906 Y10.1003
G01 X16.5835 Y10.0946
G01 X16.5767 Y10.0883
G01 X16.5704 Y10.0815
G01 X16.5612 Y10.0693
G01 X16.5534 Y10.0561
G01 X16.5496 Y10.0477
G01 X16.5464 Y10.0391
G01 X16.5438 Y10.0303
G01 X16.5419 Y10.0213
G01 X16.5403 Y10.0060
G01 X16.5401 Y8.2850
G01 X16.5410 Y8.2728
G01 X16.5431 Y8.2607
G01 X16.5464 Y8.2489
G01 X16.5508 Y8.2374
G01 X16.5563 Y8.2265
G01 X16.5629 Y8.2161
G01 X16.5685 Y8.2088
G01 X16.5767 Y8.1997
G01 X16.5858 Y8.1915
G01 X16.5957 Y8.1842
G01 X16.6062 Y8.1779
G01 X16.6173 Y8.1726
G01 X16.6288 Y8.1685
G01 X16.6407 Y8.1655
G01 X16.6528 Y8.1637
G01 X16.6651 Y8.1631
G00 Z2.0000
G00 X20.8360 Y3.9360
G01 F60.00
G01 Z-0.0400
G01 F80.00
G01 X21.4748 Y3.9360
G01 X22.6354 Y2.7757
G01 X22.6585 Y2.7549
G01 X22.6858 Y2.7345
G01 X22.7149 Y2.7167
G01 X22.7258 Y2.7109
G01 X22.7539 Y2.6977
G01 X22.7889 Y2.6852
G01 X22.8250 Y2.6762
G01 X22.8557 Y2.6714
G01 X22.8680 Y2.6702
G01 X22.8990 Y2.6689
G01 X27.8323 Y2.6689
G01 X27.8361 Y2.6629
G01 X27.8415 Y2.6555
G01 X27.8516 Y2.6440
G01 X28.2980 Y2.1976
G01 X28.3071 Y2.1894
G01 X28.3169 Y2.1821
G01 X28.3274 Y2.1758
G01 X28.3385 Y2.1705
G01 X28.3472 Y2.1673
G01 X28.3590 Y2.1640
G01 X28.3711 Y2.1619
G01 X28.3833 Y2.1610
G01 X29.0176 Y2.1610
G01 X29.0268 Y2.1613
G01 X29.0390 Y2.1628
G01 X29.0510 Y2.1655
G01 X29.0626 Y2.1694
G01 X29.0738 Y2.1743
G01 X29.0845 Y2.1804
G01 X29.0945 Y2.1875
G01 X29.1038 Y2.1955
G01 X29.5545 Y2.6462
G01 X29.5606 Y2.6531
G01 X29.5662 Y2.6604
G01 X29.5712 Y2.6681
G01 X29.5757 Y2.6762
G01 X29.5795 Y2.6845
G01 X29.5836 Y2.6961
G01 X29.5860 Y2.7050
G01 X29.5876 Y2.7140
G01 X29.5887 Y2.7232
G01 X29.5890 Y2.7324
G01 X29.5890 Y3.3667
G01 X29.5881 Y3.3789
G01 X29.5860 Y3.3910
G01 X29.5827 Y3.4028
G01 X29.5783 Y3.4143
G01 X29.5742 Y3.4226
G01 X29.5679 Y3.4331
G01 X29.5625 Y3.4405
G01 X29.5545 Y3.4498
G01 X29.1038 Y3.9005
G01 X29.0945 Y3.9085
G01 X29.0871 Y3.9139
G01 X29.0792 Y3.9188
G01 X29.0711 Y3.9230
G01 X29.0597 Y3.9277
G01 X29.0510 Y3.9305
G01 X29.0420 Y3.9326
G01 X29.0299 Y3.9344
G01 X29.0176 Y3.9350
G01 X28.3833 Y3.9350
G01 X28.3711 Y3.9341
G01 X28.3590 Y3.9320
G01 X28.3501 Y3.9296
G01 X28.3385 Y3.9255
G01 X28.3274 Y3.9202
G01 X28.3169 Y3.9139
G01 X28.3071 Y3.9066
G01 X28.2980 Y3.8984
G01 X27.8516 Y3.4520
G01 X27.8415 Y3.4405
G01 X27.8361 Y3.4331
G01 X27.8323 Y3.4271
G01 X23.0560 Y3.4271
G01 X21.9610 Y4.5222
G01 X21.9610 Y5.1610
G01 X21.9607 Y5.1702
G01 X21.9596 Y5.1793
G01 X21.9580 Y5.1884
G01 X21.9556 Y5.1973
G01 X21.9526 Y5.2060
G01 X21.9477 Y5.2172
G01 X21.9432 Y5.2253
G01 X21.9364 Y5.2355
G01 X21.9307 Y5.2426
G01 X21.9244 Y5.2494
G01 X21.9153 Y5.2576
G01 X21.9080 Y5.2632
G01 X21.9003 Y5.2682
G01 X21.8922 Y5.2727
G01 X21.8838 Y5.2765
G01 X21.8723 Y5.2806
G01 X21.8634 Y5.2830
G01 X21.8543 Y5.2846
G01 X21.8452 Y5.2857
G01 X21.8360 Y5.2860
G01 X20.8299 Y5.2858
G01 X20.8146 Y5.2842
G01 X20.8027 Y5.2815
G01 X20.7910 Y5.2776
G01 X20.7771 Y5.2712
G01 X20.7640 Y5.2632
G01 X20.7544 Y5.2557
G01 X20.7455 Y5.2472
G01 X20.7356 Y5.2355
G01 X20.7304 Y5.2279
G01 X20.7258 Y5.2199
G01 X20.7217 Y5.2117
G01 X20.7183 Y5.2031
G01 X20.7155 Y5.1943
G01 X20.7134 Y5.1854
G01 X20.7116 Y5.1733
G01 X20.7110 Y5.1641
G01 X20.7110 Y4.0610
G01 X20.7113 Y4.0518
G01 X20.7128 Y4.0396
G01 X20.7155 Y4.0277
G01 X20.7183 Y4.0189
G01 X20.7230 Y4.0076
G01 X20.7288 Y3.9967
G01 X20.7338 Y3.9890
G01 X20.7413 Y3.9794
G01 X20.7498 Y3.9705
G01 X20.7591 Y3.9625
G01 X20.7691 Y3.9554
G01 X20.7771 Y3.9508
G01 X20.7882 Y3.9455
G01 X20.7997 Y3.9414
G01 X20.8116 Y3.9384
G01 X20.8237 Y3.9366
G01 X20.8360 Y3.9360
G00 Z2.0000
G00 X20.8360 Y3.7610
G01 F60.00
G01 Z-0.0400
G01 F80.00
G01 X21.4023 Y3.7610
G01 X22.5072 Y2.6562
G01 X22.5178 Y2.6460
G01 X22.5418 Y2.6244
G01 X22.5532 Y2.6151
G01 X22.5791 Y2.5957
G01 X22.5973 Y2.5832
G01 X22.6250 Y2.5666
G01 X22.6378 Y2.5593
G01 X22.6509 Y2.5527
G01 X22.6802 Y2.5390
G01 X22.7007 Y2.5308
G01 X22.7311 Y2.5200
G01 X22.7452 Y2.5157
G01 X22.7765 Y2.5077
G01 X22.7909 Y2.5045
G01 X22.8054 Y2.5020
G01 X22.8374 Y2.4974
G01 X22.8594 Y2.4955
G01 X22.8990 Y2.4939
G01 X27.7542 Y2.4939
G01 X28.1795 Y2.0687
G01 X28.1904 Y2.0588
G01 X28.2018 Y2.0495
G01 X28.2136 Y2.0407
G01 X28.2259 Y2.0325
G01 X28.2385 Y2.0250
G01 X28.2515 Y2.0180
G01 X28.2648 Y2.0117
G01 X28.2784 Y2.0061
G01 X28.2923 Y2.0011
G01 X28.3064 Y1.9969
G01 X28.3278 Y1.9918
G01 X28.3424 Y1.9892
G01 X28.3570 Y1.9874
G01 X28.3790 Y1.9861
G01 X29.0250 Y1.9861
G01 X29.0397 Y1.9868
G01 X29.0544 Y1.9883
G01 X29.0689 Y1.9904
G01 X29.0834 Y1.9933
G01 X29.0976 Y1.9969
G01 X29.1117 Y2.0011
G01 X29.1324 Y2.0088
G01 X29.1459 Y2.0148
G01 X29.1590 Y2.0214
G01 X29.1719 Y2.0287
G01 X29.1843 Y2.0366
G01 X29.1963 Y2.0450
G01 X29.2079 Y2.0541
G01 X29.2245 Y2.0687
G01 X29.6761 Y2.5202
G01 X29.6912 Y2.5364
G01 X29.7050 Y2.5537
G01 X29.7175 Y2.5719
G01 X29.7286 Y2.5910
G01 X29.7383 Y2.6108
G01 X29.7465 Y2.6313
G01 X29.7531 Y2.6524
G01 X29.7582 Y2.6738
G01 X29.7617 Y2.6956
G01 X29.7632 Y2.7103
G01 X29.7640 Y2.7324
G01 X29.7640 Y3.3636
G01 X29.7636 Y3.3783
G01 X29.7626 Y3.3930
G01 X29.7608 Y3.4076
G01 X29.7582 Y3.4222
G01 X29.7550 Y3.4365
G01 X29.7511 Y3.4507
G01 X29.7439 Y3.4716
G01 X29.7383 Y3.4852
G01 X29.7320 Y3.4985
G01 X29.7213 Y3.5179
G01 X29.7093 Y3.5364
G01 X29.6959 Y3.5539
G01 X29.6813 Y3.5705
G01 X29.2298 Y4.0221
G01 X29.2191 Y4.0323
G01 X29.2022 Y4.0465
G01 X29.1843 Y4.0594
G01 X29.1655 Y4.0710
G01 X29.1459 Y4.0812
G01 X29.1256 Y4.0899
G01 X29.1047 Y4.0971
G01 X29.0834 Y4.1027
G01 X29.0616 Y4.1068
G01 X29.0397 Y4.1092
G01 X29.0176 Y4.1100
G01 X28.3790 Y4.1099
G01 X28.3643 Y4.1092
G01 X28.3496 Y4.1077
G01 X28.3278 Y4.1042
G01 X28.3064 Y4.0991
G01 X28.2923 Y4.0949
G01 X28.2784 Y4.0899
G01 X28.2648 Y4.0843
G01 X28.2515 Y4.0780
G01 X28.2385 Y4.0710
G01 X28.2259 Y4.0635
G01 X28.2136 Y4.0553
G01 X28.2018 Y4.0465
G01 X28.1904 Y4.0372
G01 X28.1795 Y4.0273
G01 X27.7542 Y3.6021
G01 X23.1285 Y3.6021
G01 X22.1360 Y4.5947
G01 X22.1359 Y5.1684
G01 X22.1352 Y5.1831
G01 X22.1328 Y5.2050
G01 X22.1287 Y5.2267
G01 X22.1231 Y5.2481
G01 X22.1159 Y5.2690
G01 X22.1072 Y5.2893
G01 X22.0970 Y5.3089
G01 X22.0854 Y5.3277
G01 X22.0725 Y5.3456
G01 X22.0583 Y5.3625
G01 X22.0429 Y5.3783
G01 X22.0263 Y5.3929
G01 X22.0087 Y5.4063
G01 X21.9902 Y5.4183
G01 X21.9774 Y5.4256
G01 X21.9576 Y5.4353
G01 X21.9371 Y5.4435
G01 X21.9160 Y5.4501
G01 X21.8945 Y5.4552
G01 X21.8727 Y5.4587
G01 X21.8581 Y5.4602
G01 X21.8360 Y5.4610
G01 X20.8360 Y5.4610
G01 X20.8213 Y5.4606
G01 X20.7993 Y5.4587
G01 X20.7847 Y5.4566
G01 X20.7631 Y5.4520
G01 X20.7489 Y5.4481
G01 X20.7280 Y5.4409
G01 X20.7077 Y5.4322
G01 X20.6946 Y5.4256
G01 X20.6818 Y5.4183
G01 X20.6693 Y5.4104
G01 X20.6514 Y5.3975
G01 X20.6400 Y5.3882
G01 X20.6291 Y5.3783
G01 X20.6187 Y5.3679
G01 X20.6088 Y5.3570
G01 X20.5950 Y5.3397
G01 X20.5866 Y5.3277
G01 X20.5787 Y5.3152
G01 X20.5680 Y5.2959
G01 X20.5617 Y5.2826
G01 X20.5535 Y5.2621
G01 X20.5469 Y5.2410
G01 X20.5433 Y5.2267
G01 X20.5392 Y5.2050
G01 X20.5374 Y5.1904
G01 X20.5361 Y5.1684
G01 X20.5360 Y4.0610
G01 X20.5368 Y4.0389
G01 X20.5383 Y4.0243
G01 X20.5404 Y4.0097
G01 X20.5433 Y3.9953
G01 X20.5469 Y3.9810
G01 X20.5535 Y3.9599
G01 X20.5588 Y3.9462
G01 X20.5648 Y3.9327
G01 X20.5714 Y3.9196
G01 X20.5787 Y3.9068
G01 X20.5866 Y3.8943
G01 X20.5950 Y3.8823
G01 X20.6088 Y3.8650
G01 X20.6239 Y3.8489
G01 X20.6345 Y3.8387
G01 X20.6457 Y3.8291
G01 X20.6633 Y3.8157
G01 X20.6755 Y3.8075
G01 X20.6881 Y3.8000
G01 X20.7077 Y3.7898
G01 X20.7212 Y3.7838
G01 X20.7349 Y3.7785
G01 X20.7560 Y3.7719
G01 X20.7703 Y3.7683
G01 X20.7847 Y3.7654
G01 X20.7993 Y3.7633
G01 X20.8139 Y3.7618
G01 X20.8360 Y3.7610
G00 Z2.0000
G00 X18.4166 Y16.6370
G01 F60.00
G01 Z-0.0400
G01 F80.00
G01 X18.4166 Y15.1130
G01 X18.4209 Y15.0260
G01 X18.4326 Y14.9459
G01 X18.4350 Y14.9339
G01 X18.4548 Y14.8554
G01 X18.4820 Y14.7791
G01 X18.4867 Y14.7678
G01 X18.5214 Y14.6947
G01 X18.5629 Y14.6252
G01 X18.5697 Y14.6150
G01 X18.6161 Y14.5524
G01 X18.6221 Y14.5454
G01 X18.6765 Y14.4855
G01 X18.7364 Y14.4311
G01 X18.7434 Y14.4251
G01 X18.8060 Y14.3787
G01 X18.8136 Y14.3735
G01 X18.8830 Y14.3319
G01 X18.8912 Y14.3276
G01 X18.9249 Y14.3117
G01 X18.9249 Y13.3319
G01 X18.9267 Y13.2978
G01 X18.9322 Y13.2610
G01 X18.9412 Y13.2249
G01 X18.9515 Y13.1956
G01 X18.9549 Y13.1871
G01 X18.9696 Y13.1563
G01 X18.9888 Y13.1244
G01 X19.0109 Y13.0945
G01 X19.0359 Y13.0669
G01 X20.6639 Y11.4390
G01 X20.6639 Y9.7690
G01 X20.4899 Y9.7690
G01 X20.4807 Y9.7684
G01 X20.4716 Y9.7672
G01 X20.4626 Y9.7653
G01 X20.4538 Y9.7627
G01 X20.4396 Y9.7570
G01 X20.4261 Y9.7496
G01 X20.4137 Y9.7406
G01 X20.4025 Y9.7302
G01 X20.3926 Y9.7185
G01 X20.3842 Y9.7056
G01 X20.3775 Y9.6918
G01 X20.3743 Y9.6832
G01 X20.3717 Y9.6744
G01 X20.3689 Y9.6593
G01 X20.3680 Y9.6440
G01 X20.3680 Y8.6440
G01 X20.3683 Y8.6348
G01 X20.3694 Y8.6257
G01 X20.3710 Y8.6166
G01 X20.3734 Y8.6077
G01 X20.3764 Y8.5990
G01 X20.3800 Y8.5906
G01 X20.3842 Y8.5824
G01 X20.3891 Y8.5746
G01 X20.3945 Y8.5671
G01 X20.4004 Y8.5601
G01 X20.4068 Y8.5535
G01 X20.4137 Y8.5474
G01 X20.4210 Y8.5418
G01 X20.4287 Y8.5368
G01 X20.4368 Y8.5323
G01 X20.4452 Y8.5285
G01 X20.4538 Y8.5253
G01 X20.4656 Y8.5220
G01 X20.4747 Y8.5204
G01 X20.4869 Y8.5192
G01 X20.6639 Y8.5190
G01 X20.6639 Y6.6009
G01 X20.6654 Y6.5699
G01 X20.6664 Y6.5607
G01 X20.6712 Y6.5300
G01 X20.6786 Y6.4999
G01 X20.6821 Y6.4881
G01 X20.6927 Y6.4589
G01 X20.7059 Y6.4308
G01 X20.7110 Y6.4211
G01 X20.7110 Y5.7610
G01 X20.7113 Y5.7518
G01 X20.7124 Y5.7427
G01 X20.7140 Y5.7336
G01 X20.7164 Y5.7247
G01 X20.7194 Y5.7160
G01 X20.7230 Y5.7076
G01 X20.7272 Y5.6994
G01 X20.7321 Y5.6916
G01 X20.7375 Y5.6841
G01 X20.7434 Y5.6771
G01 X20.7498 Y5.6705
G01 X20.7567 Y5.6644
G01 X20.7640 Y5.6588
G01 X20.7717 Y5.6538
G01 X20.7798 Y5.6493
G01 X20.7882 Y5.6455
G01 X20.7997 Y5.6414
G01 X20.8086 Y5.6390
G01 X20.8177 Y5.6374
G01 X20.8268 Y5.6363
G01 X20.8360 Y5.6360
G01 X21.8360 Y5.6360
G01 X21.8452 Y5.6363
G01 X21.8543 Y5.6374
G01 X21.8634 Y5.6390
G01 X21.8723 Y5.6414
G01 X21.8810 Y5.6444
G01 X21.8922 Y5.6493
G01 X21.9003 Y5.6538
G01 X21.9080 Y5.6588
G01 X21.9153 Y5.6644
G01 X21.9222 Y5.6705
G01 X21.9286 Y5.6771
G01 X21.9345 Y5.6841
G01 X21.9399 Y5.6916
G01 X21.9448 Y5.6994
G01 X21.9490 Y5.7076
G01 X21.9526 Y5.7160
G01 X21.9556 Y5.7247
G01 X21.9580 Y5.7336
G01 X21.9596 Y5.7427
G01 X21.9607 Y5.7518
G01 X21.9610 Y5.7610
G01 X21.9610 Y6.8610
G01 X21.9604 Y6.8733
G01 X21.9592 Y6.8824
G01 X21.9573 Y6.8914
G01 X21.9547 Y6.9002
G01 X21.9490 Y6.9144
G01 X21.9448 Y6.9226
G01 X21.9399 Y6.9304
G01 X21.9307 Y6.9426
G01 X21.9244 Y6.9494
G01 X21.9176 Y6.9557
G01 X21.9105 Y6.9614
G01 X21.9029 Y6.9666
G01 X21.8894 Y6.9740
G01 X21.8810 Y6.9776
G01 X21.8723 Y6.9806
G01 X21.8574 Y6.9842
G01 X21.8452 Y6.9857
G01 X21.8360 Y6.9860
G01 X21.4221 Y6.9860
G01 X21.4221 Y8.5190
G01 X21.5961 Y8.5190
G01 X21.6053 Y8.5196
G01 X21.6144 Y8.5208
G01 X21.6234 Y8.5227
G01 X21.6322 Y8.5253
G01 X21.6464 Y8.5310
G01 X21.6599 Y8.5384
G01 X21.6723 Y8.5474
G01 X21.6835 Y8.5578
G01 X21.6934 Y8.5695
G01 X21.7018 Y8.5824
G01 X21.7085 Y8.5962
G01 X21.7117 Y8.6048
G01 X21.7143 Y8.6136
G01 X21.7171 Y8.6287
G01 X21.7180 Y8.6440
G01 X21.7180 Y9.6440
G01 X21.7177 Y9.6532
G01 X21.7166 Y9.6623
G01 X21.7150 Y9.6714
G01 X21.7126 Y9.6803
G01 X21.7096 Y9.6890
G01 X21.7060 Y9.6974
G01 X21.7018 Y9.7056
G01 X21.6969 Y9.7134
G01 X21.6915 Y9.7209
G01 X21.6856 Y9.7279
G01 X21.6792 Y9.7345
G01 X21.6723 Y9.7406
G01 X21.6650 Y9.7462
G01 X21.6573 Y9.7512
G01 X21.6492 Y9.7557
G01 X21.6408 Y9.7595
G01 X21.6322 Y9.7627
G01 X21.6204 Y9.7660
G01 X21.6113 Y9.7676
G01 X21.5991 Y9.7688
G01 X21.4221 Y9.7690
G01 X21.4221 Y11.5960
G01 X21.4208 Y11.6270
G01 X21.4196 Y11.6393
G01 X21.4148 Y11.6700
G01 X21.4067 Y11.7031
G01 X21.4039 Y11.7119
G01 X21.3933 Y11.7411
G01 X21.3801 Y11.7692
G01 X21.3743 Y11.7801
G01 X21.3582 Y11.8066
G01 X21.3398 Y11.8317
G01 X21.3341 Y11.8389
G01 X21.3132 Y11.8619
G01 X19.6831 Y13.4920
G01 X19.6831 Y14.3117
G01 X19.7168 Y14.3276
G01 X19.7250 Y14.3319
G01 X19.7944 Y14.3735
G01 X19.8020 Y14.3787
G01 X19.8621 Y14.4233
G01 X19.8693 Y14.4290
G01 X19.9315 Y14.4855
G01 X19.9859 Y14.5454
G01 X19.9937 Y14.5549
G01 X20.0401 Y14.6175
G01 X20.0451 Y14.6252
G01 X20.0866 Y14.6947
G01 X20.1213 Y14.7678
G01 X20.1260 Y14.7791
G01 X20.1532 Y14.8554
G01 X20.1730 Y14.9339
G01 X20.1754 Y14.9459
G01 X20.1864 Y15.0199
G01 X20.1876 Y15.0321
G01 X20.1914 Y15.1130
G01 X20.1913 Y16.6401
G01 X20.1871 Y16.7240
G01 X20.1754 Y16.8041
G01 X20.1730 Y16.8161
G01 X20.1532 Y16.8946
G01 X20.1238 Y16.9766
G01 X20.0866 Y17.0553
G01 X20.0418 Y17.1300
G01 X19.9937 Y17.1951
G01 X19.9859 Y17.2046
G01 X19.9315 Y17.2645
G01 X19.8716 Y17.3189
G01 X19.8621 Y17.3267
G01 X19.8020 Y17.3713
G01 X19.7918 Y17.3781
G01 X19.7223 Y17.4196
G01 X19.6436 Y17.4568
G01 X19.5616 Y17.4862
G01 X19.4771 Y17.5073
G01 X19.3910 Y17.5201
G01 X19.3040 Y17.5244
G01 X19.2170 Y17.5201
G01 X19.1369 Y17.5084
G01 X19.1249 Y17.5060
G01 X19.0464 Y17.4862
G01 X18.9701 Y17.4590
G01 X18.9588 Y17.4543
G01 X18.8912 Y17.4224
G01 X18.8804 Y17.4166
G01 X18.8110 Y17.3748
G01 X18.7411 Y17.3230
G01 X18.6765 Y17.2645
G01 X18.6180 Y17.1999
G01 X18.5662 Y17.1300
G01 X18.5214 Y17.0553
G01 X18.4842 Y16.9766
G01 X18.4568 Y16.9004
G01 X18.4532 Y16.8887
G01 X18.4350 Y16.8161
G01 X18.4326 Y16.8041
G01 X18.4209 Y16.7240
G01 X18.4166 Y16.6370
G00 Z2.0000
G00 X18.2416 Y16.6370
G01 F60.00
G01 Z-0.0400
G01 F80.00
G01 X18.2416 Y15.1130
G01 X18.2420 Y15.0983
G01 X18.2457 Y15.0236
G01 X18.2467 Y15.0089
G01 X18.2485 Y14.9943
G01 X18.2595 Y14.9202
G01 X18.2620 Y14.9057
G01 X18.2653 Y14.8914
G01 X18.2834 Y14.8188
G01 X18.2874 Y14.8046
G01 X18.2920 Y14.7906
G01 X18.3172 Y14.7202
G01 X18.3225 Y14.7064
G01 X18.3285 Y14.6930
G01 X18.3604 Y14.6253
G01 X18.3671 Y14.6122
G01 X18.3743 Y14.5994
G01 X18.4128 Y14.5352
G01 X18.4248 Y14.5167
G01 X18.4737 Y14.4506
G01 X18.4828 Y14.4390
G01 X18.4924 Y14.4279
G01 X18.5426 Y14.3724
G01 X18.5581 Y14.3566
G01 X18.6189 Y14.3014
G01 X18.6358 Y14.2872
G01 X18.7077 Y14.2338
G01 X18.7199 Y14.2256
G01 X18.7499 Y14.2076
G01 X18.7499 Y13.3350
G01 X18.7502 Y13.3203
G01 X18.7519 Y13.2880
G01 X18.7534 Y13.2734
G01 X18.7592 Y13.2341
G01 X18.7620 Y13.2197
G01 X18.7698 Y13.1883
G01 X18.7737 Y13.1741
G01 X18.7784 Y13.1602
G01 X18.7921 Y13.1229
G01 X18.8005 Y13.1042
G01 X18.8153 Y13.0738
G01 X18.8315 Y13.0460
G01 X18.8433 Y13.0271
G01 X18.8666 Y12.9951
G01 X18.8757 Y12.9835
G01 X18.8853 Y12.9723
G01 X18.9070 Y12.9484
G01 X20.4889 Y11.3665
G01 X20.4889 Y9.9439
G01 X20.4783 Y9.9436
G01 X20.4636 Y9.9426
G01 X20.4417 Y9.9396
G01 X20.4273 Y9.9367
G01 X20.4130 Y9.9331
G01 X20.3919 Y9.9265
G01 X20.3782 Y9.9212
G01 X20.3647 Y9.9152
G01 X20.3451 Y9.9050
G01 X20.3263 Y9.8934
G01 X20.3143 Y9.8850
G01 X20.3027 Y9.8759
G01 X20.2861 Y9.8613
G01 X20.2757 Y9.8509
G01 X20.2658 Y9.8400
G01 X20.2520 Y9.8227
G01 X20.2395 Y9.8045
G01 X20.2320 Y9.7919
G01 X20.2250 Y9.7789
G01 X20.2158 Y9.7588
G01 X20.2081 Y9.7381
G01 X20.2039 Y9.7240
G01 X20.2003 Y9.7097
G01 X20.1974 Y9.6953
G01 X20.1944 Y9.6734
G01 X20.1934 Y9.6587
G01 X20.1930 Y9.6440
G01 X20.1930 Y8.6440
G01 X20.1934 Y8.6293
G01 X20.1944 Y8.6146
G01 X20.1962 Y8.6000
G01 X20.1988 Y8.5855
G01 X20.2020 Y8.5711
G01 X20.2059 Y8.5569
G01 X20.2105 Y8.5429
G01 X20.2158 Y8.5292
G01 X20.2218 Y8.5157
G01 X20.2284 Y8.5026
G01 X20.2357 Y8.4898
G01 X20.2436 Y8.4773
G01 X20.2520 Y8.4653
G01 X20.2611 Y8.4537
G01 X20.2707 Y8.4425
G01 X20.2809 Y8.4319
G01 X20.2915 Y8.4217
G01 X20.3027 Y8.4121
G01 X20.3143 Y8.4030
G01 X20.3263 Y8.3946
G01 X20.3388 Y8.3867
G01 X20.3516 Y8.3794
G01 X20.3647 Y8.3728
G01 X20.3782 Y8.3668
G01 X20.3919 Y8.3615
G01 X20.4059 Y8.3569
G01 X20.4201 Y8.3530
G01 X20.4345 Y8.3498
G01 X20.4490 Y8.3472
G01 X20.4636 Y8.3454
G01 X20.4783 Y8.3444
G01 X20.4889 Y8.3441
G01 X20.4890 Y6.5966
G01 X20.4909 Y6.5570
G01 X20.4924 Y6.5424
G01 X20.4982 Y6.5031
G01 X20.5010 Y6.4887
G01 X20.5107 Y6.4502
G01 X20.5150 Y6.4361
G01 X20.5283 Y6.3988
G01 X20.5360 Y6.3807
G01 X20.5361 Y5.7536
G01 X20.5374 Y5.7316
G01 X20.5404 Y5.7097
G01 X20.5450 Y5.6881
G01 X20.5511 Y5.6669
G01 X20.5588 Y5.6462
G01 X20.5680 Y5.6261
G01 X20.5787 Y5.6068
G01 X20.5907 Y5.5883
G01 X20.6041 Y5.5707
G01 X20.6187 Y5.5541
G01 X20.6291 Y5.5437
G01 X20.6457 Y5.5291
G01 X20.6633 Y5.5157
G01 X20.6818 Y5.5037
G01 X20.6946 Y5.4964
G01 X20.7144 Y5.4867
G01 X20.7280 Y5.4811
G01 X20.7489 Y5.4739
G01 X20.7703 Y5.4683
G01 X20.7920 Y5.4642
G01 X20.8139 Y5.4618
G01 X20.8360 Y5.4610
G01 X21.8360 Y5.4610
G01 X21.8507 Y5.4614
G01 X21.8654 Y5.4624
G01 X21.8873 Y5.4654
G01 X21.9089 Y5.4700
G01 X21.9301 Y5.4761
G01 X21.9508 Y5.4838
G01 X21.9709 Y5.4930
G01 X21.9902 Y5.5037
G01 X22.0087 Y5.5157
G01 X22.0263 Y5.5291
G01 X22.0375 Y5.5387
G01 X22.0533 Y5.5541
G01 X22.0679 Y5.5707
G01 X22.0813 Y5.5883
G01 X22.0895 Y5.6005
G01 X22.1006 Y5.6196
G01 X22.1103 Y5.6394
G01 X22.1159 Y5.6530
G01 X22.1231 Y5.6739
G01 X22.1287 Y5.6953
G01 X22.1328 Y5.7170
G01 X22.1352 Y5.7389
G01 X22.1360 Y5.7610
G01 X22.1360 Y6.8610
G01 X22.1356 Y6.8757
G01 X22.1346 Y6.8904
G01 X22.1316 Y6.9123
G01 X22.1270 Y6.9339
G01 X22.1209 Y6.9551
G01 X22.1159 Y6.9690
G01 X22.1072 Y6.9893
G01 X22.0970 Y7.0089
G01 X22.0895 Y7.0215
G01 X22.0813 Y7.0337
G01 X22.0679 Y7.0513
G01 X22.0533 Y7.0679
G01 X22.0375 Y7.0833
G01 X22.0263 Y7.0929
G01 X22.0087 Y7.1063
G01 X21.9965 Y7.1145
G01 X21.9774 Y7.1256
G01 X21.9643 Y7.1322
G01 X21.9508 Y7.1382
G01 X21.9371 Y7.1435
G01 X21.9231 Y7.1481
G01 X21.9089 Y7.1520
G01 X21.8945 Y7.1552
G01 X21.8800 Y7.1578
G01 X21.8654 Y7.1596
G01 X21.8507 Y7.1606
G01 X21.8360 Y7.1610
G01 X21.5971 Y7.1610
G01 X21.5971 Y8.3441
G01 X21.6077 Y8.3444
G01 X21.6224 Y8.3454
G01 X21.6443 Y8.3484
G01 X21.6587 Y8.3513
G01 X21.6730 Y8.3549
G01 X21.6941 Y8.3615
G01 X21.7146 Y8.3697
G01 X21.7279 Y8.3760
G01 X21.7409 Y8.3830
G01 X21.7535 Y8.3905
G01 X21.7657 Y8.3987
G01 X21.7833 Y8.4121
G01 X21.7945 Y8.4217
G01 X21.8051 Y8.4319
G01 X21.8202 Y8.4480
G01 X21.8340 Y8.4653
G01 X21.8465 Y8.4835
G01 X21.8540 Y8.4961
G01 X21.8610 Y8.5091
G01 X21.8702 Y8.5292
G01 X21.8779 Y8.5499
G01 X21.8821 Y8.5640
G01 X21.8857 Y8.5783
G01 X21.8886 Y8.5927
G01 X21.8916 Y8.6146
G01 X21.8926 Y8.6293
G01 X21.8930 Y8.6440
G01 X21.8930 Y9.6440
G01 X21.8926 Y9.6587
G01 X21.8916 Y9.6734
G01 X21.8898 Y9.6880
G01 X21.8872 Y9.7025
G01 X21.8840 Y9.7169
G01 X21.8801 Y9.7311
G01 X21.8755 Y9.7451
G01 X21.8702 Y9.7588
G01 X21.8642 Y9.7723
G01 X21.8576 Y9.7854
G01 X21.8503 Y9.7982
G01 X21.8424 Y9.8107
G01 X21.8340 Y9.8227
G01 X21.8249 Y9.8343
G01 X21.8153 Y9.8455
G01 X21.8051 Y9.8561
G01 X21.7945 Y9.8663
G01 X21.7833 Y9.8759
G01 X21.7717 Y9.8850
G01 X21.7597 Y9.8934
G01 X21.7472 Y9.9013
G01 X21.7344 Y9.9086
G01 X21.7213 Y9.9152
G01 X21.7078 Y9.9212
G01 X21.6941 Y9.9265
G01 X21.6801 Y9.9311
G01 X21.6659 Y9.9350
G01 X21.6515 Y9.9382
G01 X21.6370 Y9.9408
G01 X21.6224 Y9.9426
G01 X21.6077 Y9.9436
G01 X21.5971 Y9.9439
G01 X21.5971 Y11.5960
G01 X21.5968 Y11.6107
G01 X21.5951 Y11.6430
G01 X21.5927 Y11.6649
G01 X21.5865 Y11.7041
G01 X21.5772 Y11.7427
G01 X21.5710 Y11.7639
G01 X21.5602 Y11.7943
G01 X21.5549 Y11.8081
G01 X21.5383 Y11.8441
G01 X21.5281 Y11.8637
G01 X21.5078 Y11.8977
G01 X21.4953 Y11.9159
G01 X21.4713 Y11.9475
G01 X21.4617 Y11.9587
G01 X21.4400 Y11.9826
G01 X19.8581 Y13.5645
G01 X19.8581 Y14.2076
G01 X19.8881 Y14.2256
G01 X19.9003 Y14.2338
G01 X19.9722 Y14.2872
G01 X19.9891 Y14.3014
G01 X20.0499 Y14.3566
G01 X20.0654 Y14.3724
G01 X20.1156 Y14.4279
G01 X20.1252 Y14.4390
G01 X20.1343 Y14.4506
G01 X20.1789 Y14.5107
G01 X20.1914 Y14.5289
G01 X20.2337 Y14.5994
G01 X20.2409 Y14.6122
G01 X20.2476 Y14.6253
G01 X20.2795 Y14.6930
G01 X20.2855 Y14.7064
G01 X20.2908 Y14.7202
G01 X20.3160 Y14.7906
G01 X20.3206 Y14.8046
G01 X20.3246 Y14.8188
G01 X20.3427 Y14.8914
G01 X20.3473 Y14.9130
G01 X20.3595 Y14.9943
G01 X20.3613 Y15.0089
G01 X20.3623 Y15.0236
G01 X20.3660 Y15.0983
G01 X20.3664 Y15.1130
G01 X20.3663 Y16.6444
G01 X20.3623 Y16.7264
G01 X20.3613 Y16.7411
G01 X20.3595 Y16.7557
G01 X20.3485 Y16.8298
G01 X20.3460 Y16.8443
G01 X20.3427 Y16.8586
G01 X20.3246 Y16.9312
G01 X20.3184 Y16.9524
G01 X20.2908 Y17.0298
G01 X20.2855 Y17.0436
G01 X20.2795 Y17.0570
G01 X20.2476 Y17.1247
G01 X20.2409 Y17.1378
G01 X20.2337 Y17.1506
G01 X20.1952 Y17.2148
G01 X20.1873 Y17.2272
G01 X20.1789 Y17.2393
G01 X20.1343 Y17.2994
G01 X20.1252 Y17.3110
G01 X20.1156 Y17.3221
G01 X20.0604 Y17.3829
G01 X20.0446 Y17.3984
G01 X19.9891 Y17.4486
G01 X19.9780 Y17.4582
G01 X19.9664 Y17.4673
G01 X19.9003 Y17.5162
G01 X19.8818 Y17.5282
G01 X19.8176 Y17.5667
G01 X19.8048 Y17.5739
G01 X19.7917 Y17.5806
G01 X19.7240 Y17.6125
G01 X19.7106 Y17.6185
G01 X19.6968 Y17.6238
G01 X19.6264 Y17.6490
G01 X19.6124 Y17.6536
G01 X19.5982 Y17.6576
G01 X19.5256 Y17.6757
G01 X19.5113 Y17.6790
G01 X19.4968 Y17.6815
G01 X19.4227 Y17.6925
G01 X19.4081 Y17.6943
G01 X19.3934 Y17.6953
G01 X19.3187 Y17.6990
G01 X19.3040 Y17.6994
G01 X19.2893 Y17.6990
G01 X19.2146 Y17.6953
G01 X19.1999 Y17.6943
G01 X19.1853 Y17.6925
G01 X19.1112 Y17.6815
G01 X19.0967 Y17.6790
G01 X19.0824 Y17.6757
G01 X19.0027 Y17.6557
G01 X18.9816 Y17.6490
G01 X18.9112 Y17.6238
G01 X18.8907 Y17.6156
G01 X18.8163 Y17.5806
G01 X18.8032 Y17.5739
G01 X18.7904 Y17.5667
G01 X18.7262 Y17.5282
G01 X18.7138 Y17.5203
G01 X18.7017 Y17.5119
G01 X18.6416 Y17.4673
G01 X18.6300 Y17.4582
G01 X18.6189 Y17.4486
G01 X18.5634 Y17.3984
G01 X18.5528 Y17.3882
G01 X18.5426 Y17.3776
G01 X18.4924 Y17.3221
G01 X18.4828 Y17.3110
G01 X18.4737 Y17.2994
G01 X18.4291 Y17.2393
G01 X18.4207 Y17.2272
G01 X18.4128 Y17.2148
G01 X18.3743 Y17.1506
G01 X18.3671 Y17.1378
G01 X18.3604 Y17.1247
G01 X18.3285 Y17.0570
G01 X18.3225 Y17.0436
G01 X18.3172 Y17.0298
G01 X18.2920 Y16.9594
G01 X18.2853 Y16.9383
G01 X18.2653 Y16.8586
G01 X18.2620 Y16.8443
G01 X18.2595 Y16.8298
G01 X18.2485 Y16.7557
G01 X18.2467 Y16.7411
G01 X18.2457 Y16.7264
G01 X18.2420 Y16.6517
G01 X18.2416 Y16.6370
G00 Z2.0000
M05
G00 Z2.0000
G00 Z15.00


